; HEADER_BLOCK_START
; generated by OrcaSlicer 2.3.2 on 2026-06-06 at 10:06:39
; total layer number: 166
; filament_density: 1.24
; filament_diameter: 1.75
; max_z_height: 20.00
; filament: 1
; HEADER_BLOCK_END

; THUMBNAIL_BLOCK_START

;
; THUMBNAIL_BLOCK_END

; THUMBNAIL_BLOCK_START

;
; THUMBNAIL_BLOCK_END

; external perimeters extrusion width = 0.40mm
; perimeters extrusion width = 0.45mm
; infill extrusion width = 0.45mm
; solid infill extrusion width = 0.40mm
; top infill extrusion width = 0.40mm
; support material extrusion width = 0.40mm
; first layer extrusion width = 0.50mm

; EXECUTABLE_BLOCK_START
M73 P0 R43
M201 X500 Y500 Z500 E5000
M203 X500 Y500 Z10 E60
M204 P500 R1000 T500
M205 X8.00 Y8.00 Z0.40 E5.00 ; sets the jerk limits, mm/sec
;TYPE:Custom
G90 ; use absolute coordinates
M83 ; extruder relative mode
M140 S60 ; set final bed temp
M104 S150 ; set temporary nozzle temp to prevent oozing during homing
G4 S10 ; allow partial nozzle warmup
G28 ; home all axis
G1 Z50 F240
G1 X2 Y10 F3000
M73 P0 R42
M104 S220 ; set final nozzle temp
M190 S60 ; wait for bed temp to stabilize
M109 S220 ; wait for nozzle temp to stabilize
G1 Z0.28 F240
G92 E0
G1 Y140 E10 F1500 ; prime the nozzle
G1 X2.3 F5000
M73 P1 R42
G92 E0
G1 Y10 E10 F1200 ; prime the nozzle
G92 E0
G90
G21
M83 ; use relative distances for extrusion
; filament start gcode
M106 S0
;LAYER_CHANGE
;Z:0.2
;HEIGHT:0.2
;BEFORE_LAYER_CHANGE
;0.2
G92 E0

G1 E-5 F3600
;_SET_FAN_SPEED_CHANGING_LAYER
M204 S500
G1 Z.6 F9000
G1 X93.252 Y92.671
G1 Z.6
G1 Z.2
G1 E5 F2400
;TYPE:Skirt
;WIDTH:0.5
G1 F3000
G1 X128 Y92.671 E1.29423
G1 X129.576 Y93.324 E.06353
G1 X130.134 Y94.09 E.03528
G1 X139.556 Y115.139 E.85897
G1 X139.934 Y116.391 E.04873
G1 X140.1 Y118.196 E.0675
G1 X139.98 Y119.375 E.04415
G1 X139.612 Y120.689 E.05083
G1 X138.888 Y122.111 E.05943
G1 X138.19 Y123.046 E.04346
G1 X137.235 Y123.964 E.04933
G1 X136.198 Y124.678 E.04688
G1 X134.703 Y125.459 E.06285
G1 X128.623 Y127.24 E.23593
G1 X128 Y127.329 E.02346
G1 X92 Y127.329 E1.34086
G1 X90.424 Y126.676 E.06353
G1 X90.324 Y126.576 E.00527
G1 X89.671 Y125 E.06353
G1 X89.671 Y95 E1.11739
G1 X90.324 Y93.424 E.06353
G1 X90.424 Y93.324 E.00527
G1 X92 Y92.671 E.06353
G1 X93.212 Y92.671 E.04514
; printing object Hinge00.stl id:720576387062527073 copy 0
G1 E-3.8 F3600
;WIPE_START
G1 F3000
G1 X94.212 Y92.671 E-1.2
;WIPE_END
G1 Z.6 F9000
G1 X117.618 Y104.613 Z.6
G1 Z.2
G1 E5 F2400
;TYPE:Support
G1 F900
G1 X117.618 Y107.171 E.09526
G1 X117.819 Y107.83 E.02569
G1 X118.126 Y108.381 E.02348
G1 X118.126 Y104.102 E.15936
G1 X118.232 Y103.91 E.00818
G1 X118.634 Y103.453 E.02265
G1 X118.634 Y109.032 E.20779
G1 X118.867 Y109.275 E.01255
G1 X119.142 Y109.478 E.0127
G1 X119.142 Y103.008 E.24098
G1 X119.56 Y102.697 E.01942
G1 X119.649 Y102.653 E.00371
G1 X119.649 Y109.833 E.26742
G1 X119.85 Y109.931 E.0083
G1 X120.157 Y110.157 E.01423
G1 X120.157 Y102.323 E.29178
G1 X120.299 Y102.217 E.0066
G1 X120.665 Y102.154 E.01384
G1 X120.665 Y110.328 E.30446
G1 X121.173 Y110.415 E.01919
G1 X121.173 Y102.067 E.31094
G1 X121.333 Y102.04 E.00604
G1 X121.681 Y102.052 E.01297
G1 X121.681 Y110.431 E.31206
G1 X122.189 Y110.414 E.01893
G1 X122.189 Y102.068 E.31084
G1 X122.697 Y102.189 E.01945
G1 X122.697 Y110.293 E.30183
G1 X123.033 Y110.213 E.01287
G1 X123.205 Y110.132 E.00706
G1 X123.205 Y102.35 E.28987
G1 X123.712 Y102.587 E.02087
G1 X123.712 Y109.895 E.27222
G1 X123.817 Y109.847 E.00429
G1 X124.22 Y109.547 E.01872
G1 X124.22 Y102.935 E.24626
G1 X124.518 Y103.156 E.0138
G1 X124.728 Y103.397 E.01192
G1 X124.728 Y109.398 E.22348
G1 X121.672 Y101.64 F9000
G1 F900
G1 X122.246 Y101.659 E.02139
G1 X123.169 Y101.879 E.03533
G1 X124.029 Y102.28 E.03534
G1 X124.798 Y102.852 E.03572
G1 X125.45 Y103.604 E.03706
G1 X125.45 Y108.878 E.19641
G1 X124.798 Y109.63 E.03706
G1 X124.029 Y110.202 E.03572
G1 X123.169 Y110.603 E.03534
G1 X122.248 Y110.823 E.03528
G1 X121.303 Y110.855 E.03522
G1 X120.142 Y110.656 E.04386
M73 P2 R42
G1 X119.635 Y110.284 E.0234
G1 X119.354 Y110.146 E.01168
G1 X118.597 Y109.587 E.03504
G1 X118.385 Y109.372 E.01126
G1 X117.9 Y108.821 E.02734
G1 X117.438 Y107.992 E.03533
G1 X117.167 Y107.101 E.0347
G1 X117.086 Y106.197 E.03379
G1 X117.171 Y105.37 E.031
G1 X117.439 Y104.495 E.03407
G1 X117.894 Y103.672 E.03502
G1 X118.591 Y102.904 E.03863
G1 X119.345 Y102.345 E.03496
G1 X119.636 Y102.2 E.01211
G1 X120.131 Y101.828 E.02309
G1 X121.305 Y101.627 E.04436
G1 X121.604 Y101.638 E.01112
G1 E-3.5 F3600
;WIPE_START
G1 F900
G1 X122.246 Y101.659 E-.9644
G1 X122.594 Y101.742 E-.5356
;WIPE_END
G1 Z.6 F9000
G1 X132.996 Y112.634 Z.6
G1 Z.2
G1 E5 F2400
G1 F900
G1 X132.217 Y112.586 E.02908
G1 X131.245 Y112.703 E.03648
G1 X130.308 Y112.99 E.03651
G1 X129.436 Y113.44 E.03654
G1 X128.648 Y114.047 E.03703
G1 X128.55 Y114.159 E.00554
G1 X128.55 Y121.806 E.28483
G1 X128.645 Y121.915 E.00538
G1 X129.436 Y122.524 E.03719
G1 X130.308 Y122.974 E.03654
G1 X131.245 Y123.262 E.03651
G1 X132.217 Y123.378 E.03646
G1 X133.191 Y123.319 E.03636
G1 X133.824 Y123.164 E.02426
G1 X134.48 Y122.799 E.02796
G1 X134.943 Y122.566 E.01934
G1 X135.678 Y122.063 E.03314
G1 X136.347 Y121.42 E.03457
G1 X136.9 Y120.667 E.03481
G1 X137.312 Y119.824 E.03495
G1 X137.566 Y118.919 E.03501
G1 X137.652 Y117.982 E.03503
G1 X137.566 Y117.045 E.03503
G1 X137.312 Y116.141 E.03501
G1 X136.9 Y115.298 E.03495
G1 X136.347 Y114.544 E.03481
G1 X135.678 Y113.901 E.03457
G1 X134.943 Y113.399 E.03314
G1 X134.48 Y113.165 E.01934
G1 X133.788 Y112.78 E.02948
G1 X133.065 Y112.638 E.02745
G1 X136.917 Y120.163 F9000
G1 F900
G1 X136.917 Y116.269 E.14504
G1 X136.546 Y115.511 E.03143
G1 X136.409 Y115.324 E.00865
G1 X136.409 Y120.64 E.19803
G1 X136.037 Y121.148 E.02346
G1 X135.901 Y121.279 E.007
G1 X135.901 Y114.686 E.24556
G1 X135.393 Y114.205 E.02606
G1 X135.393 Y121.76 E.2814
G1 X134.885 Y122.107 E.02292
G1 X134.885 Y113.857 E.30727
G1 X134.734 Y113.754 E.00683
G1 X134.378 Y113.574 E.01486
G1 X134.378 Y122.39 E.32834
G1 X133.87 Y122.669 E.02159
G1 X133.87 Y113.295 E.34916
G1 X133.646 Y113.172 E.00953
G1 X133.362 Y113.116 E.01077
G1 X133.362 Y122.854 E.36271
G1 X133.129 Y122.911 E.00892
G1 X132.854 Y122.927 E.01027
G1 X132.854 Y113.037 E.36837
G1 X132.346 Y113.006 E.01895
G1 X132.346 Y122.958 E.37067
G1 X132.229 Y122.965 E.00438
G1 X131.838 Y122.918 E.01465
G1 X131.838 Y113.046 E.36772
G1 X131.33 Y113.107 E.01905
M73 P2 R41
G1 X131.33 Y122.858 E.36319
G1 X130.823 Y122.702 E.01979
G1 X130.823 Y113.262 E.35158
G1 X130.464 Y113.373 E.01398
G1 X130.315 Y113.45 E.00625
G1 X130.315 Y122.515 E.33764
G1 X129.807 Y122.252 E.02129
G1 X129.807 Y113.712 E.3181
G1 X129.658 Y113.789 E.00626
G1 X129.299 Y114.065 E.01686
G1 X129.299 Y122.159 E.30146
G1 E-3.5 F3600
;WIPE_START
G1 F900
;WIPE_END
G1 E-1.5 F3600
G1 Z.6 F9000
G1 X126.981 Y96.964 Z.6
G1 Z.2
G1 E5 F2400
;TYPE:Inner wall
;WIDTH:0.367207
G1 F900
G1 X126.704 Y96.296 E.01911
G1 X126.036 Y96.019 E.01911
G1 X126.981 Y96.019 E.02497
G1 X126.981 Y96.924 E.02392
G1 E-3.5 F3600
;WIPE_START
G1 F900
G1 X126.704 Y96.296 E-1.02978
G1 X126.414 Y96.176 E-.47022
;WIPE_END
G1 Z.6 F9000
G1 X110.008 Y96.664 Z.6
G1 Z.2
G1 E5 F2400
;WIDTH:0.451842
G1 F900
G1 X109.837 Y96.386 E.01087
;WIDTH:0.45011
G1 X109.186 Y96.061 E.02417
G1 X110.694 Y96.061 E.05004
G1 X110.163 Y96.386 E.02066
;WIDTH:0.451842
G1 X110.028 Y96.629 E.00925
G1 E-3.5 F3600
;WIPE_START
G1 F900
G1 X109.837 Y96.386 E-.46282
G1 X109.219 Y96.077 E-1.03718
;WIPE_END
G1 Z.6 F9000
G1 X101.741 Y96.94 Z.6
G1 Z.2
G1 E5 F2400
;TYPE:Outer wall
;WIDTH:0.38292
G1 F900
G1 X101.264 Y96.941 E.01324
G1 X101.259 Y95.06 F9000
G1 F900
G1 X101.735 Y95.059 E.01321
G1 E-3.5 F3600
;WIPE_START
G1 F900
G1 X101.259 Y95.06 E-1.5
;WIPE_END
G1 Z.6 F9000
G1 X93.019 Y96.964 Z.6
G1 Z.2
G1 E5 F2400
;TYPE:Inner wall
;WIDTH:0.367207
G1 F900
G1 X93.019 Y96.019 E.02497
G1 X93.828 Y96.019 E.02138
G1 X93.296 Y96.296 E.01585
G1 X93.035 Y96.927 E.01806
G1 E-3.5 F3600
;WIPE_START
G1 F900
G1 X93.019 Y96.019 E-1.36233
G1 X93.111 Y96.019 E-.13767
;WIPE_END
G1 Z.6 F9000
G1 X93.964 Y123.981 Z.6
G1 Z.2
G1 E5 F2400
G1 F900
G1 X93.019 Y123.981 E.02497
G1 X93.019 Y123.172 E.02138
G1 X93.296 Y123.704 E.01585
G1 X93.927 Y123.965 E.01806
G1 E-3.5 F3600
;WIPE_START
G1 F900
G1 X93.019 Y123.981 E-1.36233
G1 X93.019 Y123.889 E-.13767
;WIPE_END
G1 Z.6 F9000
G1 X101.259 Y123.06 Z.6
G1 Z.2
G1 E5 F2400
;TYPE:Outer wall
;WIDTH:0.38292
G1 F900
G1 X101.735 Y123.059 E.01321
G1 X101.741 Y124.94 F9000
G1 F900
G1 X101.264 Y124.941 E.01324
G1 E-3.5 F3600
;WIPE_START
G1 F900
G1 X101.741 Y124.94 E-1.5
;WIPE_END
G1 Z.6 F9000
G1 X109.306 Y123.939 Z.6
G1 Z.2
G1 E5 F2400
;TYPE:Inner wall
;WIDTH:0.45011
G1 F900
G1 X109.837 Y123.614 E.02066
G1 X109.99 Y123.335 E.01052
G1 X110.163 Y123.614 E.01088
G1 X110.814 Y123.939 E.02417
G1 X109.346 Y123.939 E.04871
G1 E-3.5 F3600
;WIPE_START
G1 F900
G1 X109.837 Y123.614 E-.88354
G1 X109.99 Y123.335 E-.47578
G1 X110.039 Y123.415 E-.14068
;WIPE_END
G1 Z.6 F9000
G1 X126.332 Y123.898 Z.6
G1 Z.2
G1 E5 F2400
;WIDTH:0.367207
G1 F900
G1 X126.704 Y123.704 E.01109
G1 X126.981 Y123.172 E.01585
G1 X126.981 Y123.981 E.02138
G1 X126.172 Y123.981 E.02138
G1 X126.296 Y123.916 E.00371
G1 E-3.5 F3600
;WIPE_START
G1 F900
G1 X126.704 Y123.704 E-.68946
G1 X126.953 Y123.225 E-.81054
;WIPE_END
G1 Z.6 F9000
G1 X103.079 Y123.7 Z.6
G1 Z.2
G1 E5 F2400
;WIDTH:0.64292
G1 F900
G1 X109.065 Y123.7 E.29269
G1 X109.207 Y123.585 E.00894
;WIDTH:0.59528
G1 X109.349 Y123.47 E.00823
;WIDTH:0.54764
G1 X109.491 Y123.354 E.00752
;WIDTH:0.548985
G1 X109.561 Y123.239 E.00554
;WIDTH:0.597971
G1 X109.63 Y123.124 E.00607
;WIDTH:0.646957
G1 X109.699 Y123.009 E.00661
G1 X109.7 Y122.943 E.00326
;WIDTH:0.64292
G1 X109.7 Y97.057 E1.26562
G1 X109.63 Y96.92 E.00752
;WIDTH:0.59528
G1 X109.561 Y96.783 E.00692
;WIDTH:0.54764
G1 X109.491 Y96.646 E.00632
G1 X109.309 Y96.53 E.00889
;WIDTH:0.59528
G1 X109.126 Y96.415 E.00973
;WIDTH:0.64292
G1 X108.943 Y96.3 E.01057
G1 X103.079 Y96.3 E.28671
G1 X103.105 Y96.099 E.00992
G1 X103.079 Y95.7 E.01954
G1 X108.943 Y95.7 E.28671
G1 X109.295 Y95.676 E.01727
;WIDTH:0.59528
G1 X109.648 Y95.652 E.0159
;WIDTH:0.54764
G1 X110 Y95.629 E.01452
G1 X110.352 Y95.652 E.01452
;WIDTH:0.59528
G1 X110.705 Y95.676 E.0159
;WIDTH:0.64292
G1 X111.057 Y95.7 E.01727
M73 P3 R41
G1 X125.943 Y95.7 E.7278
G1 X126.235 Y95.676 E.01432
;WIDTH:0.59528
G1 X126.527 Y95.652 E.01318
;WIDTH:0.54764
G1 X126.819 Y95.629 E.01205
;WIDTH:0.499999
G1 X127.371 Y95.629 E.02059
G1 X127.371 Y96.181 E.02059
;WIDTH:0.54764
G1 X127.348 Y96.473 E.01205
;WIDTH:0.59528
G1 X127.324 Y96.765 E.01318
;WIDTH:0.64292
G1 X127.3 Y97.057 E.01432
G1 X127.3 Y123.164 E1.27641
G1 X127.324 Y123.382 E.01074
;WIDTH:0.59528
G1 X127.348 Y123.6 E.00989
;WIDTH:0.54764
G1 X127.371 Y123.819 E.00903
;WIDTH:0.499999
G1 X127.371 Y124.371 E.02059
G1 X126.819 Y124.371 E.02059
;WIDTH:0.54764
G1 X126.527 Y124.348 E.01205
;WIDTH:0.59528
G1 X126.235 Y124.324 E.01318
;WIDTH:0.64292
G1 X125.943 Y124.3 E.01432
G1 X111.057 Y124.3 E.7278
G1 X110.705 Y124.324 E.01727
;WIDTH:0.59528
G1 X110.352 Y124.348 E.0159
;WIDTH:0.54764
G1 X110 Y124.371 E.01452
G1 X109.648 Y124.348 E.01452
;WIDTH:0.59528
G1 X109.295 Y124.324 E.0159
;WIDTH:0.64292
G1 X108.943 Y124.3 E.01727
G1 X103.079 Y124.3 E.28671
G1 X103.105 Y124.099 E.00992
G1 X103.082 Y123.74 E.01759
G1 X102.447 Y124.459 F9000
;TYPE:Outer wall
;WIDTH:0.499999
G1 F900
G1 X102.517 Y124.3 E.00646
G1 X102.56 Y124.027 E.01031
G1 X102.531 Y123.752 E.01031
G1 X102.432 Y123.493 E.01031
G1 X102.269 Y123.27 E.01031
G1 X102.125 Y123.15 E.00698
G1 X108.943 Y123.15 E.25396
G1 X109.109 Y123.067 E.0069
G1 X109.15 Y122.943 E.00488
G1 X109.15 Y97.057 E.96415
G1 X109.109 Y96.933 E.00488
G1 X108.943 Y96.85 E.0069
G1 X102.125 Y96.85 E.25396
G1 X102.23 Y96.769 E.00497
G1 X102.405 Y96.553 E.01031
G1 X102.517 Y96.3 E.01031
G1 X102.56 Y96.027 E.01031
G1 X102.531 Y95.752 E.01031
G1 X102.432 Y95.493 E.01031
G1 X102.269 Y95.27 E.01031
G1 X102.125 Y95.15 E.00698
G1 X127.85 Y95.15 E.95817
G1 X127.85 Y124.85 E1.10621
G1 X102.125 Y124.85 E.95817
G1 X102.23 Y124.769 E.00497
G1 X102.405 Y124.553 E.01031
G1 X102.43 Y124.495 E.00237
G1 E-3.5 F3600
;WIPE_START
G1 F900
G1 X102.517 Y124.3 E-.31998
G1 X102.56 Y124.027 E-.41527
G1 X102.531 Y123.752 E-.41523
G1 X102.447 Y123.534 E-.34952
;WIPE_END
G1 Z.6 F9000
G1 X126.251 Y123.56 Z.6
G1 Z.2
G1 E5 F2400
;TYPE:Inner wall
;WIDTH:0.59528
G1 F900
G1 X126.186 Y123.609 E.00366
;WIDTH:0.64292
G1 X126.064 Y123.7 E.0074
G1 X111.057 Y123.7 E.73375
G1 X110.874 Y123.585 E.01057
;WIDTH:0.59528
G1 X110.691 Y123.47 E.00973
;WIDTH:0.54764
G1 X110.509 Y123.354 E.00889
G1 X110.439 Y123.217 E.00632
;WIDTH:0.59528
G1 X110.37 Y123.08 E.00692
;WIDTH:0.64292
G1 X110.3 Y122.943 E.00752
G1 X110.3 Y97.057 E1.26562
G1 X110.37 Y96.92 E.00752
;WIDTH:0.59528
G1 X110.439 Y96.783 E.00692
;WIDTH:0.54764
G1 X110.509 Y96.646 E.00632
G1 X110.651 Y96.53 E.00752
;WIDTH:0.59528
G1 X110.793 Y96.415 E.00823
;WIDTH:0.64292
G1 X110.935 Y96.3 E.00894
G1 X125.943 Y96.3 E.73379
G1 X126.105 Y96.391 E.00906
;WIDTH:0.59528
G1 X126.266 Y96.482 E.00834
;WIDTH:0.54764
G1 X126.428 Y96.572 E.00762
G1 X126.518 Y96.734 E.00762
;WIDTH:0.59528
G1 X126.609 Y96.895 E.00834
;WIDTH:0.64292
G1 X126.7 Y97.057 E.00906
G1 X126.7 Y122.943 E1.26562
;WIDTH:0.650929
G1 X126.693 Y123.074 E.00653
G1 X126.626 Y123.163 E.00547
;WIDTH:0.613197
G1 X126.56 Y123.251 E.00513
;WIDTH:0.575464
G1 X126.494 Y123.339 E.00479
;WIDTH:0.537732
G1 X126.428 Y123.428 E.00445
;WIDTH:0.54764
G1 X126.307 Y123.518 E.00622
;WIDTH:0.59528
G1 X126.283 Y123.536 E.00135
G1 X125.943 Y123.15 F9000
;TYPE:Outer wall
;WIDTH:0.499999
G1 F900
G1 X111.057 Y123.15 E.55444
G1 X110.891 Y123.067 E.0069
G1 X110.85 Y122.943 E.00488
G1 X110.85 Y97.057 E.96415
G1 X110.891 Y96.933 E.00488
G1 X111.057 Y96.85 E.0069
G1 X125.943 Y96.85 E.55444
G1 X126.089 Y96.911 E.0059
G1 X126.15 Y97.057 E.0059
G1 X126.15 Y122.943 E.96415
G1 X126.089 Y123.089 E.0059
G1 X125.98 Y123.135 E.00441
G1 E-3.5 F3600
;WIPE_START
G1 F900
G1 X124.98 Y123.136 E-1.5
;WIPE_END
G1 Z.6 F9000
G1 X99.921 Y124.3 Z.6
G1 Z.2
M73 P4 R41
G1 E5 F2400
;TYPE:Inner wall
;WIDTH:0.64292
G1 F900
G1 X94.057 Y124.3 E.28671
G1 X93.765 Y124.324 E.01432
;WIDTH:0.59528
G1 X93.473 Y124.348 E.01318
;WIDTH:0.54764
G1 X93.181 Y124.371 E.01205
;WIDTH:0.499999
G1 X92.629 Y124.371 E.02059
G1 X92.629 Y123.819 E.02059
;WIDTH:0.54764
G1 X92.652 Y123.527 E.01205
;WIDTH:0.59528
G1 X92.676 Y123.235 E.01318
;WIDTH:0.64292
G1 X92.7 Y122.943 E.01432
G1 X92.7 Y97.057 E1.26562
G1 X92.676 Y96.765 E.01432
;WIDTH:0.59528
G1 X92.652 Y96.473 E.01318
;WIDTH:0.54764
G1 X92.629 Y96.181 E.01205
;WIDTH:0.499999
G1 X92.629 Y95.629 E.02059
G1 X93.181 Y95.629 E.02059
;WIDTH:0.54764
G1 X93.473 Y95.652 E.01205
;WIDTH:0.59528
G1 X93.765 Y95.676 E.01318
;WIDTH:0.64292
G1 X94.057 Y95.7 E.01432
G1 X99.921 Y95.7 E.28671
G1 X99.895 Y95.901 E.00992
G1 X99.921 Y96.3 E.01954
G1 X93.936 Y96.3 E.29265
G1 X93.814 Y96.391 E.0074
;WIDTH:0.59528
G1 X93.693 Y96.482 E.00681
;WIDTH:0.54764
G1 X93.572 Y96.572 E.00622
G1 X93.482 Y96.734 E.00762
;WIDTH:0.59528
G1 X93.391 Y96.895 E.00834
;WIDTH:0.64292
G1 X93.3 Y97.057 E.00906
G1 X93.3 Y123.064 E1.27156
G1 X93.391 Y123.186 E.0074
;WIDTH:0.59528
G1 X93.482 Y123.307 E.00681
;WIDTH:0.54764
G1 X93.572 Y123.428 E.00622
G1 X93.734 Y123.518 E.00762
;WIDTH:0.59528
G1 X93.895 Y123.609 E.00834
;WIDTH:0.64292
G1 X94.057 Y123.7 E.00906
G1 X99.921 Y123.7 E.28671
G1 X99.895 Y123.901 E.00992
G1 X99.918 Y124.26 E.01759
G1 X100.875 Y124.85 F9000
;TYPE:Outer wall
;WIDTH:0.499999
G1 F900
G1 X92.15 Y124.85 E.32499
G1 X92.15 Y95.15 E1.10621
G1 X100.875 Y95.15 E.32499
G1 X100.77 Y95.231 E.00497
G1 X100.595 Y95.447 E.01031
G1 X100.483 Y95.7 E.01031
G1 X100.44 Y95.973 E.01031
G1 X100.469 Y96.248 E.01031
G1 X100.568 Y96.507 E.01031
G1 X100.731 Y96.73 E.01031
G1 X100.875 Y96.85 E.00697
G1 X94.057 Y96.85 E.25396
G1 X93.911 Y96.911 E.0059
G1 X93.85 Y97.057 E.0059
G1 X93.85 Y122.943 E.96415
G1 X93.911 Y123.089 E.0059
G1 X94.057 Y123.15 E.0059
G1 X100.875 Y123.15 E.25396
G1 X100.77 Y123.231 E.00497
G1 X100.595 Y123.447 E.01031
G1 X100.483 Y123.7 E.01031
G1 X100.44 Y123.973 E.01031
G1 X100.469 Y124.248 E.01031
