; HEADER_BLOCK_START
; generated by OrcaSlicer 2.3.2 on 2026-06-04 at 11:09:32
; total layer number: 243
; filament_density: 1.24
; filament_diameter: 1.75
; max_z_height: 20.00
; filament: 1
; HEADER_BLOCK_END

; THUMBNAIL_BLOCK_START

;
; THUMBNAIL_BLOCK_END

; THUMBNAIL_BLOCK_START

;
; THUMBNAIL_BLOCK_END

; external perimeters extrusion width = 0.40mm
; perimeters extrusion width = 0.45mm
; infill extrusion width = 0.45mm
; solid infill extrusion width = 0.40mm
; top infill extrusion width = 0.40mm
; support material extrusion width = 0.40mm
; first layer extrusion width = 0.50mm

; EXECUTABLE_BLOCK_START
M73 P0 R137
M201 X500 Y500 Z500 E5000
M203 X500 Y500 Z10 E60
M204 P500 R1000 T500
M205 X8.00 Y8.00 Z0.40 E5.00 ; sets the jerk limits, mm/sec
;TYPE:Custom
G90 ; use absolute coordinates
M83 ; extruder relative mode
M140 S60 ; set final bed temp
M104 S150 ; set temporary nozzle temp to prevent oozing during homing
G4 S10 ; allow partial nozzle warmup
G28 ; home all axis
G1 Z50 F240
G1 X2 Y10 F3000
M104 S220 ; set final nozzle temp
M190 S60 ; wait for bed temp to stabilize
M109 S220 ; wait for nozzle temp to stabilize
G1 Z0.28 F240
G92 E0
G1 Y140 E10 F1500 ; prime the nozzle
G1 X2.3 F5000
G92 E0
G1 Y10 E10 F1200 ; prime the nozzle
G92 E0
G90
G21
M83 ; use relative distances for extrusion
; filament start gcode
M106 S0
;LAYER_CHANGE
;Z:0.2
;HEIGHT:0.2
;BEFORE_LAYER_CHANGE
;0.2
G92 E0

G1 E-5 F3600
;_SET_FAN_SPEED_CHANGING_LAYER
M204 S500
G1 Z.6 F9000
G1 X91.289 Y91.192
G1 Z.6
G1 Z.2
G1 E5 F2400
;TYPE:Skirt
;WIDTH:0.5
G1 F3000
G1 X91.483 Y91.049 E.00898
G1 X92.335 Y90.86 E.0325
G1 X125.978 Y88.366 E1.25651
G1 X132.151 Y88.36 E.22993
G1 X133.727 Y89.013 E.06353
G1 X133.861 Y89.147 E.00705
G1 X134.514 Y90.723 E.06353
G1 X134.514 Y129.114 E1.42993
G1 X134.052 Y130.473 E.05346
M73 P0 R136
G1 X133.823 Y130.77 E.01397
G1 X133.067 Y131.398 E.03661
G1 X127.413 Y134.272 E.23623
G1 X126.403 Y134.514 E.03868
G1 X93.597 Y134.514 E1.2219
G1 X92.021 Y133.861 E.06353
G1 X91.3 Y132.689 E.05127
G1 X89.911 Y127.093 E.21475
G1 X89.845 Y126.556 E.02015
G1 X89.845 Y93.444 E1.23328
G1 X89.969 Y92.707 E.02783
G1 X90.539 Y91.746 E.04162
G1 X91.257 Y91.216 E.03327
; printing object Hinge00.stl id:720576387062527073 copy 0
G1 E-3.8 F3600
;WIPE_START
G1 F3000
G1 X91.483 Y91.049 E-.33736
G1 X92.185 Y90.893 E-.86264
;WIPE_END
G1 Z.6 F9000
G1 X94.256 Y127.574 Z.6
G1 Z.2
G1 E5 F2400
;TYPE:Support
G1 F900
G1 X94.256 Y131.645 E.15166
G1 X94.764 Y131.645 E.01892
G1 X94.764 Y127.779 E.144
G1 X95.272 Y127.779 E.01892
G1 X95.272 Y131.645 E.144
G1 X95.78 Y131.645 E.01892
G1 X95.78 Y127.779 E.144
G1 X96.288 Y127.779 E.01892
G1 X96.288 Y131.645 E.144
G1 X96.795 Y131.645 E.01892
G1 X96.795 Y127.779 E.144
G1 X97.303 Y127.779 E.01892
G1 X97.303 Y131.645 E.144
G1 X97.811 Y131.645 E.01892
G1 X97.811 Y127.779 E.144
G1 X98.319 Y127.779 E.01892
G1 X98.319 Y131.645 E.144
G1 X98.827 Y131.645 E.01892
G1 X98.827 Y127.779 E.144
G1 X99.335 Y127.779 E.01892
G1 X99.335 Y131.645 E.144
G1 X99.843 Y131.645 E.01892
G1 X99.843 Y127.779 E.144
G1 X100.351 Y127.779 E.01892
G1 X100.351 Y131.645 E.144
G1 X100.858 Y131.645 E.01892
G1 X100.858 Y127.779 E.144
G1 X101.366 Y127.779 E.01892
G1 X101.366 Y131.645 E.144
G1 X101.874 Y131.645 E.01892
G1 X101.874 Y127.779 E.144
G1 X102.382 Y127.779 E.01892
G1 X102.382 Y131.645 E.144
G1 X102.89 Y131.645 E.01892
G1 X102.89 Y127.779 E.144
G1 X103.398 Y127.779 E.01892
G1 X103.398 Y131.645 E.144
G1 X103.906 Y131.645 E.01892
G1 X103.906 Y127.779 E.144
G1 X104.413 Y127.779 E.01892
G1 X104.413 Y131.645 E.144
G1 X104.921 Y131.645 E.01892
G1 X104.921 Y127.779 E.144
G1 X105.429 Y127.779 E.01892
G1 X105.429 Y131.645 E.144
G1 X105.937 Y131.645 E.01892
G1 X105.937 Y127.779 E.144
G1 X106.445 Y127.779 E.01892
G1 X106.445 Y131.645 E.144
G1 X106.953 Y131.645 E.01892
G1 X106.953 Y127.779 E.144
G1 X107.461 Y127.779 E.01892
G1 X107.461 Y131.645 E.144
G1 X107.969 Y131.645 E.01892
G1 X107.969 Y127.779 E.144
G1 X108.476 Y127.779 E.01892
G1 X108.476 Y131.851 E.15166
G1 X109.063 Y131.988 F9000
G1 F900
G1 X109.063 Y127.368 E.17209
G1 X93.692 Y127.368 E.57251
G1 X93.692 Y132.057 E.17464
G1 X109.063 Y132.057 E.57251
G1 E-3.5 F3600
;WIPE_START
G1 F900
G1 X108.063 Y132.057 E-1.5
;WIPE_END
G1 Z.6 F9000
G1 X111.524 Y131.851 Z.6
G1 Z.2
G1 E5 F2400
G1 F900
G1 X111.524 Y127.779 E.15166
G1 X112.031 Y127.779 E.01892
G1 X112.031 Y131.645 E.144
G1 X112.539 Y131.645 E.01892
G1 X112.539 Y127.779 E.144
G1 X113.047 Y127.779 E.01892
G1 X113.047 Y131.645 E.144
G1 X113.555 Y131.645 E.01892
G1 X113.555 Y127.779 E.144
G1 X114.063 Y127.779 E.01892
G1 X114.063 Y131.645 E.144
G1 X114.571 Y131.645 E.01892
G1 X114.571 Y127.779 E.144
G1 X115.079 Y127.779 E.01892
G1 X115.079 Y131.645 E.144
G1 X115.587 Y131.645 E.01892
G1 X115.587 Y127.779 E.144
G1 X116.094 Y127.779 E.01892
G1 X116.094 Y131.645 E.144
G1 X116.602 Y131.645 E.01892
G1 X116.602 Y127.779 E.144
G1 X117.11 Y127.779 E.01892
G1 X117.11 Y131.645 E.144
G1 X117.618 Y131.645 E.01892
G1 X117.618 Y127.779 E.144
G1 X118.126 Y127.779 E.01892
G1 X118.126 Y131.645 E.144
G1 X118.634 Y131.645 E.01892
G1 X118.634 Y127.779 E.144
G1 X119.142 Y127.779 E.01892
G1 X119.142 Y131.645 E.144
G1 X119.649 Y131.645 E.01892
G1 X119.649 Y127.779 E.144
G1 X120.157 Y127.779 E.01892
G1 X120.157 Y131.645 E.144
G1 X120.665 Y131.645 E.01892
G1 X120.665 Y127.779 E.144
G1 X121.173 Y127.779 E.01892
G1 X121.173 Y131.645 E.144
G1 X121.681 Y131.645 E.01892
G1 X121.681 Y127.779 E.144
G1 X122.189 Y127.779 E.01892
G1 X122.189 Y131.645 E.144
G1 X122.697 Y131.645 E.01892
G1 X122.697 Y127.779 E.144
G1 X123.205 Y127.779 E.01892
G1 X123.205 Y131.645 E.144
G1 X123.712 Y131.645 E.01892
G1 X123.712 Y127.779 E.144
G1 X124.22 Y127.779 E.01892
G1 X124.22 Y131.645 E.144
G1 X124.728 Y131.645 E.01892
G1 X124.728 Y127.779 E.144
G1 X125.236 Y127.779 E.01892
G1 X125.236 Y131.645 E.144
G1 X125.744 Y131.645 E.01892
G1 X125.744 Y127.779 E.144
G1 X126.252 Y127.779 E.01892
G1 X126.252 Y128.771 E.03694
G1 X126.76 Y128.771 E.01892
G1 X126.76 Y127.779 E.03694
G1 X127.267 Y127.779 E.01892
G1 X127.267 Y128.771 E.03694
G1 X127.775 Y128.771 E.01892
G1 X127.775 Y127.742 E.03833
G1 X127.967 Y127.698 E.00734
G1 X128.131 Y127.634 E.00653
G1 X128.283 Y127.522 E.00705
G1 X128.283 Y128.771 E.04653
G1 X128.791 Y128.771 E.01892
G1 X128.791 Y91.229 E1.39831
G1 X129.299 Y91.229 E.01892
G1 X129.299 Y128.771 E1.39831
G1 X129.807 Y128.771 E.01892
G1 X129.807 Y91.229 E1.39831
G1 X130.315 Y91.229 E.01892
G1 X130.315 Y128.771 E1.39831
G1 X130.823 Y128.771 E.01892
G1 X130.823 Y91.229 E1.39831
G1 X131.33 Y91.229 E.01892
G1 X131.33 Y128.977 E1.40597
G1 X132.057 Y129.114 F9000
G1 F900
G1 X132.057 Y90.817 E1.4264
G1 X126.23 Y90.817 E.21701
M73 P1 R136
G1 X126.03 Y92.632 E.06799
G1 X127.522 Y92.632 E.05555
G1 X127.836 Y92.692 E.01192
G1 X127.931 Y92.729 E.0038
G1 X128.028 Y92.801 E.0045
G1 X128.282 Y93.123 E.01527
G1 X128.371 Y93.36 E.00943
G1 X128.379 Y93.462 E.00381
G1 X128.379 Y126.538 E1.23199
G1 X128.371 Y126.64 E.00381
G1 X128.321 Y126.804 E.00638
G1 X128.282 Y126.877 E.00308
G1 X128.028 Y127.199 E.01527
G1 X127.931 Y127.271 E.0045
G1 X127.797 Y127.319 E.00528
G1 X127.522 Y127.368 E.01044
G1 X110.937 Y127.368 E.61771
G1 X110.937 Y132.057 E.17464
G1 X126.308 Y132.057 E.57251
G1 X126.308 Y129.183 E.10705
G1 X132.057 Y129.183 E.21411
G1 X128.283 Y92.792 F9000
G1 F900
G1 X128.283 Y91.229 E.05823
G1 X127.775 Y91.229 E.01892
G1 X127.775 Y92.258 E.03833
G1 X127.541 Y92.221 E.00882
G1 X127.267 Y92.221 E.0102
G1 X127.267 Y91.229 E.03694
G1 X126.76 Y91.229 E.01892
G1 X126.76 Y92.426 E.0446
G1 X126.741 Y94.268 F9000
;TYPE:Inner wall
;WIDTH:0.499999
G1 F900
G1 X126.741 Y125.732 E1.17194
G1 X93.259 Y125.732 E1.24707
G1 X93.259 Y94.268 E1.17194
G1 X126.701 Y94.268 E1.24558
G1 X127.198 Y93.811 F9000
G1 F900
G1 X127.198 Y126.189 E1.20599
G1 X92.802 Y126.189 E1.28112
M73 P1 R135
G1 X92.802 Y93.811 E1.20599
G1 X127.158 Y93.811 E1.27963
G1 X127.677 Y93.519 F9000
;TYPE:Outer wall
G1 F900
G1 X127.677 Y126.485 E1.22787
G1 X127.564 Y126.649 E.00739
G1 X127.474 Y126.668 E.00344
G1 X92.449 Y126.668 E1.30453
G1 X92.323 Y126.485 E.00826
G1 X92.323 Y93.515 E1.22801
G1 X92.436 Y93.351 E.00739
G1 X92.526 Y93.332 E.00344
G1 X127.539 Y93.332 E1.30411
G1 X127.653 Y93.486 E.00713
G1 E-3.5 F3600
;WIPE_START
G1 F900
G1 X127.654 Y94.486 E-1.5
;WIPE_END
G1 Z.6 F9000
G1 X125.672 Y94.405 Z.6
G1 Z.2
G1 E5 F2400
;TYPE:Bottom surface
;WIDTH:0.503535
G1 F1200
G1 X126.398 Y95.131 E.03853
G1 X126.398 Y95.782 E.02445
G1 X125.227 Y94.61 E.06219
G1 X124.575 Y94.61 E.02445
G1 X126.398 Y96.433 E.09676
G1 X126.398 Y97.085 E.02445
G1 X123.924 Y94.61 E.13134
G1 X123.272 Y94.61 E.02445
G1 X126.398 Y97.736 E.16592
G1 X126.398 Y98.388 E.02445
G1 X122.621 Y94.61 E.2005
G1 X121.97 Y94.61 E.02445
G1 X126.398 Y99.039 E.23507
G1 X126.398 Y99.69 E.02445
G1 X121.318 Y94.61 E.26965
G1 X120.667 Y94.61 E.02445
G1 X126.398 Y100.342 E.30423
G1 X126.398 Y100.993 E.02445
G1 X120.015 Y94.61 E.33881
G1 X119.364 Y94.61 E.02445
G1 X126.398 Y101.645 E.37338
G1 X126.398 Y102.296 E.02445
G1 X118.712 Y94.61 E.40796
G1 X118.061 Y94.61 E.02445
G1 X126.398 Y102.947 E.44254
G1 X126.398 Y103.599 E.02445
G1 X117.41 Y94.61 E.47712
G1 X116.758 Y94.61 E.02445
G1 X126.398 Y104.25 E.5117
G1 X126.398 Y104.902 E.02445
G1 X116.107 Y94.61 E.54627
G1 X115.455 Y94.61 E.02445
G1 X126.398 Y105.553 E.58085
G1 X126.398 Y106.204 E.02445
G1 X114.804 Y94.61 E.61543
G1 X114.153 Y94.61 E.02445
G1 X126.398 Y106.856 E.65001
G1 X126.398 Y107.507 E.02445
G1 X113.501 Y94.61 E.68458
G1 X112.85 Y94.61 E.02445
G1 X126.398 Y108.159 E.71916
G1 X126.398 Y108.81 E.02445
G1 X112.198 Y94.61 E.75374
G1 X111.547 Y94.61 E.02445
G1 X126.398 Y109.462 E.78832
G1 X126.398 Y110.113 E.02445
G1 X110.896 Y94.61 E.8229
G1 X110.244 Y94.61 E.02445
G1 X126.398 Y110.764 E.85747
G1 X126.398 Y111.416 E.02445
G1 X109.593 Y94.61 E.89205
G1 X108.941 Y94.61 E.02445
G1 X126.398 Y112.067 E.92663
G1 X126.398 Y112.719 E.02445
G1 X108.29 Y94.61 E.96121
G1 X107.639 Y94.61 E.02445
G1 X126.398 Y113.37 E.99578
G1 X126.398 Y114.021 E.02445
G1 X106.987 Y94.61 E1.03036
G1 X106.336 Y94.61 E.02445
G1 X126.398 Y114.673 E1.06494
G1 X126.398 Y115.324 E.02445
G1 X105.684 Y94.61 E1.09952
G1 X105.033 Y94.61 E.02445
G1 X126.398 Y115.976 E1.13409
G1 X126.398 Y116.627 E.02445
G1 X104.382 Y94.61 E1.16867
G1 X103.73 Y94.61 E.02445
G1 X126.398 Y117.278 E1.20325
G1 X126.398 Y117.93 E.02445
G1 X103.079 Y94.61 E1.23783
G1 X102.427 Y94.61 E.02445
G1 X126.398 Y118.581 E1.27241
G1 X126.398 Y119.233 E.02445
G1 X101.776 Y94.61 E1.30698
G1 X101.124 Y94.61 E.02445
G1 X126.398 Y119.884 E1.34156
G1 X126.398 Y120.535 E.02445
G1 X100.473 Y94.61 E1.37614
G1 X99.822 Y94.61 E.02445
G1 X126.398 Y121.187 E1.41072
G1 X126.398 Y121.838 E.02445
G1 X99.17 Y94.61 E1.44529
G1 X98.519 Y94.61 E.02445
M73 P1 R134
G1 X126.398 Y122.49 E1.47987
G1 X126.398 Y123.141 E.02445
G1 X97.867 Y94.61 E1.51445
G1 X97.216 Y94.61 E.02445
G1 X126.398 Y123.793 E1.54903
G1 X126.398 Y124.444 E.02445
M73 P2 R134
G1 X96.565 Y94.61 E1.58361
G1 X95.913 Y94.61 E.02445
G1 X126.398 Y125.095 E1.61818
G1 X126.398 Y125.39 E.01104
G1 X126.041 Y125.39 E.01341
G1 X95.262 Y94.61 E1.6338
G1 X94.61 Y94.61 E.02445
G1 X125.389 Y125.39 E1.6338
G1 X124.738 Y125.39 E.02445
G1 X93.959 Y94.61 E1.6338
G1 X93.602 Y94.61 E.0134
G1 X93.602 Y94.905 E.01105
G1 X124.087 Y125.39 E1.61818
G1 X123.435 Y125.39 E.02445
G1 X93.602 Y95.556 E1.5836
G1 X93.602 Y96.208 E.02445
G1 X122.784 Y125.39 E1.54902
G1 X122.132 Y125.39 E.02445
G1 X93.602 Y96.859 E1.51444
G1 X93.602 Y97.51 E.02445
G1 X121.481 Y125.39 E1.47987
G1 X120.83 Y125.39 E.02445
G1 X93.602 Y98.162 E1.44529
G1 X93.602 Y98.813 E.02445
G1 X120.178 Y125.39 E1.41071
G1 X119.527 Y125.39 E.02445
G1 X93.602 Y99.465 E1.37613
G1 X93.602 Y100.116 E.02445
G1 X118.875 Y125.39 E1.34155
G1 X118.224 Y125.39 E.02445
G1 X93.602 Y100.767 E1.30698
G1 X93.602 Y101.419 E.02445
G1 X117.573 Y125.39 E1.2724
G1 X116.921 Y125.39 E.02445
G1 X93.602 Y102.07 E1.23782
G1 X93.602 Y102.722 E.02445
G1 X116.27 Y125.39 E1.20324
G1 X115.618 Y125.39 E.02445
G1 X93.602 Y103.373 E1.16867
G1 X93.602 Y104.025 E.02445
G1 X114.967 Y125.39 E1.13409
G1 X114.316 Y125.39 E.02445
G1 X93.602 Y104.676 E1.09951
G1 X93.602 Y105.327 E.02445
G1 X113.664 Y125.39 E1.06493
G1 X113.013 Y125.39 E.02445
G1 X93.602 Y105.979 E1.03036
G1 X93.602 Y106.63 E.02445
G1 X112.361 Y125.39 E.99578
G1 X111.71 Y125.39 E.02445
G1 X93.602 Y107.282 E.9612
G1 X93.602 Y107.933 E.02445
G1 X111.059 Y125.39 E.92662
G1 X110.407 Y125.39 E.02445
G1 X93.602 Y108.584 E.89204
G1 X93.602 Y109.236 E.02445
G1 X109.756 Y125.39 E.85747
G1 X109.104 Y125.39 E.02445
G1 X93.602 Y109.887 E.82289
G1 X93.602 Y110.539 E.02445
G1 X108.453 Y125.39 E.78831
G1 X107.801 Y125.39 E.02445
G1 X93.602 Y111.19 E.75373
G1 X93.602 Y111.841 E.02445
M73 P2 R133
G1 X107.15 Y125.39 E.71916
G1 X106.499 Y125.39 E.02445
G1 X93.602 Y112.493 E.68458
G1 X93.602 Y113.144 E.02445
G1 X105.847 Y125.39 E.65
G1 X105.196 Y125.39 E.02445
G1 X93.602 Y113.796 E.61542
G1 X93.602 Y114.447 E.02445
G1 X104.544 Y125.39 E.58085
G1 X103.893 Y125.39 E.02445
G1 X93.602 Y115.098 E.54627
G1 X93.602 Y115.75 E.02445
G1 X103.242 Y125.39 E.51169
G1 X102.59 Y125.39 E.02445
G1 X93.602 Y116.401 E.47711
G1 X93.602 Y117.053 E.02445
G1 X101.939 Y125.39 E.44253
G1 X101.287 Y125.39 E.02445
G1 X93.602 Y117.704 E.40796
G1 X93.602 Y118.355 E.02445
G1 X100.636 Y125.39 E.37338
G1 X99.985 Y125.39 E.02445
G1 X93.602 Y119.007 E.3388
G1 X93.602 Y119.658 E.02445
G1 X99.333 Y125.39 E.30422
G1 X98.682 Y125.39 E.02445
G1 X93.602 Y120.31 E.26965
G1 X93.602 Y120.961 E.02445
G1 X98.03 Y125.39 E.23507
G1 X97.379 Y125.39 E.02445
G1 X93.602 Y121.613 E.20049
G1 X93.602 Y122.264 E.02445
G1 X96.728 Y125.39 E.16591
G1 X96.076 Y125.39 E.02445
G1 X93.602 Y122.915 E.13133
G1 X93.602 Y123.567 E.02445
G1 X95.425 Y125.39 E.09676
G1 X94.773 Y125.39 E.02445
G1 X93.602 Y124.218 E.06218
G1 X93.602 Y124.87 E.02445
G1 X94.328 Y125.595 E.03852
; stop printing object Hinge00.stl id:720576387062527073 copy 0
M106 S255
;LAYER_CHANGE
;Z:0.32
;HEIGHT:0.12
;BEFORE_LAYER_CHANGE
;0.32
G92 E0

G1 E-3.5 F3600
;WIPE_START
G1 F1200
G1 X93.62 Y124.888 E-1.5
;WIPE_END
;_SET_FAN_SPEED_CHANGING_LAYER
; printing object Hinge00.stl id:720576387062527073 copy 0
M204 S700
G1 Z.72 F9000
G1 X127.128 Y93.872 Z.72
G1 Z.32
G1 E5 F2400
M204 S500
;TYPE:Inner wall
;WIDTH:0.449999
G1 X127.128 Y126.128 E.66906
G1 X92.872 Y126.128 E.71055
G1 X92.872 Y93.872 E.66906
G1 X127.088 Y93.872 E.70972
M204 S700
G1 X127.503 Y93.448 F9000
M204 S500
G1 F2400
G1 X127.552 Y93.561 E.00256
G1 X127.552 Y126.497 E.68317
G1 X127.444 Y126.552 E.00252
G1 X92.497 Y126.552 E.72488
G1 X92.448 Y126.448 E.00238
G1 X92.448 Y93.503 E.68336
G1 X92.556 Y93.448 E.00252
G1 X127.463 Y93.448 E.72406
G1 X127.771 Y93.148 F9000
;TYPE:Outer wall
;WIDTH:0.399999
G1 F1080
G1 X127.936 Y93.35 E.00477
G1 X127.964 Y93.561 E.00389
G1 X127.964 Y94.408 E.0155
G1 X127.964 Y125.637 E.57142
G1 X127.964 Y126.483 E.01548
G1 X127.884 Y126.734 E.00482
G1 X127.674 Y126.929 E.00524
G1 X127.482 Y126.964 E.00357
G1 X126.635 Y126.964 E.0155
G1 X93.413 Y126.964 E.60789
G1 X92.567 Y126.964 E.01548
G1 X92.326 Y126.929 E.00446
G1 X92.116 Y126.734 E.00524
G1 X92.036 Y126.483 E.00482
G1 X92.036 Y125.637 E.01548
G1 X92.036 Y94.363 E.57225
G1 X92.036 Y93.517 E.01548
G1 X92.116 Y93.266 E.00482
G1 X92.326 Y93.071 E.00524
G1 X92.518 Y93.036 E.00357
G1 X93.365 Y93.036 E.0155
G1 X126.678 Y93.036 E.60956
G1 X127.529 Y93.036 E.01557
M73 P3 R133
G1 X127.74 Y93.124 E.00418
M204 S700
G1 E-3.5 F3600
;WIPE_START
G1 F1080
G1 X127.936 Y93.35 E-.44757
G1 X127.964 Y93.561 E-.31999
G1 X127.964 Y94.05 E-.73244
;WIPE_END
G1 Z.72 F9000
G1 X126.995 Y123.543 Z.72
G1 Z.32
G1 E5 F2400
M204 S500
;TYPE:Internal solid infill
;WIDTH:0.400628
M106 S255
G1 X124.711 Y125.826 E.05918
G1 X124.181 Y125.826 E.00972
G1 X126.826 Y123.181 E.06856
G1 X126.826 Y122.651 E.00972
G1 X123.651 Y125.826 E.0823
G1 X123.121 Y125.826 E.00972
G1 X126.826 Y122.121 E.09604
G1 X126.826 Y121.591 E.00972
G1 X122.591 Y125.826 E.10978
G1 X122.061 Y125.826 E.00972
G1 X126.826 Y121.061 E.12353
G1 X126.826 Y120.53 E.00972
