; HEADER_BLOCK_START
; generated by OrcaSlicer 2.3.2 on 2026-06-03 at 09:18:36
; total layer number: 84
; filament_density: 1.24
; filament_diameter: 1.75
; max_z_height: 20.12
; filament: 1
; HEADER_BLOCK_END

; THUMBNAIL_BLOCK_START

;
; THUMBNAIL_BLOCK_END

; THUMBNAIL_BLOCK_START

;
; THUMBNAIL_BLOCK_END

; external perimeters extrusion width = 0.40mm
; perimeters extrusion width = 0.45mm
; infill extrusion width = 0.45mm
; solid infill extrusion width = 0.40mm
; top infill extrusion width = 0.45mm
; support material extrusion width = 0.40mm
; first layer extrusion width = 0.50mm

; EXECUTABLE_BLOCK_START
M73 P0 R143
M201 X500 Y500 Z500 E5000
M203 X500 Y500 Z10 E60
M204 P500 R1000 T500
M205 X8.00 Y8.00 Z0.40 E5.00 ; sets the jerk limits, mm/sec
;TYPE:Custom
G90 ; use absolute coordinates
M83 ; extruder relative mode
M140 S60 ; set final bed temp
M104 S150 ; set temporary nozzle temp to prevent oozing during homing
G4 S10 ; allow partial nozzle warmup
G28 ; home all axis
G1 Z50 F240
G1 X2 Y10 F3000
M104 S220 ; set final nozzle temp
M190 S60 ; wait for bed temp to stabilize
M109 S220 ; wait for nozzle temp to stabilize
G1 Z0.28 F240
G92 E0
G1 Y140 E10 F1500 ; prime the nozzle
G1 X2.3 F5000
M73 P0 R142
G92 E0
G1 Y10 E10 F1200 ; prime the nozzle
G92 E0
G90
G21
M83 ; use relative distances for extrusion
; filament start gcode
M106 S0
;LAYER_CHANGE
;Z:0.2
;HEIGHT:0.2
;BEFORE_LAYER_CHANGE
;0.2
G92 E0

G1 E-5 F3600
;_SET_FAN_SPEED_CHANGING_LAYER
M204 S500
G1 Z.6 F9000
G1 X80.98 Y83.37
G1 Z.6
G1 Z.2
G1 E5 F2400
;TYPE:Skirt
;WIDTH:0.5
G1 F3000
G1 X82.12 Y82.804 E.0474
G1 X122.527 Y75.817 E1.52733
G1 X123.872 Y75.706 E.05028
G1 X125.397 Y75.914 E.05731
G1 X126.816 Y76.459 E.05662
G1 X138.589 Y83.056 E.50266
G1 X139.498 Y84.013 E.04917
G1 X139.729 Y85 E.03774
G1 X139.729 Y135 E1.86231
G1 X139.338 Y136.261 E.04917
G1 X138.083 Y137.151 E.05728
G1 X112.61 Y144.06 E.98308
G1 X104.657 Y145.205 E.29926
G1 X103.457 Y145.161 E.04472
G1 X97.613 Y144.11 E.22118
G1 X96.352 Y143.702 E.04937
G1 X81.582 Y137.03 E.60365
G1 X80.877 Y136.527 E.03227
G1 X73.484 Y128.65 E.40237
G1 X72.769 Y127.695 E.04442
G1 X72.19 Y126.52 E.04878
G1 X71.821 Y125.17 E.05212
G1 X71.721 Y124.181 E.03703
G1 X71.783 Y122.997 E.04417
G1 X71.917 Y122.287 E.02692
G1 X80.325 Y84.516 E1.44126
G1 X80.961 Y83.405 E.04768
; printing object Hinge1.stl id:2426 copy 0
G1 E-3.8 F3600
;WIPE_START
G1 F3000
G1 X81.848 Y82.945 E-1.2
;WIPE_END
G1 Z.6 F9000
G1 X79.176 Y119.332 Z.6
G1 Z.2
G1 E5 F2400
;TYPE:Support
G1 F900
G1 X78.731 Y119.304 E.01661
G1 X78.304 Y119.344 E.01597
G1 X77.813 Y119.415 E.01848
G1 X77.385 Y119.542 E.01663
G1 X76.934 Y119.704 E.01785
G1 X76.526 Y119.921 E.01722
G1 X76.13 Y120.163 E.01729
G1 X75.761 Y120.464 E.01772
G1 X75.432 Y120.772 E.01682
G1 X75.122 Y121.148 E.01813
G1 X74.868 Y121.509 E.01645
G1 X74.633 Y121.945 E.01843
G1 X74.461 Y122.344 E.01619
G1 X74.315 Y122.822 E.01863
G1 X74.227 Y123.244 E.01605
G1 X74.178 Y123.744 E.01871
G1 X74.178 Y124.175 E.01602
G1 X74.228 Y124.674 E.01868
G1 X74.316 Y125.097 E.01612
G1 X74.473 Y125.611 E.02001
G1 X74.864 Y126.411 E.03318
G1 X75.427 Y127.146 E.03447
G1 X76.123 Y127.754 E.03442
G1 X76.925 Y128.212 E.0344
G1 X77.801 Y128.502 E.03438
G1 X78.718 Y128.614 E.03438
G1 X79.638 Y128.543 E.03439
G1 X80.527 Y128.291 E.03441
G1 X81.349 Y127.869 E.03443
G1 X82.05 Y127.309 E.0334
G1 X82.05 Y120.606 E.24965
G1 X81.354 Y120.049 E.03322
G1 X80.532 Y119.626 E.03444
G1 X79.664 Y119.379 E.0336
G1 X79.245 Y119.336 E.0157
G1 X74.957 Y126.134 F9000
G1 F900
G1 X74.957 Y122.232 E.14531
G1 X75.218 Y121.726 E.02124
G1 X75.465 Y121.378 E.01587
G1 X75.465 Y126.519 E.19148
G1 X75.728 Y126.863 E.01612
G1 X75.973 Y127.076 E.01209
G1 X75.973 Y120.829 E.23269
G1 X76.368 Y120.499 E.01917
G1 X76.481 Y120.431 E.00492
G1 X76.481 Y127.484 E.26272
G1 X76.989 Y127.774 E.02178
G1 X76.989 Y120.141 E.2843
G1 X77.101 Y120.082 E.00473
G1 X77.497 Y119.939 E.01566
G1 X77.497 Y127.968 E.29903
G1 X77.892 Y128.099 E.01551
G1 X78.004 Y128.113 E.00422
G1 X78.004 Y119.803 E.30951
G1 X78.512 Y119.738 E.01907
G1 X78.512 Y128.175 E.31423
G1 X78.727 Y128.201 E.00805
G1 X79.02 Y128.178 E.01096
G1 X79.02 Y119.734 E.31451
G1 X79.528 Y119.779 E.01899
G1 X79.528 Y128.139 E.3114
G1 X80.036 Y128.003 E.01958
G1 X80.036 Y119.912 E.30134
G1 X80.38 Y120.01 E.01332
G1 X80.544 Y120.095 E.00687
G1 X80.544 Y127.82 E.28775
G1 X81.052 Y127.559 E.02127
G1 X81.052 Y120.356 E.26828
G1 X81.129 Y120.396 E.00323
G1 X81.56 Y120.741 E.02055
G1 X81.56 Y127.438 E.24943
G1 E-3.5 F3600
;WIPE_START
G1 F900
;WIPE_END
G1 E-1.5 F3600
G1 Z.6 F9000
G1 X95.272 Y136.425 Z.6
G1 Z.2
G1 E5 F2400
G1 F900
G1 X95.272 Y137.855 E.05327
G1 X95.345 Y138.497 E.02406
G1 X95.62 Y139.281 E.03096
G1 X95.78 Y139.535 E.01117
G1 X95.78 Y135.861 E.13683
G1 X96.288 Y135.861 E.01892
G1 X96.288 Y140.209 E.16195
G1 X96.651 Y140.572 E.01911
G1 X96.795 Y140.663 E.00637
G1 X96.795 Y135.861 E.17884
G1 X97.303 Y135.861 E.01892
G1 X97.303 Y140.982 E.19071
G1 X97.811 Y141.173 E.02022
G1 X97.811 Y135.861 E.19785
G1 X98.319 Y135.861 E.01892
G1 X98.319 Y141.308 E.20287
G1 X98.827 Y141.365 E.01904
G1 X98.827 Y135.861 E.205
G1 X99.335 Y135.861 E.01892
G1 X99.335 Y141.339 E.20402
G1 X99.843 Y141.269 E.01909
G1 X99.843 Y135.861 E.20142
G1 X100.351 Y135.861 E.01892
G1 X100.351 Y141.092 E.1948
G1 X100.574 Y141.014 E.00881
G1 X100.858 Y140.835 E.01252
G1 X100.858 Y135.861 E.18524
G1 X101.366 Y135.861 E.01892
G1 X101.366 Y140.924 E.18858
G1 X101.669 Y141.264 E.01693
G1 X101.874 Y141.426 E.00974
G1 X101.874 Y135.861 E.20725
G1 X102.382 Y135.861 E.01892
G1 X102.382 Y141.801 E.22123
G1 X102.89 Y142.048 E.02104
G1 X102.89 Y135.861 E.23044
G1 X103.398 Y135.861 E.01892
G1 X103.398 Y142.208 E.2364
G1 X103.844 Y142.316 E.01709
G1 X103.906 Y142.318 E.00231
G1 X103.906 Y135.861 E.24048
G1 X104.413 Y135.861 E.01892
G1 X104.413 Y142.33 E.24093
G1 X104.668 Y142.336 E.00947
G1 X104.921 Y142.287 E.00962
G1 X104.921 Y135.861 E.23932
G1 X105.429 Y135.861 E.01892
G1 X105.429 Y142.189 E.23567
G1 X105.937 Y141.982 E.02042
G1 X105.937 Y135.861 E.22798
G1 X106.445 Y135.861 E.01892
G1 X106.445 Y141.707 E.21774
G1 X106.907 Y141.373 E.02125
G1 X106.953 Y141.324 E.00251
G1 X106.953 Y135.861 E.20344
G1 X107.126 Y135.861 E.00644
G1 X107.461 Y136.216 E.01815
G1 X107.461 Y140.762 E.16935
G1 X107.969 Y139.886 E.03772
G1 X107.969 Y135.861 E.14991
G1 X108.476 Y135.861 E.01892
G1 X108.476 Y140.314 E.16584
G1 X108.732 Y140.569 E.01346
G1 X108.984 Y140.728 E.01109
G1 X108.984 Y135.861 E.18125
G1 X109.492 Y135.861 E.01892
G1 X109.492 Y141.031 E.19253
G1 X110 Y141.208 E.02004
G1 X110 Y135.861 E.19915
G1 X110.508 Y135.861 E.01892
G1 X110.508 Y141.318 E.20322
G1 X111.016 Y141.375 E.01904
G1 X111.016 Y135.861 E.20535
G1 X111.524 Y135.861 E.01892
G1 X111.524 Y141.324 E.20347
G1 X111.871 Y141.285 E.01301
G1 X112.031 Y141.229 E.00634
G1 X112.031 Y135.861 E.19992
G1 X112.539 Y135.861 E.01892
G1 X112.539 Y141.051 E.19331
G1 X112.655 Y141.011 E.00457
G1 X113.047 Y140.765 E.01724
G1 X113.047 Y135.861 E.18263
G1 X113.555 Y135.861 E.01892
G1 X113.555 Y140.373 E.16805
G1 X113.947 Y139.982 E.02062
G1 X114.063 Y139.797 E.00812
G1 X114.063 Y135.861 E.1466
G1 X114.27 Y135.861 E.0077
G1 X114.392 Y136.056 E.00857
G1 X114.571 Y136.569 E.02022
G1 X114.571 Y139.376 E.10458
G1 X107.478 Y135.635 F9000
G1 F900
G1 X107.594 Y135.45 E.00813
G1 X114.497 Y135.45 E.25713
G1 X114.765 Y135.877 E.01877
G1 X115.07 Y136.75 E.03445
G1 X115.172 Y137.669 E.03442
G1 X115.068 Y138.587 E.03442
G1 X114.762 Y139.459 E.03441
G1 X114.27 Y140.24 E.0344
G1 X113.617 Y140.893 E.03442
G1 X112.835 Y141.384 E.03439
G1 X111.963 Y141.689 E.03439
G1 X111.045 Y141.792 E.03439
G1 X110.128 Y141.689 E.03439
G1 X109.256 Y141.384 E.03439
G1 X108.474 Y140.893 E.03439
G1 X108.085 Y140.505 E.02046
G1 X107.789 Y141.017 E.02205
G1 X107.184 Y141.681 E.03346
G1 X106.42 Y142.223 E.03487
G1 X105.597 Y142.575 E.03334
G1 X104.702 Y142.748 E.03396
G1 X103.79 Y142.727 E.034
G1 X102.901 Y142.511 E.03406
G1 X102.077 Y142.11 E.03412
G1 X101.386 Y141.564 E.03282
G1 X101.057 Y141.196 E.01839
G1 X100.753 Y141.387 E.01336
G1 X99.882 Y141.691 E.03439
G1 X98.964 Y141.795 E.03439
G1 X98.046 Y141.691 E.03439
G1 X97.175 Y141.387 E.03439
G1 X96.393 Y140.896 E.03439
G1 X95.739 Y140.243 E.03442
G1 X95.247 Y139.461 E.0344
G1 X94.941 Y138.589 E.03441
G1 X94.837 Y137.671 E.03442
G1 X94.94 Y136.753 E.03442
G1 X95.244 Y135.88 E.03443
G1 X95.514 Y135.45 E.0189
G1 X107.303 Y135.45 E.4391
G1 X107.431 Y135.585 E.00692
G1 E-3.5 F3600
;WIPE_START
G1 F900
G1 X107.594 Y135.45 E-.31757
G1 X108.382 Y135.45 E-1.18243
;WIPE_END
G1 Z.6 F9000
G1 X127.267 Y84.06 Z.6
G1 Z.2
G1 E5 F2400
G1 F900
G1 X127.267 Y81.128 E.10922
G1 X127.124 Y80.71 E.01646
G1 X126.76 Y80.119 E.02584
G1 X126.76 Y84.139 E.1497
G1 X126.252 Y84.139 E.01892
G1 X126.252 Y79.559 E.17059
G1 X126.117 Y79.42 E.00719
G1 X125.744 Y79.178 E.01658
G1 X125.744 Y84.139 E.18477
G1 X125.236 Y84.139 E.01892
G1 X125.236 Y78.901 E.19509
G1 X124.728 Y78.712 E.02018
G1 X124.728 Y84.139 E.20211
G1 X124.22 Y84.139 E.01892
G1 X124.22 Y78.621 E.20552
G1 X123.824 Y78.576 E.01485
G1 X123.712 Y78.586 E.00418
G1 X123.712 Y84.139 E.20682
G1 X123.205 Y84.139 E.01892
G1 X123.205 Y78.63 E.20518
G1 X123.02 Y78.646 E.0069
G1 X122.697 Y78.748 E.01263
G1 X122.697 Y84.139 E.20077
G1 X122.189 Y84.139 E.01892
G1 X122.189 Y78.922 E.19429
G1 X121.681 Y79.218 E.02189
G1 X121.681 Y84.139 E.18327
G1 X121.173 Y84.139 E.01892
G1 X121.173 Y79.637 E.16768
G1 X120.928 Y79.864 E.01246
G1 X120.665 Y80.245 E.01724
G1 X120.665 Y84.139 E.14501
G1 X120.508 Y84.139 E.00584
G1 X120.477 Y84.088 E.00222
G1 X120.294 Y83.693 E.0162
G1 X120.157 Y83.285 E.01603
G1 X120.157 Y80.724 E.09542
G1 X124.269 Y78.212 F9000
G1 F900
G1 X123.829 Y78.163 E.01647
G1 X122.939 Y78.24 E.03329
G1 X122.069 Y78.516 E.03399
G1 X121.282 Y78.975 E.03394
G1 X120.615 Y79.593 E.03389
G1 X120.125 Y80.305 E.03218
G1 X119.921 Y80.745 E.01805
G1 X119.769 Y81.179 E.01714
G1 X119.67 Y81.624 E.01698
G1 X119.619 Y82.073 E.01682
G1 X119.619 Y82.537 E.01728
G1 X119.668 Y82.977 E.01649
G1 X119.77 Y83.438 E.0176
G1 X119.913 Y83.848 E.01615
G1 X120.114 Y84.285 E.01792
G1 X120.281 Y84.55 E.01167
G1 X127.209 Y84.55 E.25803
G1 X127.502 Y84.071 E.02093
G1 X127.797 Y83.209 E.03392
G1 X127.896 Y82.303 E.03395
G1 X127.795 Y81.396 E.03398
G1 X127.498 Y80.533 E.03401
G1 X127.018 Y79.755 E.03404
G1 X126.379 Y79.1 E.03406
G1 X125.613 Y78.602 E.03407
G1 X124.778 Y78.292 E.03315
G1 X124.337 Y78.22 E.01666
G1 E-3.5 F3600
;WIPE_START
G1 F900
G1 X123.829 Y78.163 E-.76598
G1 X123.342 Y78.205 E-.73402
;WIPE_END
G1 Z.6 F9000
G1 X136.314 Y133.814 Z.6
G1 Z.2
G1 E5 F2400
;TYPE:Inner wall
;WIDTH:0.499999
G1 F900
G1 X83.686 Y133.814 E1.96022
G1 X83.686 Y86.186 E1.77399
M73 P1 R141
G1 X136.314 Y86.186 E1.96022
G1 X136.314 Y133.774 E1.7725
G1 X136.771 Y134.271 F9000
G1 F900
G1 X83.229 Y134.271 E1.99427
G1 X83.229 Y85.729 E1.80804
G1 X136.771 Y85.729 E1.99427
G1 X136.771 Y134.231 E1.80655
G1 X137.25 Y134.75 F9000
;TYPE:Outer wall
G1 F900
G1 X82.75 Y134.75 E2.02992
G1 X82.75 Y85.25 E1.84368
G1 X137.25 Y85.25 E2.02992
G1 X137.25 Y134.71 E1.84219
G1 E-3.5 F3600
;WIPE_START
G1 F900
G1 X136.25 Y134.711 E-1.5
;WIPE_END
G1 Z.6 F9000
G1 X135.251 Y86.323 Z.6
G1 Z.2
G1 E5 F2400
;TYPE:Bottom surface
;WIDTH:0.501163
G1 F1200
G1 X135.972 Y87.043 E.03806
G1 X135.972 Y87.692 E.0242
G1 X134.808 Y86.528 E.06142
G1 X134.16 Y86.528 E.0242
G1 X135.972 Y88.34 E.09564
G1 X135.972 Y88.988 E.0242
G1 X133.512 Y86.528 E.12987
G1 X132.864 Y86.528 E.0242
G1 X135.972 Y89.636 E.16409
G1 X135.972 Y90.284 E.0242
G1 X132.216 Y86.528 E.19831
G1 X131.568 Y86.528 E.0242
G1 X135.972 Y90.932 E.23253
G1 X135.972 Y91.58 E.0242
G1 X130.92 Y86.528 E.26676
G1 X130.272 Y86.528 E.0242
G1 X135.972 Y92.228 E.30098
G1 X135.972 Y92.876 E.0242
G1 X129.624 Y86.528 E.3352
G1 X128.976 Y86.528 E.0242
G1 X135.972 Y93.524 E.36942
G1 X135.972 Y94.172 E.0242
G1 X128.328 Y86.528 E.40365
G1 X127.68 Y86.528 E.0242
G1 X135.972 Y94.82 E.43787
G1 X135.972 Y95.468 E.0242
G1 X127.032 Y86.528 E.47209
G1 X126.384 Y86.528 E.0242
G1 X135.972 Y96.116 E.50631
G1 X135.972 Y96.764 E.0242
G1 X125.736 Y86.528 E.54054
G1 X125.088 Y86.528 E.0242
G1 X135.972 Y97.412 E.57476
G1 X135.972 Y98.06 E.0242
G1 X124.44 Y86.528 E.60898
G1 X123.792 Y86.528 E.0242
G1 X135.972 Y98.708 E.64321
G1 X135.972 Y99.357 E.0242
G1 X123.143 Y86.528 E.67743
G1 X122.495 Y86.528 E.0242
G1 X135.972 Y100.005 E.71165
G1 X135.972 Y100.653 E.0242
G1 X121.847 Y86.528 E.74587
G1 X121.199 Y86.528 E.0242
G1 X135.972 Y101.301 E.7801
G1 X135.972 Y101.949 E.0242
G1 X120.551 Y86.528 E.81432
G1 X119.903 Y86.528 E.0242
G1 X135.972 Y102.597 E.84854
G1 X135.972 Y103.245 E.0242
G1 X119.255 Y86.528 E.88276
G1 X118.607 Y86.528 E.0242
G1 X135.972 Y103.893 E.91699
G1 X135.972 Y104.541 E.0242
G1 X117.959 Y86.528 E.95121
G1 X117.311 Y86.528 E.0242
G1 X135.972 Y105.189 E.98543
G1 X135.972 Y105.837 E.0242
M73 P1 R140
G1 X116.663 Y86.528 E1.01965
G1 X116.015 Y86.528 E.0242
G1 X135.972 Y106.485 E1.05388
G1 X135.972 Y107.133 E.0242
G1 X115.367 Y86.528 E1.0881
G1 X114.719 Y86.528 E.0242
G1 X135.972 Y107.781 E1.12232
G1 X135.972 Y108.429 E.0242
G1 X114.071 Y86.528 E1.15654
G1 X113.423 Y86.528 E.0242
G1 X135.972 Y109.077 E1.19077
G1 X135.972 Y109.725 E.0242
G1 X112.775 Y86.528 E1.22499
G1 X112.127 Y86.528 E.0242
G1 X135.972 Y110.373 E1.25921
G1 X135.972 Y111.021 E.0242
G1 X111.479 Y86.528 E1.29343
G1 X110.83 Y86.528 E.0242
G1 X135.972 Y111.67 E1.32766
G1 X135.972 Y112.318 E.0242
G1 X110.182 Y86.528 E1.36188
G1 X109.534 Y86.528 E.0242
G1 X135.972 Y112.966 E1.3961
G1 X135.972 Y113.614 E.0242
G1 X108.886 Y86.528 E1.43032
G1 X108.238 Y86.528 E.0242
G1 X135.972 Y114.262 E1.46455
G1 X135.972 Y114.91 E.0242
G1 X107.59 Y86.528 E1.49877
G1 X106.942 Y86.528 E.0242
M73 P2 R140
G1 X135.972 Y115.558 E1.53299
G1 X135.972 Y116.206 E.0242
G1 X106.294 Y86.528 E1.56721
G1 X105.646 Y86.528 E.0242
G1 X135.972 Y116.854 E1.60144
G1 X135.972 Y117.502 E.0242
G1 X104.998 Y86.528 E1.63566
G1 X104.35 Y86.528 E.0242
G1 X135.972 Y118.15 E1.66988
G1 X135.972 Y118.798 E.0242
G1 X103.702 Y86.528 E1.7041
G1 X103.054 Y86.528 E.0242
G1 X135.972 Y119.446 E1.73833
G1 X135.972 Y120.094 E.0242
G1 X102.406 Y86.528 E1.77255
G1 X101.758 Y86.528 E.0242
G1 X135.972 Y120.742 E1.80677
G1 X135.972 Y121.39 E.0242
G1 X101.11 Y86.528 E1.84099
G1 X100.462 Y86.528 E.0242
G1 X135.972 Y122.038 E1.87522
G1 X135.972 Y122.686 E.0242
G1 X99.814 Y86.528 E1.90944
G1 X99.166 Y86.528 E.0242
G1 X135.972 Y123.334 E1.94366
G1 X135.972 Y123.983 E.0242
G1 X98.517 Y86.528 E1.97788
G1 X97.869 Y86.528 E.0242
M73 P2 R139
G1 X135.972 Y124.631 E2.01211
G1 X135.972 Y125.279 E.0242
G1 X97.221 Y86.528 E2.04633
G1 X96.573 Y86.528 E.0242
G1 X135.972 Y125.927 E2.08055
G1 X135.972 Y126.575 E.0242
G1 X95.925 Y86.528 E2.11477
G1 X95.277 Y86.528 E.0242
G1 X135.972 Y127.223 E2.149
G1 X135.972 Y127.871 E.0242
G1 X94.629 Y86.528 E2.18322
G1 X93.981 Y86.528 E.0242
G1 X135.972 Y128.519 E2.21744
G1 X135.972 Y129.167 E.0242
G1 X93.333 Y86.528 E2.25166
G1 X92.685 Y86.528 E.0242
G1 X135.972 Y129.815 E2.28589
G1 X135.972 Y130.463 E.0242
G1 X92.037 Y86.528 E2.32011
G1 X91.389 Y86.528 E.0242
G1 X135.972 Y131.111 E2.35433
G1 X135.972 Y131.759 E.0242
G1 X90.741 Y86.528 E2.38855
G1 X90.093 Y86.528 E.0242
G1 X135.972 Y132.407 E2.42278
G1 X135.972 Y133.055 E.0242
G1 X89.445 Y86.528 E2.457
G1 X88.797 Y86.528 E.0242
G1 X135.74 Y133.472 E2.47898
G1 X135.092 Y133.472 E.0242
G1 X88.149 Y86.528 E2.47898
G1 X87.501 Y86.528 E.0242
G1 X134.444 Y133.472 E2.47898
G1 X133.796 Y133.472 E.0242
M73 P3 R139
G1 X86.852 Y86.528 E2.47898
G1 X86.204 Y86.528 E.0242
G1 X133.148 Y133.472 E2.47898
G1 X132.5 Y133.472 E.0242
M73 P3 R138
G1 X85.556 Y86.528 E2.47898
G1 X84.908 Y86.528 E.0242
G1 X131.851 Y133.472 E2.47898
G1 X131.203 Y133.472 E.0242
G1 X84.26 Y86.528 E2.47898
G1 X84.028 Y86.528 E.00866
G1 X84.028 Y86.945 E.01554
G1 X130.555 Y133.472 E2.457
G1 X129.907 Y133.472 E.0242
G1 X84.028 Y87.593 E2.42278
G1 X84.028 Y88.241 E.0242
G1 X129.259 Y133.472 E2.38856
G1 X128.611 Y133.472 E.0242
G1 X84.028 Y88.889 E2.35433
G1 X84.028 Y89.537 E.0242
G1 X127.963 Y133.472 E2.32011
