; HEADER_BLOCK_START
; generated by OrcaSlicer 2.3.2 on 2026-06-02 at 16:06:00
; total layer number: 84
; filament_density: 1.24
; filament_diameter: 1.75
; max_z_height: 20.12
; filament: 1
; HEADER_BLOCK_END

; THUMBNAIL_BLOCK_START

;
; THUMBNAIL_BLOCK_END

; THUMBNAIL_BLOCK_START

;
; THUMBNAIL_BLOCK_END

; external perimeters extrusion width = 0.40mm
; perimeters extrusion width = 0.45mm
; infill extrusion width = 0.45mm
; solid infill extrusion width = 0.40mm
; top infill extrusion width = 0.45mm
; support material extrusion width = 0.40mm
; first layer extrusion width = 0.50mm

; EXECUTABLE_BLOCK_START
M73 P0 R136
M201 X500 Y500 Z500 E5000
M203 X500 Y500 Z10 E60
M204 P500 R1000 T500
M205 X8.00 Y8.00 Z0.40 E5.00 ; sets the jerk limits, mm/sec
;TYPE:Custom
G90 ; use absolute coordinates
M83 ; extruder relative mode
M140 S60 ; set final bed temp
M104 S150 ; set temporary nozzle temp to prevent oozing during homing
G4 S10 ; allow partial nozzle warmup
G28 ; home all axis
G1 Z50 F240
G1 X2 Y10 F3000
M104 S220 ; set final nozzle temp
M190 S60 ; wait for bed temp to stabilize
M109 S220 ; wait for nozzle temp to stabilize
G1 Z0.28 F240
G92 E0
G1 Y140 E10 F1500 ; prime the nozzle
M73 P0 R135
G1 X2.3 F5000
G92 E0
G1 Y10 E10 F1200 ; prime the nozzle
G92 E0
G90
G21
M83 ; use relative distances for extrusion
; filament start gcode
M106 S0
;LAYER_CHANGE
;Z:0.2
;HEIGHT:0.2
;BEFORE_LAYER_CHANGE
;0.2
G92 E0

G1 E-5 F3600
;_SET_FAN_SPEED_CHANGING_LAYER
M204 S500
G1 Z.6 F9000
G1 X80.338 Y84.461
G1 Z.6
G1 Z.2
G1 E5 F2400
;TYPE:Skirt
;WIDTH:0.5
G1 F3000
G1 X81.022 Y83.332 E.04917
G1 X82.5 Y82.771 E.05887
G1 X137.5 Y82.771 E2.04854
G1 X138.761 Y83.162 E.04917
G1 X139.579 Y84.198 E.04917
G1 X139.729 Y85 E.03037
G1 X139.729 Y135 E1.86231
G1 X139.338 Y136.261 E.04917
G1 X138.091 Y137.149 E.05699
G1 X112.607 Y144.139 E.98426
G1 X111.404 Y144.284 E.04512
G1 X103.881 Y144.284 E.28019
G1 X94.829 Y143.344 E.33899
G1 X94.274 Y143.216 E.02118
G1 X93.191 Y142.809 E.04313
G1 X81.507 Y136.995 E.48606
G1 X80.99 Y136.639 E.02338
G1 X73 Y129.28 E.40458
G1 X72.031 Y128.102 E.05683
G1 X71.401 Y126.945 E.04907
G1 X70.92 Y125.45 E.05849
G1 X70.755 Y124.07 E.05178
G1 X70.92 Y122.251 E.06802
G1 X80.328 Y84.5 E1.4491
; printing object Hinge1.stl id:2395 copy 0
G1 E-3.8 F3600
;WIPE_START
G1 F3000
G1 X80.839 Y83.64 E-1.2
;WIPE_END
G1 Z.6 F9000
G1 X78.588 Y118.653 Z.6
G1 Z.2
G1 E5 F2400
;TYPE:Support
G1 F900
G1 X79.01 Y118.673 E.01574
G1 X79.918 Y118.858 E.03451
G1 X80.799 Y119.214 E.03539
G1 X81.601 Y119.724 E.0354
G1 X82.05 Y120.142 E.02285
G1 X82.05 Y127.562 E.27637
G1 X82.013 Y127.598 E.00193
G1 X81.595 Y127.979 E.02108
G1 X80.799 Y128.485 E.03511
G1 X79.919 Y128.841 E.03539
G1 X78.988 Y129.032 E.03538
G1 X78.038 Y129.05 E.03538
G1 X77.101 Y128.895 E.03538
G1 X76.207 Y128.573 E.03537
G1 X75.387 Y128.094 E.03538
G1 X74.667 Y127.475 E.03538
G1 X74.072 Y126.734 E.03538
G1 X73.64 Y125.935 E.03385
G1 X73.479 Y125.506 E.01705
G1 X73.337 Y125.006 E.01938
G1 X73.26 Y124.582 E.01602
G1 X73.212 Y124.065 E.01937
G1 X73.212 Y123.634 E.01603
G1 X73.26 Y123.116 E.01937
G1 X73.337 Y122.693 E.01601
G1 X73.48 Y122.193 E.0194
G1 X73.64 Y121.765 E.01702
G1 X74.072 Y120.965 E.03384
G1 X74.667 Y120.225 E.03538
G1 X75.387 Y119.605 E.03537
G1 X76.207 Y119.127 E.03537
G1 X77.1 Y118.804 E.03537
G1 X78.022 Y118.652 E.03481
G1 X78.519 Y118.653 E.01851
G1 X73.942 Y126.06 F9000
G1 F900
G1 X73.942 Y122.133 E.14626
G1 X74.016 Y121.936 E.00785
G1 X74.416 Y121.194 E.0314
G1 X74.449 Y121.152 E.00199
G1 X74.449 Y126.547 E.20095
G1 X74.957 Y127.179 E.03018
G1 X74.957 Y120.521 E.24798
G1 X74.964 Y120.512 E.00041
G1 X75.465 Y120.081 E.02463
G1 X75.465 Y127.619 E.28076
G1 X75.627 Y127.758 E.00796
G1 X75.973 Y127.96 E.01492
G1 X75.973 Y119.739 E.30618
G1 X76.382 Y119.501 E.01763
G1 X76.481 Y119.465 E.00392
G1 X76.481 Y128.234 E.32663
G1 X76.989 Y128.417 E.02011
G1 X76.989 Y119.282 E.34026
G1 X77.204 Y119.204 E.00854
G1 X77.497 Y119.156 E.01103
G1 X77.497 Y128.543 E.34965
G1 X78.004 Y128.627 E.01917
G1 X78.004 Y119.072 E.35589
G1 X78.056 Y119.064 E.00194
G1 X78.512 Y119.065 E.01701
G1 X78.512 Y128.629 E.35625
G1 X78.942 Y128.621 E.01602
G1 X79.02 Y128.605 E.00296
G1 X79.02 Y119.094 E.35423
G1 X79.528 Y119.198 E.01931
G1 X79.528 Y128.501 E.34651
G1 X79.799 Y128.446 E.01031
G1 X80.036 Y128.35 E.00951
G1 X80.036 Y119.349 E.33525
G1 X80.544 Y119.554 E.0204
G1 X80.544 Y128.145 E.31997
G1 X80.61 Y128.118 E.00268
G1 X81.052 Y127.837 E.01948
G1 X81.052 Y119.862 E.29705
G1 X81.348 Y120.051 E.01309
G1 X81.56 Y120.247 E.01075
G1 X81.56 Y127.733 E.27882
G1 E-3.5 F3600
;WIPE_START
G1 F900
;WIPE_END
G1 E-1.5 F3600
G1 Z.6 F9000
G1 X92.733 Y136.234 Z.6
G1 Z.2
G1 E5 F2400
G1 F900
G1 X92.733 Y137.62 E.05163
G1 X92.775 Y137.978 E.01342
G1 X92.88 Y138.393 E.01593
G1 X93.02 Y138.741 E.01399
G1 X93.24 Y139.146 E.01717
G1 X93.24 Y135.861 E.12235
G1 X93.748 Y135.861 E.01892
G1 X93.748 Y139.741 E.14449
G1 X94.039 Y139.967 E.01371
G1 X94.256 Y140.105 E.00961
G1 X94.256 Y135.861 E.15807
G1 X94.764 Y135.861 E.01892
G1 X94.764 Y140.343 E.16691
G1 X95.189 Y140.497 E.01682
G1 X95.272 Y140.504 E.00312
G1 X95.272 Y135.861 E.17292
G1 X95.78 Y135.861 E.01892
G1 X95.78 Y140.55 E.17464
G1 X95.973 Y140.568 E.00725
G1 X96.288 Y140.526 E.0118
G1 X96.288 Y135.861 E.17373
G1 X96.795 Y135.861 E.01892
G1 X96.795 Y140.432 E.17022
G1 X96.81 Y140.429 E.00055
G1 X97.303 Y140.206 E.02016
G1 X97.303 Y135.861 E.16182
G1 X97.811 Y135.861 E.01892
G1 X97.811 Y139.878 E.14959
G1 X98.156 Y139.598 E.01654
G1 X98.319 Y139.382 E.01007
G1 X98.319 Y135.861 E.13114
G1 X98.627 Y135.861 E.01147
G1 X98.827 Y136.344 E.01946
G1 X98.827 Y139.032 E.10011
G1 X98.936 Y135.577 F9000
G1 F900
G1 X98.839 Y135.45 E.00593
G1 X92.886 Y135.45 E.22174
G1 X92.884 Y135.452 E.00009
G1 X92.511 Y136.219 E.03178
G1 X92.384 Y136.704 E.01868
G1 X92.32 Y137.148 E.01671
G1 X92.318 Y137.618 E.01751
G1 X92.37 Y138.053 E.0163
G1 X92.488 Y138.52 E.01795
G1 X92.647 Y138.917 E.01592
G1 X92.908 Y139.396 E.02033
G1 X93.445 Y140.026 E.03084
G1 X93.801 Y140.303 E.01679
G1 X94.266 Y140.599 E.02052
G1 X95.098 Y140.901 E.03299
G1 X95.982 Y140.981 E.03305
G1 X96.408 Y140.925 E.01599
G1 X96.935 Y140.824 E.02
G1 X97.752 Y140.455 E.03337
G1 X98.455 Y139.886 E.03368
G1 X98.716 Y139.54 E.01615
G1 X99.008 Y139.134 E.01863
G1 X99.341 Y138.291 E.03376
G1 X99.396 Y137.836 E.01707
G1 X99.841 Y137.837 E.01657
G1 X99.902 Y138.37 E.01995
G1 X100.001 Y138.818 E.01711
G1 X100.152 Y139.249 E.01701
G1 X100.342 Y139.659 E.01681
G1 X100.589 Y140.052 E.01731
G1 X100.878 Y140.432 E.01777
G1 X101.515 Y141.022 E.03233
G1 X102.302 Y141.48 E.03392
G1 X103.171 Y141.756 E.03397
G1 X104.081 Y141.835 E.03401
G1 X104.987 Y141.712 E.03404
G1 X105.831 Y141.399 E.03354
G1 X106.254 Y141.134 E.01858
G1 X106.623 Y140.884 E.0166
G1 X107.25 Y140.241 E.03343
G1 X107.617 Y139.646 E.02607
G1 X107.872 Y140.05 E.01781
G1 X108.153 Y140.42 E.01732
G1 X108.789 Y141.011 E.03232
G1 X109.577 Y141.471 E.03398
G1 X110.447 Y141.748 E.03403
G1 X111.358 Y141.828 E.03406
G1 X112.265 Y141.705 E.03408
G1 X113.11 Y141.392 E.03356
G1 X113.528 Y141.129 E.0184
G1 X113.902 Y140.876 E.0168
G1 X114.529 Y140.233 E.03345
G1 X115.009 Y139.455 E.03404
G1 X115.306 Y138.592 E.03401
G1 X115.407 Y137.685 E.03397
G1 X115.307 Y136.78 E.03393
G1 X115.013 Y135.918 E.0339
G1 X114.726 Y135.45 E.02046
G1 X107.793 Y135.45 E.25823
G1 X107.607 Y135.718 E.01215
G1 X107.443 Y135.45 E.01169
G1 X100.519 Y135.45 E.25789
G1 X100.366 Y135.669 E.00997
G1 X100.144 Y136.15 E.01973
G1 X100.002 Y136.555 E.01599
G1 X99.9 Y137.021 E.01776
G1 X99.875 Y137.242 E.00828
G1 X99.432 Y137.246 E.0165
G1 X99.39 Y136.925 E.01206
G1 X99.325 Y136.472 E.01706
G1 X98.977 Y135.632 E.03388
G1 X100.351 Y136.192 F9000
G1 F900
G1 X100.351 Y138.494 E.08572
G1 X100.397 Y138.706 E.00807
G1 X100.534 Y139.094 E.01535
G1 X100.704 Y139.462 E.01509
G1 X100.858 Y139.707 E.01081
G1 X100.858 Y135.861 E.14325
G1 X101.366 Y135.861 E.01892
G1 X101.366 Y140.323 E.16619
G1 X101.761 Y140.689 E.02004
G1 X101.874 Y140.755 E.00488
G1 X101.874 Y135.861 E.18227
G1 X102.382 Y135.861 E.01892
G1 X102.382 Y141.051 E.19329
G1 X102.469 Y141.102 E.00376
G1 X102.89 Y141.235 E.01643
G1 X102.89 Y135.861 E.20015
G1 X103.398 Y135.861 E.01892
G1 X103.398 Y141.363 E.2049
G1 X103.906 Y141.407 E.01899
G1 X103.906 Y135.861 E.20654
G1 X104.413 Y135.861 E.01892
G1 X104.413 Y141.375 E.20535
G1 X104.886 Y141.311 E.01777
G1 X104.921 Y141.298 E.00139
G1 X104.921 Y135.861 E.20248
G1 X105.429 Y135.861 E.01892
G1 X105.429 Y141.109 E.19547
G1 X105.648 Y141.028 E.0087
G1 X105.937 Y140.847 E.01271
G1 X105.937 Y135.861 E.18568
G1 X106.445 Y135.861 E.01892
G1 X106.445 Y140.477 E.17191
G1 X106.923 Y139.987 E.02551
G1 X106.953 Y139.939 E.00208
G1 X106.953 Y135.861 E.15188
G1 X107.213 Y135.861 E.00968
G1 X107.461 Y136.267 E.01769
G1 X107.461 Y139.115 E.1061
G1 X107.613 Y138.867 E.01084
G1 X107.969 Y139.432 E.02484
G1 X107.969 Y135.918 E.13087
G1 X108.008 Y135.861 E.00258
G1 X108.476 Y135.861 E.01744
G1 X108.476 Y140.159 E.16008
G1 X108.984 Y140.631 E.02583
G1 X108.984 Y135.861 E.17766
G1 X109.492 Y135.861 E.01892
G1 X109.492 Y140.946 E.18937
G1 X109.745 Y141.093 E.0109
G1 X110 Y141.174 E.00998
G1 X110 Y135.861 E.19789
G1 X110.508 Y135.861 E.01892
G1 X110.508 Y141.336 E.2039
G1 X110.528 Y141.342 E.00081
G1 X111.016 Y141.385 E.01822
G1 X111.016 Y135.861 E.20573
G1 X111.524 Y135.861 E.01892
G1 X111.524 Y141.39 E.20593
G1 X112.031 Y141.322 E.01909
G1 X112.031 Y135.861 E.20337
G1 X112.539 Y135.861 E.01892
G1 X112.539 Y141.165 E.19753
G1 X112.927 Y141.021 E.0154
G1 X113.047 Y140.945 E.00528
G1 X113.047 Y135.861 E.18936
G1 X113.555 Y135.861 E.01892
G1 X113.555 Y140.614 E.17702
G1 X113.637 Y140.559 E.00367
G1 X114.063 Y140.122 E.02273
G1 X114.063 Y135.861 E.15869
G1 X114.496 Y135.861 E.01613
G1 X114.571 Y135.984 E.00535
G1 X114.571 Y139.773 E.14115
G1 E-3.5 F3600
;WIPE_START
G1 F900
;WIPE_END
G1 E-1.5 F3600
G1 Z.6 F9000
G1 X136.314 Y133.814 Z.6
G1 Z.2
G1 E5 F2400
;TYPE:Inner wall
;WIDTH:0.499999
G1 F900
G1 X83.686 Y133.814 E1.96022
G1 X83.686 Y86.186 E1.77399
M73 P0 R134
G1 X136.314 Y86.186 E1.96022
M73 P1 R134
G1 X136.314 Y133.774 E1.7725
G1 X136.771 Y134.271 F9000
G1 F900
G1 X83.229 Y134.271 E1.99427
G1 X83.229 Y85.729 E1.80804
G1 X136.771 Y85.729 E1.99427
G1 X136.771 Y134.231 E1.80655
G1 X137.25 Y134.75 F9000
;TYPE:Outer wall
G1 F900
G1 X82.75 Y134.75 E2.02992
G1 X82.75 Y85.25 E1.84368
G1 X137.25 Y85.25 E2.02992
G1 X137.25 Y134.71 E1.84219
G1 E-3.5 F3600
;WIPE_START
G1 F900
G1 X136.25 Y134.711 E-1.5
;WIPE_END
G1 Z.6 F9000
G1 X135.251 Y86.323 Z.6
G1 Z.2
G1 E5 F2400
;TYPE:Bottom surface
;WIDTH:0.501163
G1 F1200
G1 X135.972 Y87.043 E.03806
G1 X135.972 Y87.692 E.0242
G1 X134.808 Y86.528 E.06142
G1 X134.16 Y86.528 E.0242
G1 X135.972 Y88.34 E.09564
G1 X135.972 Y88.988 E.0242
G1 X133.512 Y86.528 E.12987
G1 X132.864 Y86.528 E.0242
G1 X135.972 Y89.636 E.16409
G1 X135.972 Y90.284 E.0242
G1 X132.216 Y86.528 E.19831
G1 X131.568 Y86.528 E.0242
G1 X135.972 Y90.932 E.23253
G1 X135.972 Y91.58 E.0242
G1 X130.92 Y86.528 E.26676
G1 X130.272 Y86.528 E.0242
G1 X135.972 Y92.228 E.30098
G1 X135.972 Y92.876 E.0242
G1 X129.624 Y86.528 E.3352
G1 X128.976 Y86.528 E.0242
G1 X135.972 Y93.524 E.36942
G1 X135.972 Y94.172 E.0242
G1 X128.328 Y86.528 E.40365
G1 X127.68 Y86.528 E.0242
G1 X135.972 Y94.82 E.43787
G1 X135.972 Y95.468 E.0242
G1 X127.032 Y86.528 E.47209
G1 X126.384 Y86.528 E.0242
G1 X135.972 Y96.116 E.50631
G1 X135.972 Y96.764 E.0242
G1 X125.736 Y86.528 E.54054
G1 X125.088 Y86.528 E.0242
G1 X135.972 Y97.412 E.57476
G1 X135.972 Y98.06 E.0242
G1 X124.44 Y86.528 E.60898
G1 X123.792 Y86.528 E.0242
G1 X135.972 Y98.708 E.64321
G1 X135.972 Y99.357 E.0242
G1 X123.143 Y86.528 E.67743
G1 X122.495 Y86.528 E.0242
G1 X135.972 Y100.005 E.71165
G1 X135.972 Y100.653 E.0242
G1 X121.847 Y86.528 E.74587
G1 X121.199 Y86.528 E.0242
G1 X135.972 Y101.301 E.7801
G1 X135.972 Y101.949 E.0242
G1 X120.551 Y86.528 E.81432
G1 X119.903 Y86.528 E.0242
G1 X135.972 Y102.597 E.84854
G1 X135.972 Y103.245 E.0242
G1 X119.255 Y86.528 E.88276
G1 X118.607 Y86.528 E.0242
G1 X135.972 Y103.893 E.91699
G1 X135.972 Y104.541 E.0242
G1 X117.959 Y86.528 E.95121
G1 X117.311 Y86.528 E.0242
M73 P1 R133
G1 X135.972 Y105.189 E.98543
G1 X135.972 Y105.837 E.0242
G1 X116.663 Y86.528 E1.01965
G1 X116.015 Y86.528 E.0242
G1 X135.972 Y106.485 E1.05388
G1 X135.972 Y107.133 E.0242
G1 X115.367 Y86.528 E1.0881
G1 X114.719 Y86.528 E.0242
G1 X135.972 Y107.781 E1.12232
G1 X135.972 Y108.429 E.0242
G1 X114.071 Y86.528 E1.15654
G1 X113.423 Y86.528 E.0242
G1 X135.972 Y109.077 E1.19077
G1 X135.972 Y109.725 E.0242
G1 X112.775 Y86.528 E1.22499
G1 X112.127 Y86.528 E.0242
G1 X135.972 Y110.373 E1.25921
G1 X135.972 Y111.021 E.0242
G1 X111.479 Y86.528 E1.29343
G1 X110.83 Y86.528 E.0242
G1 X135.972 Y111.67 E1.32766
G1 X135.972 Y112.318 E.0242
G1 X110.182 Y86.528 E1.36188
G1 X109.534 Y86.528 E.0242
G1 X135.972 Y112.966 E1.3961
G1 X135.972 Y113.614 E.0242
G1 X108.886 Y86.528 E1.43032
G1 X108.238 Y86.528 E.0242
G1 X135.972 Y114.262 E1.46455
G1 X135.972 Y114.91 E.0242
M73 P2 R133
G1 X107.59 Y86.528 E1.49877
G1 X106.942 Y86.528 E.0242
G1 X135.972 Y115.558 E1.53299
G1 X135.972 Y116.206 E.0242
G1 X106.294 Y86.528 E1.56721
G1 X105.646 Y86.528 E.0242
G1 X135.972 Y116.854 E1.60144
G1 X135.972 Y117.502 E.0242
G1 X104.998 Y86.528 E1.63566
G1 X104.35 Y86.528 E.0242
G1 X135.972 Y118.15 E1.66988
G1 X135.972 Y118.798 E.0242
G1 X103.702 Y86.528 E1.7041
G1 X103.054 Y86.528 E.0242
G1 X135.972 Y119.446 E1.73833
G1 X135.972 Y120.094 E.0242
G1 X102.406 Y86.528 E1.77255
G1 X101.758 Y86.528 E.0242
G1 X135.972 Y120.742 E1.80677
G1 X135.972 Y121.39 E.0242
G1 X101.11 Y86.528 E1.84099
G1 X100.462 Y86.528 E.0242
G1 X135.972 Y122.038 E1.87522
G1 X135.972 Y122.686 E.0242
G1 X99.814 Y86.528 E1.90944
G1 X99.166 Y86.528 E.0242
G1 X135.972 Y123.334 E1.94366
G1 X135.972 Y123.983 E.0242
G1 X98.517 Y86.528 E1.97788
G1 X97.869 Y86.528 E.0242
M73 P2 R132
G1 X135.972 Y124.631 E2.01211
G1 X135.972 Y125.279 E.0242
G1 X97.221 Y86.528 E2.04633
G1 X96.573 Y86.528 E.0242
G1 X135.972 Y125.927 E2.08055
G1 X135.972 Y126.575 E.0242
G1 X95.925 Y86.528 E2.11477
G1 X95.277 Y86.528 E.0242
G1 X135.972 Y127.223 E2.149
G1 X135.972 Y127.871 E.0242
G1 X94.629 Y86.528 E2.18322
G1 X93.981 Y86.528 E.0242
G1 X135.972 Y128.519 E2.21744
G1 X135.972 Y129.167 E.0242
G1 X93.333 Y86.528 E2.25166
G1 X92.685 Y86.528 E.0242
G1 X135.972 Y129.815 E2.28589
G1 X135.972 Y130.463 E.0242
G1 X92.037 Y86.528 E2.32011
G1 X91.389 Y86.528 E.0242
G1 X135.972 Y131.111 E2.35433
G1 X135.972 Y131.759 E.0242
G1 X90.741 Y86.528 E2.38855
G1 X90.093 Y86.528 E.0242
G1 X135.972 Y132.407 E2.42278
G1 X135.972 Y133.055 E.0242
G1 X89.445 Y86.528 E2.457
G1 X88.797 Y86.528 E.0242
G1 X135.74 Y133.472 E2.47898
G1 X135.092 Y133.472 E.0242
M73 P3 R132
G1 X88.149 Y86.528 E2.47898
G1 X87.501 Y86.528 E.0242
G1 X134.444 Y133.472 E2.47898
G1 X133.796 Y133.472 E.0242
G1 X86.852 Y86.528 E2.47898
G1 X86.204 Y86.528 E.0242
G1 X133.148 Y133.472 E2.47898
G1 X132.5 Y133.472 E.0242
M73 P3 R131
G1 X85.556 Y86.528 E2.47898
G1 X84.908 Y86.528 E.0242
G1 X131.851 Y133.472 E2.47898
G1 X131.203 Y133.472 E.0242
G1 X84.26 Y86.528 E2.47898
G1 X84.028 Y86.528 E.00866
G1 X84.028 Y86.945 E.01554
G1 X130.555 Y133.472 E2.457
G1 X129.907 Y133.472 E.0242
G1 X84.028 Y87.593 E2.42278
G1 X84.028 Y88.241 E.0242
G1 X129.259 Y133.472 E2.38856
G1 X128.611 Y133.472 E.0242
G1 X84.028 Y88.889 E2.35433
G1 X84.028 Y89.537 E.0242
G1 X127.963 Y133.472 E2.32011
G1 X127.315 Y133.472 E.0242
G1 X84.028 Y90.185 E2.28589
G1 X84.028 Y90.833 E.0242
G1 X126.667 Y133.472 E2.25167
G1 X126.019 Y133.472 E.0242
G1 X84.028 Y91.481 E2.21744
G1 X84.028 Y92.129 E.0242
G1 X125.371 Y133.472 E2.18322
G1 X124.723 Y133.472 E.0242
G1 X84.028 Y92.777 E2.149
G1 X84.028 Y93.425 E.0242
G1 X124.075 Y133.472 E2.11478
G1 X123.427 Y133.472 E.0242
G1 X84.028 Y94.073 E2.08055
G1 X84.028 Y94.721 E.0242
G1 X122.779 Y133.472 E2.04633
G1 X122.131 Y133.472 E.0242
G1 X84.028 Y95.369 E2.01211
G1 X84.028 Y96.017 E.0242
G1 X121.483 Y133.472 E1.97789
G1 X120.835 Y133.472 E.0242
G1 X84.028 Y96.665 E1.94366
G1 X84.028 Y97.313 E.0242
