; HEADER_BLOCK_START
; generated by OrcaSlicer 2.3.2 on 2026-06-05 at 15:27:55
; total layer number: 166
; filament_density: 1.24
; filament_diameter: 1.75
; max_z_height: 20.00
; filament: 1
; HEADER_BLOCK_END

; THUMBNAIL_BLOCK_START

;
; THUMBNAIL_BLOCK_END

; THUMBNAIL_BLOCK_START

;
; THUMBNAIL_BLOCK_END

; external perimeters extrusion width = 0.40mm
; perimeters extrusion width = 0.45mm
; infill extrusion width = 0.45mm
; solid infill extrusion width = 0.40mm
; top infill extrusion width = 0.40mm
; first layer extrusion width = 0.50mm

; EXECUTABLE_BLOCK_START
M73 P0 R114
M201 X500 Y500 Z500 E5000
M203 X500 Y500 Z10 E60
M204 P500 R1000 T500
M205 X8.00 Y8.00 Z0.40 E5.00 ; sets the jerk limits, mm/sec
;TYPE:Custom
G90 ; use absolute coordinates
M83 ; extruder relative mode
M140 S60 ; set final bed temp
M104 S150 ; set temporary nozzle temp to prevent oozing during homing
G4 S10 ; allow partial nozzle warmup
G28 ; home all axis
G1 Z50 F240
G1 X2 Y10 F3000
M104 S220 ; set final nozzle temp
M190 S60 ; wait for bed temp to stabilize
M109 S220 ; wait for nozzle temp to stabilize
G1 Z0.28 F240
G92 E0
G1 Y140 E10 F1500 ; prime the nozzle
G1 X2.3 F5000
G92 E0
G1 Y10 E10 F1200 ; prime the nozzle
G92 E0
G90
G21
M83 ; use relative distances for extrusion
; filament start gcode
M106 S0
;LAYER_CHANGE
;Z:0.2
;HEIGHT:0.2
;BEFORE_LAYER_CHANGE
;0.2
G92 E0

G1 E-5 F3600
M73 P0 R113
;_SET_FAN_SPEED_CHANGING_LAYER
M204 S500
G1 Z.6 F9000
G1 X91.419 Y92.761
G1 Z.6
G1 Z.2
G1 E5 F2400
;TYPE:Skirt
;WIDTH:0.5
G1 F3000
G1 X91.9 Y92.671 E.01823
G1 X128.1 Y92.671 E1.34831
G1 X129.361 Y93.062 E.04917
G1 X130.179 Y94.098 E.04917
G1 X130.329 Y94.9 E.03037
G1 X130.329 Y125.1 E1.12484
G1 X129.938 Y126.361 E.04917
G1 X128.902 Y127.179 E.04917
G1 X128.1 Y127.329 E.03037
G1 X91.9 Y127.329 E1.34831
G1 X90.639 Y126.938 E.04917
G1 X89.821 Y125.902 E.04917
G1 X89.671 Y125.1 E.03037
G1 X89.671 Y94.9 E1.12484
G1 X90.062 Y93.639 E.04917
G1 X91.098 Y92.821 E.04917
G1 X91.379 Y92.768 E.01065
; printing object Hinge00.stl id:720576387062527073 copy 0
G1 E-3.8 F3600
;WIPE_START
G1 F3000
G1 X91.9 Y92.671 E-.63547
G1 X92.37 Y92.671 E-.56454
;WIPE_END
G1 Z.6 F9000
G1 X126.943 Y97.181 Z.6
G1 Z.2
G1 E5 F2400
;TYPE:Inner wall
;WIDTH:0.472114
G1 F900
G1 X126.95 Y97.249 E.00239
;WIDTH:0.428978
G1 X126.971 Y97.457 E.00659
;WIDTH:0.385841
G1 X126.971 Y122.724 E.70605
;WIDTH:0.428978
G1 X126.95 Y122.896 E.00546
;WIDTH:0.472114
G1 X126.928 Y123.068 E.00607
;WIDTH:0.51525
G1 X126.907 Y123.24 E.00668
;WIDTH:0.558386
G1 X126.885 Y123.412 E.00729
;WIDTH:0.601522
G1 X126.864 Y123.584 E.0079
G1 X126.864 Y123.864 E.01271
G1 X126.584 Y123.864 E.01271
G1 X126.376 Y123.885 E.00953
;WIDTH:0.558386
G1 X126.168 Y123.907 E.0088
;WIDTH:0.51525
G1 X125.959 Y123.928 E.00806
;WIDTH:0.472114
G1 X125.751 Y123.95 E.00732
;WIDTH:0.428978
G1 X125.543 Y123.971 E.00659
;WIDTH:0.385841
G1 X111.457 Y123.971 E.39361
;WIDTH:0.423894
G1 X111.214 Y123.952 E.00756
;WIDTH:0.461947
G1 X110.971 Y123.933 E.00832
;WIDTH:0.499999
G1 X110.729 Y123.914 E.00907
G1 X109.271 Y123.914 E.05427
G1 X109.029 Y123.933 E.00907
;WIDTH:0.461947
G1 X108.786 Y123.952 E.00832
;WIDTH:0.423894
G1 X108.543 Y123.971 E.00756
;WIDTH:0.385841
G1 X94.457 Y123.971 E.39361
;WIDTH:0.428977
G1 X94.249 Y123.95 E.00659
;WIDTH:0.472113
G1 X94.041 Y123.928 E.00732
;WIDTH:0.515249
G1 X93.832 Y123.907 E.00806
;WIDTH:0.558385
G1 X93.624 Y123.885 E.0088
;WIDTH:0.601521
G1 X93.416 Y123.864 E.00953
G1 X93.136 Y123.864 E.01271
G1 X93.136 Y123.584 E.01271
G1 X93.115 Y123.376 E.00953
;WIDTH:0.558385
G1 X93.093 Y123.168 E.0088
;WIDTH:0.515249
G1 X93.072 Y122.959 E.00806
;WIDTH:0.472113
G1 X93.05 Y122.751 E.00732
;WIDTH:0.428977
G1 X93.029 Y122.543 E.00659
;WIDTH:0.385841
G1 X93.029 Y97.457 E.70099
;WIDTH:0.428977
G1 X93.05 Y97.249 E.00659
;WIDTH:0.472113
G1 X93.072 Y97.041 E.00732
;WIDTH:0.515249
G1 X93.093 Y96.832 E.00806
;WIDTH:0.558385
G1 X93.115 Y96.624 E.0088
;WIDTH:0.601521
G1 X93.136 Y96.416 E.00953
G1 X93.136 Y96.136 E.01271
G1 X93.416 Y96.136 E.01271
G1 X93.624 Y96.115 E.00953
;WIDTH:0.558385
G1 X93.832 Y96.093 E.0088
;WIDTH:0.515249
G1 X94.041 Y96.072 E.00806
;WIDTH:0.472113
G1 X94.249 Y96.05 E.00732
;WIDTH:0.428977
G1 X94.457 Y96.029 E.00659
;WIDTH:0.385841
G1 X108.543 Y96.029 E.39361
;WIDTH:0.423894
G1 X108.786 Y96.048 E.00756
;WIDTH:0.461947
G1 X109.029 Y96.067 E.00832
;WIDTH:0.499999
G1 X109.271 Y96.086 E.00907
G1 X110.729 Y96.086 E.05427
G1 X110.971 Y96.067 E.00907
;WIDTH:0.461947
G1 X111.214 Y96.048 E.00832
;WIDTH:0.423894
G1 X111.457 Y96.029 E.00756
;WIDTH:0.385841
G1 X125.543 Y96.029 E.39361
;WIDTH:0.428978
G1 X125.751 Y96.05 E.00659
;WIDTH:0.472114
G1 X125.959 Y96.072 E.00732
;WIDTH:0.51525
G1 X126.168 Y96.093 E.00806
;WIDTH:0.558386
G1 X126.376 Y96.115 E.0088
;WIDTH:0.601522
G1 X126.584 Y96.136 E.00953
G1 X126.864 Y96.136 E.01271
G1 X126.864 Y96.416 E.01271
G1 X126.885 Y96.624 E.00953
;WIDTH:0.558386
G1 X126.907 Y96.832 E.0088
;WIDTH:0.51525
G1 X126.928 Y97.041 E.00806
;WIDTH:0.472114
G1 X126.939 Y97.141 E.00354
G1 X125.927 Y96.481 F9000
;WIDTH:0.51525
G1 F900
G1 X126.049 Y96.516 E.0049
;WIDTH:0.558386
G1 X126.218 Y96.565 E.00737
;WIDTH:0.601522
G1 X126.387 Y96.613 E.00799
G1 X126.435 Y96.782 E.00799
;WIDTH:0.558386
G1 X126.484 Y96.951 E.00737
;WIDTH:0.51525
G1 X126.532 Y97.12 E.00676
;WIDTH:0.472114
G1 X126.58 Y97.288 E.00614
;WIDTH:0.428978
G1 X126.629 Y97.457 E.00552
;WIDTH:0.385841
G1 X126.629 Y122.543 E.70099
;WIDTH:0.395365
G1 X126.617 Y122.731 E.00542
;WIDTH:0.436597
G1 X126.571 Y122.862 E.00446
;WIDTH:0.477828
G1 X126.525 Y122.994 E.00492
;WIDTH:0.51906
G1 X126.479 Y123.125 E.00539
;WIDTH:0.560291
G1 X126.433 Y123.256 E.00586
;WIDTH:0.601522
G1 X126.387 Y123.387 E.00632
G1 X126.249 Y123.435 E.00664
;WIDTH:0.558386
G1 X126.111 Y123.484 E.00613
;WIDTH:0.51525
G1 X125.974 Y123.532 E.00562
;WIDTH:0.472114
G1 X125.836 Y123.58 E.00511
;WIDTH:0.428978
G1 X125.698 Y123.629 E.00459
;WIDTH:0.385841
G1 X111.457 Y123.629 E.39795
;WIDTH:0.423894
G1 X111.253 Y123.589 E.00644
;WIDTH:0.461947
G1 X111.05 Y123.549 E.00709
;WIDTH:0.499999
G1 X110.846 Y123.509 E.00773
G1 X110.466 Y123.111 E.0205
;WIDTH:0.54292
G1 X110.369 Y122.877 E.01034
;WIDTH:0.585841
G1 X110.271 Y122.642 E.01122
G1 X110.271 Y97.457 E1.11422
G1 X110.369 Y97.173 E.01328
;WIDTH:0.54292
G1 X110.466 Y96.889 E.01223
;WIDTH:0.499999
G1 X110.846 Y96.491 E.0205
G1 X111.002 Y96.451 E.006
;WIDTH:0.461947
G1 X111.158 Y96.411 E.0055
;WIDTH:0.423894
G1 X111.314 Y96.371 E.005
;WIDTH:0.385841
G1 X125.543 Y96.371 E.39761
;WIDTH:0.428978
G1 X125.712 Y96.42 E.00552
;WIDTH:0.472114
G1 X125.88 Y96.468 E.00614
;WIDTH:0.51525
G1 X125.888 Y96.47 E.00032
G1 X125.859 Y96.902 F9000
;WIDTH:0.499999
G1 F900
G1 X126.028 Y96.972 E.00682
G1 X126.229 Y97.457 E.01954
G1 X126.229 Y122.543 E.93435
G1 X126.218 Y122.661 E.00443
G1 X126.028 Y123.028 E.01538
G1 X125.642 Y123.229 E.01621
G1 X111.457 Y123.229 E.52832
G1 X111.091 Y123.122 E.01421
G1 X110.862 Y122.884 E.0123
G1 X110.771 Y122.594 E.0113
G1 X110.771 Y97.457 E.93627
G1 X110.862 Y97.116 E.01314
G1 X111.091 Y96.878 E.0123
G1 X111.365 Y96.771 E.01097
G1 X125.543 Y96.771 E.52806
G1 X125.822 Y96.887 E.01123
G1 X125.689 Y97.311 F9000
;TYPE:Outer wall
G1 F900
G1 X125.75 Y97.457 E.0059
G1 X125.75 Y122.543 E.93435
G1 X125.689 Y122.689 E.0059
G1 X125.543 Y122.75 E.0059
G1 X111.457 Y122.75 E.52464
G1 X111.346 Y122.718 E.00429
G1 X111.25 Y122.56 E.0069
G1 X111.25 Y97.457 E.93498
G1 X111.277 Y97.354 E.00397
G1 X111.429 Y97.25 E.00686
G1 X125.543 Y97.25 E.52568
G1 X125.652 Y97.295 E.00441
G1 E-3.5 F3600
;WIPE_START
G1 F900
G1 X125.75 Y97.457 E-.28336
G1 X125.75 Y98.268 E-1.21664
;WIPE_END
G1 Z.6 F9000
G1 X93.481 Y97.073 Z.6
G1 Z.2
G1 E5 F2400
;TYPE:Inner wall
;WIDTH:0.515249
G1 F900
G1 X93.516 Y96.951 E.0049
;WIDTH:0.558385
G1 X93.565 Y96.782 E.00737
;WIDTH:0.601521
G1 X93.613 Y96.613 E.00799
G1 X93.751 Y96.565 E.00664
M73 P1 R113
;WIDTH:0.558385
G1 X93.889 Y96.516 E.00613
;WIDTH:0.515249
G1 X94.026 Y96.468 E.00562
;WIDTH:0.472113
G1 X94.164 Y96.42 E.00511
;WIDTH:0.428977
G1 X94.302 Y96.371 E.00459
;WIDTH:0.385841
G1 X108.543 Y96.371 E.39795
;WIDTH:0.423894
G1 X108.747 Y96.411 E.00644
;WIDTH:0.461947
G1 X108.95 Y96.451 E.00709
;WIDTH:0.499999
G1 X109.154 Y96.491 E.00773
G1 X109.534 Y96.889 E.0205
;WIDTH:0.54292
G1 X109.631 Y97.173 E.01223
;WIDTH:0.585841
G1 X109.729 Y97.457 E.01328
G1 X109.729 Y122.543 E1.10983
G1 X109.691 Y122.702 E.00723
;WIDTH:0.555494
G1 X109.654 Y122.861 E.00683
;WIDTH:0.525147
G1 X109.534 Y123.111 E.01088
;WIDTH:0.499999
G1 X109.154 Y123.509 E.0205
G1 X108.95 Y123.549 E.00773
;WIDTH:0.461947
G1 X108.747 Y123.589 E.00709
;WIDTH:0.423894
G1 X108.543 Y123.629 E.00644
;WIDTH:0.385841
G1 X94.457 Y123.629 E.39361
;WIDTH:0.428977
G1 X94.288 Y123.58 E.00552
;WIDTH:0.472113
G1 X94.12 Y123.532 E.00614
;WIDTH:0.515249
G1 X93.951 Y123.484 E.00676
;WIDTH:0.558385
G1 X93.782 Y123.435 E.00737
;WIDTH:0.601521
G1 X93.613 Y123.387 E.00799
G1 X93.565 Y123.249 E.00664
;WIDTH:0.558385
G1 X93.516 Y123.111 E.00613
;WIDTH:0.515249
G1 X93.468 Y122.974 E.00562
;WIDTH:0.472113
G1 X93.42 Y122.836 E.00511
;WIDTH:0.428977
G1 X93.371 Y122.698 E.00459
;WIDTH:0.385841
G1 X93.371 Y97.457 E.70533
;WIDTH:0.428977
G1 X93.42 Y97.288 E.00552
;WIDTH:0.472113
G1 X93.468 Y97.12 E.00614
;WIDTH:0.515249
G1 X93.47 Y97.112 E.00032
G1 X93.902 Y97.141 F9000
;WIDTH:0.499999
G1 F900
G1 X93.972 Y96.972 E.00682
G1 X94.358 Y96.771 E.01621
G1 X108.543 Y96.771 E.52832
G1 X108.909 Y96.878 E.01421
G1 X109.138 Y97.116 E.0123
G1 X109.229 Y97.457 E.01314
G1 X109.229 Y122.543 E.93435
G1 X109.202 Y122.732 E.0071
G1 X109.138 Y122.884 E.00615
G1 X108.909 Y123.122 E.0123
G1 X108.543 Y123.229 E.01421
G1 X94.457 Y123.229 E.52464
G1 X93.972 Y123.028 E.01954
G1 X93.771 Y122.642 E.01621
G1 X93.771 Y97.457 E.93802
G1 X93.887 Y97.178 E.01123
G1 X94.311 Y97.311 F9000
;TYPE:Outer wall
G1 F900
G1 X94.457 Y97.25 E.0059
G1 X108.543 Y97.25 E.52464
G1 X108.654 Y97.282 E.00429
G1 X108.75 Y97.411 E.00599
G1 X108.75 Y122.543 E.93608
G1 X108.723 Y122.646 E.00397
G1 X108.574 Y122.75 E.00675
G1 X94.457 Y122.75 E.52581
G1 X94.311 Y122.689 E.0059
G1 X94.25 Y122.543 E.0059
G1 X94.25 Y97.457 E.93435
G1 X94.295 Y97.348 E.00441
G1 E-3.5 F3600
;WIPE_START
G1 F900
G1 X94.457 Y97.25 E-.28336
G1 X95.268 Y97.25 E-1.21664
;WIPE_END
G1 Z.6 F9000
G1 X127.371 Y124.371 Z.6
G1 Z.2
G1 E5 F2400
;TYPE:Inner wall
G1 F900
G1 X92.629 Y124.371 E1.29404
G1 X92.629 Y95.629 E1.07056
G1 X127.371 Y95.629 E1.29404
G1 X127.371 Y124.331 E1.06907
G1 X127.85 Y124.85 F9000
M73 P1 R112
;TYPE:Outer wall
G1 F900
G1 X92.15 Y124.85 E1.32969
G1 X92.15 Y95.15 E1.10621
G1 X127.85 Y95.15 E1.32969
G1 X127.85 Y124.81 E1.10472
G1 E-3.5 F3600
;WIPE_START
G1 F900
G1 X126.85 Y124.811 E-1.5
;WIPE_END
G1 Z.6 F9000
G1 X109.612 Y123.219 Z.6
G1 Z.2
G1 E5 F2400
;TYPE:Bottom surface
;WIDTH:0.591415
G1 F1200
G1 X110.171 Y123.777 E.03531
G1 E-3.5 F3600
;WIPE_START
G1 F1200
G1 X109.612 Y123.219 E-1.5
;WIPE_END
G1 Z.6 F9000
G1 X109.836 Y96.223 Z.6
G1 Z.2
G1 E5 F2400
G1 F1200
G1 X110.391 Y96.778 E.03511
; stop printing object Hinge00.stl id:720576387062527073 copy 0
M106 S255
;LAYER_CHANGE
;Z:0.32
;HEIGHT:0.12
;BEFORE_LAYER_CHANGE
;0.32
G92 E0

G1 E-3.5 F3600
;WIPE_START
G1 F1200
G1 X109.836 Y96.223 E-1.5
;WIPE_END
;_SET_FAN_SPEED_CHANGING_LAYER
; printing object Hinge00.stl id:720576387062527073 copy 0
M204 S700
G1 Z.72 F9000
G1 X127.16 Y97.44 Z.72
G1 Z.32
G1 E5 F2400
M204 S500
;TYPE:Inner wall
;WIDTH:0.581505
G1 X127.158 Y97.474 E.00094
G1 X127.158 Y122.826 E.68885
G1 X127.18 Y123.1 E.00747
;WIDTH:0.53767
G1 X127.202 Y123.374 E.00688
;WIDTH:0.493835
G1 X127.224 Y123.648 E.00629
;WIDTH:0.449999
G1 X127.224 Y124.224 E.01195
G1 X126.648 Y124.224 E.01195
;WIDTH:0.493835
G1 X126.274 Y124.202 E.00857
;WIDTH:0.53767
G1 X125.9 Y124.18 E.00938
;WIDTH:0.581505
G1 X125.526 Y124.158 E.01018
G1 X111.474 Y124.158 E.38181
G1 X111.229 Y124.18 E.0067
;WIDTH:0.53767
G1 X110.983 Y124.202 E.00617
;WIDTH:0.493835
G1 X110.737 Y124.224 E.00565
;WIDTH:0.449999
G1 X109.263 Y124.224 E.03058
;WIDTH:0.497255
G1 X109.096 Y124.2 E.00389
;WIDTH:0.544511
G1 X108.929 Y124.176 E.00428
;WIDTH:0.591766
G1 X108.762 Y124.153 E.00467
G1 X108.526 Y124.158 E.00653
;WIDTH:0.581505
G1 X94.474 Y124.158 E.38181
G1 X94.1 Y124.18 E.01018
;WIDTH:0.53767
G1 X93.726 Y124.202 E.00938
;WIDTH:0.493835
G1 X93.352 Y124.224 E.00857
;WIDTH:0.449999
G1 X92.776 Y124.224 E.01195
G1 X92.776 Y123.648 E.01195
;WIDTH:0.493835
G1 X92.798 Y123.274 E.00857
;WIDTH:0.53767
G1 X92.82 Y122.9 E.00938
;WIDTH:0.581505
G1 X92.842 Y122.526 E.01018
G1 X92.842 Y97.474 E.6807
G1 X92.82 Y97.1 E.01018
;WIDTH:0.53767
G1 X92.798 Y96.726 E.00938
;WIDTH:0.493835
G1 X92.776 Y96.352 E.00857
;WIDTH:0.449999
G1 X92.776 Y95.776 E.01195
G1 X93.352 Y95.776 E.01195
;WIDTH:0.493835
G1 X93.726 Y95.798 E.00857
;WIDTH:0.53767
G1 X94.1 Y95.82 E.00938
;WIDTH:0.581505
G1 X94.474 Y95.842 E.01018
G1 X108.526 Y95.842 E.38181
G1 X108.771 Y95.82 E.0067
;WIDTH:0.53767
G1 X109.017 Y95.798 E.00617
;WIDTH:0.493835
G1 X109.263 Y95.776 E.00565
;WIDTH:0.449999
G1 X110.737 Y95.776 E.03058
;WIDTH:0.497255
G1 X110.904 Y95.8 E.00389
;WIDTH:0.544511
G1 X111.071 Y95.824 E.00428
;WIDTH:0.591766
G1 X111.238 Y95.847 E.00467
G1 X111.474 Y95.842 E.00653
;WIDTH:0.581505
G1 X125.526 Y95.842 E.38181
G1 X125.9 Y95.82 E.01018
;WIDTH:0.53767
G1 X126.274 Y95.798 E.00938
;WIDTH:0.493835
G1 X126.648 Y95.776 E.00857
;WIDTH:0.449999
G1 X127.224 Y95.776 E.01195
G1 X127.224 Y96.352 E.01195
;WIDTH:0.493835
G1 X127.202 Y96.726 E.00857
;WIDTH:0.53767
G1 X127.18 Y97.1 E.00938
;WIDTH:0.581505
G1 X127.162 Y97.4 E.00815
M204 S700
G1 X126.008 Y96.642 F9000
M204 S500
;WIDTH:0.493835
G1 F2400
G1 X126.24 Y96.76 E.00596
G1 X126.361 Y96.998 E.00611
;WIDTH:0.53767
G1 X126.482 Y97.236 E.00668
;WIDTH:0.581505
G1 X126.602 Y97.474 E.00725
G1 X126.602 Y122.526 E.6807
;WIDTH:0.591766
G1 X126.591 Y122.713 E.00518
G1 X126.474 Y122.889 E.00584
;WIDTH:0.544511
G1 X126.357 Y123.064 E.00536
;WIDTH:0.497255
G1 X126.24 Y123.24 E.00487
;WIDTH:0.493835
G1 X126.059 Y123.361 E.00499
;WIDTH:0.53767
G1 X125.877 Y123.482 E.00545
;WIDTH:0.581505
G1 X125.696 Y123.602 E.00592
G1 X111.474 Y123.602 E.38643
G1 X111.304 Y123.534 E.005
;WIDTH:0.53767
G1 X111.133 Y123.465 E.0046
;WIDTH:0.493835
G1 X110.962 Y123.397 E.00421
;WIDTH:0.449999
G1 X110.626 Y123.074 E.00967
G1 X110.513 Y122.837 E.00546
G1 X110.464 Y122.526 E.00653
G1 X110.464 Y97.474 E.51963
G1 X110.513 Y97.163 E.00653
G1 X110.626 Y96.926 E.00546
G1 X110.962 Y96.603 E.00967
;WIDTH:0.493835
G1 X111.077 Y96.535 E.00306
;WIDTH:0.53767
G1 X111.191 Y96.466 E.00334
;WIDTH:0.581505
G1 X111.306 Y96.398 E.00363
G1 X125.526 Y96.398 E.38638
G1 X125.764 Y96.518 E.00725
;WIDTH:0.53767
G1 X125.972 Y96.624 E.00584
M204 S700
G1 X125.795 Y96.999 F9000
M204 S500
;WIDTH:0.449999
G1 F2400
G1 X125.94 Y97.06 E.00327
G1 X126.112 Y97.474 E.00931
G1 X126.112 Y122.526 E.51963
G1 X126.103 Y122.627 E.00211
G1 X125.94 Y122.94 E.00733
G1 X125.61 Y123.112 E.00772
G1 X111.474 Y123.112 E.29321
G1 X111.177 Y123.031 E.00639
G1 X110.982 Y122.844 E.00561
G1 X110.888 Y122.57 E.006
G1 X110.888 Y97.474 E.52055
G1 X110.982 Y97.156 E.00688
G1 X111.177 Y96.969 E.00561
G1 X111.397 Y96.888 E.00486
G1 X125.526 Y96.888 E.29307
G1 X125.758 Y96.984 E.00521
G1 X125.649 Y97.351 F9000
;TYPE:Outer wall
;WIDTH:0.399999
G1 F1500
G1 X125.7 Y97.474 E.00244
G1 X125.7 Y122.526 E.45839
G1 X125.649 Y122.649 E.00244
G1 X125.526 Y122.7 E.00244
G1 X111.474 Y122.7 E.25711
G1 X111.328 Y122.62 E.00305
G1 X111.3 Y122.526 E.0018
G1 X111.3 Y97.474 E.45839
G1 X111.328 Y97.38 E.0018
G1 X111.451 Y97.3 E.00269
G1 X125.526 Y97.3 E.25753
G1 X125.612 Y97.336 E.00171
M204 S700
G1 E-3.5 F3600
;WIPE_START
G1 F1500
G1 X125.7 Y97.474 E-.24615
G1 X125.7 Y98.31 E-1.25385
;WIPE_END
G1 Z.72 F9000
G1 X93.642 Y96.992 Z.72
G1 Z.32
G1 E5 F2400
M204 S500
;TYPE:Inner wall
;WIDTH:0.493835
G1 X93.76 Y96.76 E.00596
G1 X93.941 Y96.639 E.00499
;WIDTH:0.53767
G1 X94.123 Y96.518 E.00545
;WIDTH:0.581505
G1 X94.304 Y96.398 E.00592
G1 X108.526 Y96.398 E.38643
G1 X108.696 Y96.466 E.005
;WIDTH:0.53767
G1 X108.867 Y96.535 E.0046
;WIDTH:0.493835
G1 X109.038 Y96.603 E.00421
