; HEADER_BLOCK_START
; generated by OrcaSlicer 2.3.2 on 2026-06-02 at 18:55:25
; total layer number: 84
; filament_density: 1.24
; filament_diameter: 1.75
; max_z_height: 20.12
; filament: 1
; HEADER_BLOCK_END

; THUMBNAIL_BLOCK_START

;
; THUMBNAIL_BLOCK_END

; THUMBNAIL_BLOCK_START

;
; THUMBNAIL_BLOCK_END

; external perimeters extrusion width = 0.40mm
; perimeters extrusion width = 0.45mm
; infill extrusion width = 0.45mm
; solid infill extrusion width = 0.40mm
; top infill extrusion width = 0.45mm
; support material extrusion width = 0.40mm
; first layer extrusion width = 0.50mm

; EXECUTABLE_BLOCK_START
M73 P0 R141
M201 X500 Y500 Z500 E5000
M203 X500 Y500 Z10 E60
M204 P500 R1000 T500
M205 X8.00 Y8.00 Z0.40 E5.00 ; sets the jerk limits, mm/sec
;TYPE:Custom
G90 ; use absolute coordinates
M83 ; extruder relative mode
M140 S60 ; set final bed temp
M104 S150 ; set temporary nozzle temp to prevent oozing during homing
G4 S10 ; allow partial nozzle warmup
G28 ; home all axis
G1 Z50 F240
G1 X2 Y10 F3000
M73 P0 R140
M104 S220 ; set final nozzle temp
M190 S60 ; wait for bed temp to stabilize
M109 S220 ; wait for nozzle temp to stabilize
G1 Z0.28 F240
G92 E0
G1 Y140 E10 F1500 ; prime the nozzle
G1 X2.3 F5000
G92 E0
G1 Y10 E10 F1200 ; prime the nozzle
G92 E0
G90
G21
M83 ; use relative distances for extrusion
; filament start gcode
M106 S0
;LAYER_CHANGE
;Z:0.2
;HEIGHT:0.2
;BEFORE_LAYER_CHANGE
;0.2
G92 E0

G1 E-5 F3600
;_SET_FAN_SPEED_CHANGING_LAYER
M204 S500
G1 Z.6 F9000
G1 X80.338 Y84.461
G1 Z.6
G1 Z.2
G1 E5 F2400
;TYPE:Skirt
;WIDTH:0.5
G1 F3000
G1 X81.022 Y83.332 E.04917
G1 X82.5 Y82.771 E.05889
G1 X137.5 Y82.771 E2.04854
G1 X138.761 Y83.162 E.04917
G1 X139.579 Y84.198 E.04917
G1 X139.729 Y85 E.03037
G1 X139.729 Y135 E1.86231
G1 X138.964 Y136.68 E.06873
G1 X130.295 Y144.238 E.42838
G1 X129.293 Y145.025 E.04746
G1 X127.773 Y145.75 E.06274
G1 X126.628 Y146.041 E.044
G1 X125.427 Y146.116 E.04481
G1 X98.837 Y146.125 E.9904
G1 X97.286 Y145.942 E.05816
G1 X91.162 Y143.606 E.24413
G1 X81.238 Y136.837 E.44742
G1 X72.991 Y129.378 E.41418
G1 X72.007 Y128.182 E.05766
G1 X71.382 Y127.027 E.04891
G1 X70.905 Y125.536 E.05832
G1 X70.741 Y123.737 E.06729
G1 X70.905 Y122.357 E.05176
G1 X80.328 Y84.5 E1.45304
; printing object Hinge1.stl id:24305219931751 copy 0
G1 E-3.8 F3600
;WIPE_START
G1 F3000
G1 X80.839 Y83.641 E-1.2
;WIPE_END
G1 Z.6 F9000
G1 X78.969 Y118.763 Z.6
G1 Z.2
G1 E5 F2400
;TYPE:Support
G1 F900
G1 X79.901 Y118.952 E.03543
G1 X80.783 Y119.308 E.03543
G1 X81.586 Y119.818 E.03543
G1 X82.05 Y120.249 E.02359
G1 X82.05 Y127.642 E.27535
G1 X81.586 Y128.073 E.02359
G1 X80.783 Y128.583 E.03543
G1 X79.901 Y128.938 E.03543
G1 X78.969 Y129.128 E.03543
G1 X78.018 Y129.145 E.03542
G1 X77.08 Y128.989 E.03542
G1 X76.186 Y128.665 E.03542
G1 X75.365 Y128.184 E.03542
G1 X74.646 Y127.562 E.03542
G1 X74.052 Y126.819 E.03542
G1 X73.623 Y126.02 E.03379
G1 X73.469 Y125.609 E.01632
G1 X73.322 Y125.092 E.02004
G1 X73.248 Y124.687 E.01533
G1 X73.199 Y124.151 E.02004
G1 X73.199 Y123.74 E.01533
G1 X73.248 Y123.204 E.02004
G1 X73.322 Y122.799 E.01533
G1 X73.469 Y122.281 E.02004
G1 X73.623 Y121.871 E.01632
G1 X74.052 Y121.072 E.03379
G1 X74.632 Y120.347 E.03456
G1 X75.057 Y119.959 E.02145
G1 X75.396 Y119.689 E.01612
G1 X76.186 Y119.226 E.03411
G1 X77.08 Y118.902 E.03542
G1 X78.018 Y118.746 E.03542
G1 X78.9 Y118.762 E.03287
G1 X73.942 Y126.178 F9000
G1 F900
G1 X73.942 Y122.193 E.14844
G1 X73.998 Y122.041 E.00604
G1 X74.397 Y121.299 E.03137
G1 X74.449 Y121.233 E.00315
G1 X74.449 Y126.658 E.20204
G1 X74.957 Y127.287 E.03012
G1 X74.957 Y120.607 E.2488
G1 X75.465 Y120.16 E.0252
G1 X75.465 Y127.726 E.2818
G1 X75.606 Y127.848 E.00693
G1 X75.973 Y128.063 E.01585
G1 X75.973 Y119.828 E.30673
G1 X76.361 Y119.6 E.01676
G1 X76.481 Y119.557 E.00474
G1 X76.481 Y128.334 E.32692
G1 X76.989 Y128.518 E.02012
G1 X76.989 Y119.373 E.34063
G1 X77.184 Y119.302 E.00775
G1 X77.497 Y119.25 E.01178
G1 X77.497 Y128.641 E.34978
G1 X78.004 Y128.725 E.01918
G1 X78.004 Y119.165 E.35608
G1 X78.512 Y119.166 E.01892
G1 X78.512 Y128.725 E.35601
G1 X78.924 Y128.717 E.01533
G1 X79.02 Y128.698 E.00366
G1 X79.02 Y119.193 E.35401
G1 X79.528 Y119.296 E.0193
G1 X79.528 Y128.594 E.34632
G1 X79.782 Y128.543 E.00965
G1 X80.036 Y128.44 E.01019
G1 X80.036 Y119.45 E.33485
G1 X80.544 Y119.655 E.0204
G1 X80.544 Y128.236 E.3196
G1 X81.052 Y127.925 E.02218
G1 X81.052 Y119.966 E.29644
G1 X81.334 Y120.145 E.01244
G1 X81.56 Y120.355 E.01148
G1 X81.56 Y127.817 E.27793
G1 E-3.5 F3600
;WIPE_START
G1 F900
;WIPE_END
G1 E-1.5 F3600
G1 Z.6 F9000
G1 X90.701 Y139.454 Z.6
G1 Z.2
G1 E5 F2400
G1 F900
G1 X90.701 Y136.769 E.10003
G1 X90.904 Y136.189 E.02287
G1 X91.11 Y135.861 E.01441
G1 X91.209 Y135.861 E.0037
G1 X91.209 Y139.897 E.15029
G1 X91.346 Y140.115 E.00961
G1 X91.717 Y140.486 E.01952
G1 X91.717 Y135.861 E.17223
G1 X92.225 Y135.861 E.01892
G1 X92.225 Y140.885 E.18713
G1 X92.638 Y141.145 E.01819
G1 X92.733 Y141.178 E.00373
G1 X92.733 Y135.861 E.19803
G1 X93.24 Y135.861 E.01892
G1 X93.24 Y141.356 E.20465
G1 X93.423 Y141.42 E.0072
G1 X93.748 Y141.456 E.0122
G1 X93.748 Y135.861 E.2084
G1 X94.256 Y135.861 E.01892
G1 X94.256 Y141.512 E.21047
G1 X94.764 Y141.455 E.01904
G1 X94.764 Y135.861 E.20834
G1 X95.272 Y135.861 E.01892
G1 X95.272 Y141.351 E.20447
G1 X95.473 Y141.281 E.00792
G1 X95.78 Y141.705 E.01949
G1 X95.78 Y135.861 E.21764
G1 X96.288 Y135.861 E.01892
G1 X96.288 Y142.242 E.23766
G1 X96.444 Y142.389 E.008
M73 P0 R139
G1 X96.795 Y142.614 E.01553
G1 X96.795 Y135.861 E.2515
G1 X97.303 Y135.861 E.01892
G1 X97.303 Y142.899 E.26211
G1 X97.811 Y143.092 E.02024
G1 X97.811 Y135.861 E.2693
G1 X98.319 Y135.861 E.01892
G1 X98.319 Y143.195 E.27315
G1 X98.827 Y143.254 E.01904
G1 X98.827 Y135.861 E.27533
G1 X99.335 Y135.861 E.01892
G1 X99.335 Y143.21 E.27371
G1 X99.642 Y143.183 E.0115
G1 X99.843 Y143.129 E.00772
G1 X99.843 Y135.861 E.27071
G1 X100.351 Y135.861 E.01892
G1 X100.351 Y142.976 E.26499
G1 X100.461 Y142.942 E.0043
G1 X100.858 Y142.73 E.01677
G1 X100.858 Y135.861 E.25585
G1 X101.366 Y135.861 E.01892
G1 X101.366 Y142.408 E.24384
G1 X101.832 Y142.023 E.0225
G1 X101.874 Y141.971 E.0025
G1 X101.874 Y135.861 E.22755
G1 X102.382 Y135.861 E.01892
G1 X102.382 Y141.34 E.20407
G1 X102.481 Y141.218 E.00586
G1 X102.89 Y141.345 E.01596
G1 X102.89 Y135.861 E.20426
G1 X103.398 Y135.861 E.01892
G1 X103.398 Y141.474 E.20906
G1 X103.906 Y141.516 E.01898
G1 X103.906 Y135.861 E.21062
G1 X104.413 Y135.861 E.01892
G1 X104.413 Y141.486 E.20949
G1 X104.921 Y141.41 E.01912
G1 X104.921 Y135.861 E.20667
G1 X105.429 Y135.861 E.01892
G1 X105.429 Y141.22 E.19958
G1 X105.658 Y141.134 E.00908
G1 X105.937 Y140.959 E.0123
G1 X105.937 Y135.861 E.18985
G1 X106.445 Y135.861 E.01892
G1 X106.445 Y140.589 E.1761
G1 X106.953 Y140.052 E.02753
G1 X106.953 Y135.861 E.1561
G1 X107.146 Y135.861 E.00718
G1 X107.461 Y136.374 E.02241
G1 X107.461 Y139.226 E.10623
G1 X107.515 Y139.138 E.00384
G1 X107.969 Y139.735 E.02793
G1 X107.969 Y135.905 E.14266
G1 X107.999 Y135.861 E.00197
G1 X108.476 Y135.861 E.01779
G1 X108.476 Y140.364 E.16771
G1 X108.984 Y140.823 E.02549
G1 X108.984 Y135.861 E.1848
G1 X109.492 Y135.861 E.01892
G1 X109.492 Y141.116 E.1957
G1 X109.671 Y141.219 E.00771
G1 X110 Y141.322 E.01282
G1 X110 Y135.861 E.20338
G1 X110.508 Y135.861 E.01892
G1 X110.508 Y141.468 E.20883
G1 X111.016 Y141.51 E.01898
G1 X111.016 Y135.861 E.21039
G1 X111.524 Y135.861 E.01892
G1 X111.524 Y141.496 E.20988
G1 X112.031 Y141.426 E.0191
G1 X112.031 Y135.861 E.20725
G1 X112.539 Y135.861 E.01892
G1 X112.539 Y141.248 E.20064
G1 X112.843 Y141.134 E.01209
G1 X113.047 Y141.006 E.00897
G1 X113.047 Y135.861 E.19162
G1 X113.555 Y135.861 E.01892
G1 X113.555 Y140.667 E.179
G1 X114.063 Y140.145 E.02713
G1 X114.063 Y135.861 E.15954
G1 X114.331 Y135.861 E.01
G1 X114.544 Y136.207 E.01513
G1 X114.571 Y136.285 E.00307
G1 X114.571 Y139.742 E.12875
G1 X107.567 Y135.762 F9000
G1 F900
G1 X107.784 Y135.45 E.01413
G1 X114.561 Y135.45 E.25245
G1 X114.918 Y136.031 E.02539
G1 X115.214 Y136.893 E.03397
G1 X115.315 Y137.8 E.03397
G1 X115.214 Y138.707 E.03397
G1 X114.918 Y139.569 E.03397
G1 X114.441 Y140.346 E.03397
G1 X113.815 Y140.989 E.03341
G1 X113.418 Y141.259 E.01789
G1 X113.027 Y141.505 E.01721
G1 X112.188 Y141.819 E.03337
G1 X111.285 Y141.945 E.03397
G1 X110.376 Y141.87 E.03396
G1 X109.505 Y141.598 E.03396
G1 X108.716 Y141.143 E.03396
G1 X108.072 Y140.551 E.03254
G1 X107.551 Y139.865 E.03211
G1 X107.255 Y140.346 E.02103
G1 X106.63 Y140.989 E.03341
G1 X105.841 Y141.505 E.03509
G1 X105.002 Y141.819 E.03337
G1 X104.099 Y141.945 E.03397
G1 X103.19 Y141.87 E.03396
G1 X102.625 Y141.694 E.02202
G1 X102.126 Y142.314 E.02965
G1 X101.421 Y142.897 E.03407
G1 X100.619 Y143.324 E.03385
G1 X99.714 Y143.59 E.03513
G1 X98.828 Y143.668 E.03314
G1 X97.882 Y143.559 E.03547
G1 X96.964 Y143.21 E.03658
G1 X96.19 Y142.715 E.03419
G1 X95.606 Y142.166 E.02986
G1 X95.319 Y141.77 E.01821
G1 X95.167 Y141.823 E.00599
G1 X94.249 Y141.927 E.03442
G1 X93.331 Y141.823 E.03442
G1 X92.458 Y141.518 E.03442
G1 X91.676 Y141.027 E.03442
G1 X91.023 Y140.373 E.03442
G1 X90.531 Y139.591 E.03442
G1 X90.226 Y138.718 E.03442
G1 X90.122 Y137.8 E.03442
G1 X90.226 Y136.882 E.03442
G1 X90.531 Y136.009 E.03442
G1 X90.882 Y135.45 E.02461
G1 X107.376 Y135.45 E.61431
G1 X107.531 Y135.703 E.01107
G1 E-3.5 F3600
;WIPE_START
G1 F900
G1 X107.784 Y135.45 E-.53605
G1 X108.426 Y135.45 E-.96395
;WIPE_END
G1 Z.6 F9000
G1 X121.681 Y140.923 Z.6
G1 Z.2
G1 E5 F2400
G1 F900
G1 X121.681 Y138.035 E.10755
G1 X121.942 Y137.378 E.02634
G1 X122.189 Y136.997 E.0169
G1 X122.189 Y141.432 E.16517
G1 X122.396 Y141.742 E.01389
G1 X122.697 Y142.045 E.01591
G1 X122.697 Y136.432 E.20908
G1 X123.002 Y136.296 E.01243
G1 X123.205 Y136.095 E.01065
G1 X123.205 Y142.482 E.23792
G1 X123.712 Y142.815 E.0226
G1 X123.712 Y135.861 E.25898
G1 X124.22 Y135.861 E.01892
G1 X124.22 Y143.003 E.26601
G1 X124.557 Y143.129 E.01337
M73 P1 R139
G1 X124.728 Y143.155 E.00646
G1 X124.728 Y135.861 E.27166
G1 X125.236 Y135.861 E.01892
G1 X125.236 Y143.234 E.27458
G1 X125.335 Y143.249 E.00375
G1 X125.744 Y143.228 E.01523
G1 X125.744 Y135.861 E.27438
G1 X126.252 Y135.861 E.01892
G1 X126.252 Y143.186 E.2728
G1 X126.76 Y143.051 E.01957
G1 X126.76 Y135.861 E.26779
G1 X127.267 Y135.861 E.01892
G1 X127.267 Y142.849 E.26027
G1 X127.775 Y142.581 E.02139
G1 X127.775 Y135.95 E.24697
G1 X128.045 Y136.15 E.0125
G1 X128.283 Y136.431 E.01373
G1 X128.283 Y142.176 E.21397
G1 X128.389 Y142.092 E.00505
G1 X128.791 Y141.606 E.02349
G1 X128.791 Y136.887 E.17574
G1 X128.859 Y136.926 E.00292
G1 X129.177 Y137.43 E.02219
G1 X129.299 Y137.753 E.01284
G1 X129.299 Y141.173 E.1274
G1 X128.328 Y135.848 F9000
G1 F900
G1 X128.821 Y136.431 E.02843
G1 X129.153 Y136.62 E.01422
G1 X129.547 Y137.246 E.02754
G1 X129.874 Y138.11 E.03443
G1 X130.011 Y139.036 E.03484
G1 X129.95 Y139.965 E.03468
G1 X129.698 Y140.857 E.03453
G1 X129.267 Y141.675 E.03444
G1 X128.679 Y142.387 E.03439
G1 X127.957 Y142.962 E.03438
G1 X127.132 Y143.378 E.03442
G1 X126.237 Y143.615 E.03448
G1 X125.314 Y143.662 E.03441
G1 X124.453 Y143.529 E.03248
G1 X123.525 Y143.184 E.03685
G1 X122.728 Y142.662 E.03549
G1 X122.076 Y142.003 E.03453
G1 X121.654 Y141.373 E.02825
G1 X121.305 Y140.579 E.0323
G1 X121.117 Y139.719 E.03278
G1 X121.101 Y138.869 E.03169
G1 X121.184 Y138.336 E.02006
G1 X121.27 Y137.955 E.01456
G1 X121.574 Y137.188 E.03074
G1 X122.22 Y136.194 E.04415
G1 X122.765 Y135.951 E.02222
G1 X123.075 Y135.644 E.01624
G1 X123.383 Y135.45 E.01358
G1 X127.791 Y135.45 E.16416
G1 X128.273 Y135.807 E.02235
G1 E-3.5 F3600
;WIPE_START
G1 F900
G1 X128.821 Y136.431 E-1.24528
G1 X128.969 Y136.515 E-.25472
;WIPE_END
G1 Z.6 F9000
G1 X136.314 Y133.814 Z.6
G1 Z.2
G1 E5 F2400
;TYPE:Inner wall
;WIDTH:0.499999
G1 F900
G1 X83.686 Y133.814 E1.96022
G1 X83.686 Y86.186 E1.77399
G1 X136.314 Y86.186 E1.96022
G1 X136.314 Y133.774 E1.7725
G1 X136.771 Y134.271 F9000
G1 F900
G1 X83.229 Y134.271 E1.99427
G1 X83.229 Y85.729 E1.80804
G1 X136.771 Y85.729 E1.99427
G1 X136.771 Y134.231 E1.80655
G1 X137.25 Y134.75 F9000
;TYPE:Outer wall
G1 F900
G1 X82.75 Y134.75 E2.02992
G1 X82.75 Y85.25 E1.84368
M73 P1 R138
G1 X137.25 Y85.25 E2.02992
G1 X137.25 Y134.71 E1.84219
G1 E-3.5 F3600
;WIPE_START
G1 F900
G1 X136.25 Y134.711 E-1.5
;WIPE_END
G1 Z.6 F9000
G1 X135.251 Y86.323 Z.6
G1 Z.2
G1 E5 F2400
;TYPE:Bottom surface
;WIDTH:0.501163
G1 F1200
G1 X135.972 Y87.043 E.03806
G1 X135.972 Y87.692 E.0242
G1 X134.808 Y86.528 E.06142
G1 X134.16 Y86.528 E.0242
G1 X135.972 Y88.34 E.09564
G1 X135.972 Y88.988 E.0242
G1 X133.512 Y86.528 E.12987
G1 X132.864 Y86.528 E.0242
G1 X135.972 Y89.636 E.16409
G1 X135.972 Y90.284 E.0242
G1 X132.216 Y86.528 E.19831
G1 X131.568 Y86.528 E.0242
G1 X135.972 Y90.932 E.23253
G1 X135.972 Y91.58 E.0242
G1 X130.92 Y86.528 E.26676
G1 X130.272 Y86.528 E.0242
G1 X135.972 Y92.228 E.30098
G1 X135.972 Y92.876 E.0242
G1 X129.624 Y86.528 E.3352
G1 X128.976 Y86.528 E.0242
G1 X135.972 Y93.524 E.36942
G1 X135.972 Y94.172 E.0242
G1 X128.328 Y86.528 E.40365
G1 X127.68 Y86.528 E.0242
G1 X135.972 Y94.82 E.43787
G1 X135.972 Y95.468 E.0242
G1 X127.032 Y86.528 E.47209
G1 X126.384 Y86.528 E.0242
G1 X135.972 Y96.116 E.50631
G1 X135.972 Y96.764 E.0242
G1 X125.736 Y86.528 E.54054
G1 X125.088 Y86.528 E.0242
G1 X135.972 Y97.412 E.57476
G1 X135.972 Y98.06 E.0242
G1 X124.44 Y86.528 E.60898
G1 X123.792 Y86.528 E.0242
G1 X135.972 Y98.708 E.64321
G1 X135.972 Y99.357 E.0242
G1 X123.143 Y86.528 E.67743
G1 X122.495 Y86.528 E.0242
G1 X135.972 Y100.005 E.71165
G1 X135.972 Y100.653 E.0242
G1 X121.847 Y86.528 E.74587
G1 X121.199 Y86.528 E.0242
G1 X135.972 Y101.301 E.7801
G1 X135.972 Y101.949 E.0242
G1 X120.551 Y86.528 E.81432
G1 X119.903 Y86.528 E.0242
G1 X135.972 Y102.597 E.84854
G1 X135.972 Y103.245 E.0242
G1 X119.255 Y86.528 E.88276
G1 X118.607 Y86.528 E.0242
G1 X135.972 Y103.893 E.91699
G1 X135.972 Y104.541 E.0242
G1 X117.959 Y86.528 E.95121
G1 X117.311 Y86.528 E.0242
G1 X135.972 Y105.189 E.98543
G1 X135.972 Y105.837 E.0242
G1 X116.663 Y86.528 E1.01965
G1 X116.015 Y86.528 E.0242
G1 X135.972 Y106.485 E1.05388
G1 X135.972 Y107.133 E.0242
G1 X115.367 Y86.528 E1.0881
G1 X114.719 Y86.528 E.0242
G1 X135.972 Y107.781 E1.12232
G1 X135.972 Y108.429 E.0242
G1 X114.071 Y86.528 E1.15654
G1 X113.423 Y86.528 E.0242
G1 X135.972 Y109.077 E1.19077
G1 X135.972 Y109.725 E.0242
G1 X112.775 Y86.528 E1.22499
G1 X112.127 Y86.528 E.0242
G1 X135.972 Y110.373 E1.25921
G1 X135.972 Y111.021 E.0242
G1 X111.479 Y86.528 E1.29343
G1 X110.83 Y86.528 E.0242
M73 P2 R138
G1 X135.972 Y111.67 E1.32766
G1 X135.972 Y112.318 E.0242
G1 X110.182 Y86.528 E1.36188
G1 X109.534 Y86.528 E.0242
G1 X135.972 Y112.966 E1.3961
G1 X135.972 Y113.614 E.0242
G1 X108.886 Y86.528 E1.43032
G1 X108.238 Y86.528 E.0242
G1 X135.972 Y114.262 E1.46455
G1 X135.972 Y114.91 E.0242
G1 X107.59 Y86.528 E1.49877
G1 X106.942 Y86.528 E.0242
M73 P2 R137
G1 X135.972 Y115.558 E1.53299
G1 X135.972 Y116.206 E.0242
G1 X106.294 Y86.528 E1.56721
G1 X105.646 Y86.528 E.0242
G1 X135.972 Y116.854 E1.60144
G1 X135.972 Y117.502 E.0242
G1 X104.998 Y86.528 E1.63566
G1 X104.35 Y86.528 E.0242
G1 X135.972 Y118.15 E1.66988
G1 X135.972 Y118.798 E.0242
G1 X103.702 Y86.528 E1.7041
G1 X103.054 Y86.528 E.0242
G1 X135.972 Y119.446 E1.73833
G1 X135.972 Y120.094 E.0242
G1 X102.406 Y86.528 E1.77255
G1 X101.758 Y86.528 E.0242
G1 X135.972 Y120.742 E1.80677
G1 X135.972 Y121.39 E.0242
G1 X101.11 Y86.528 E1.84099
G1 X100.462 Y86.528 E.0242
G1 X135.972 Y122.038 E1.87522
G1 X135.972 Y122.686 E.0242
G1 X99.814 Y86.528 E1.90944
G1 X99.166 Y86.528 E.0242
G1 X135.972 Y123.334 E1.94366
G1 X135.972 Y123.983 E.0242
G1 X98.517 Y86.528 E1.97788
G1 X97.869 Y86.528 E.0242
G1 X135.972 Y124.631 E2.01211
G1 X135.972 Y125.279 E.0242
G1 X97.221 Y86.528 E2.04633
G1 X96.573 Y86.528 E.0242
G1 X135.972 Y125.927 E2.08055
G1 X135.972 Y126.575 E.0242
G1 X95.925 Y86.528 E2.11477
G1 X95.277 Y86.528 E.0242
G1 X135.972 Y127.223 E2.149
G1 X135.972 Y127.871 E.0242
G1 X94.629 Y86.528 E2.18322
G1 X93.981 Y86.528 E.0242
G1 X135.972 Y128.519 E2.21744
G1 X135.972 Y129.167 E.0242
G1 X93.333 Y86.528 E2.25166
G1 X92.685 Y86.528 E.0242
G1 X135.972 Y129.815 E2.28589
