; HEADER_BLOCK_START
; generated by OrcaSlicer 2.3.2 on 2026-06-05 at 22:53:47
; total layer number: 166
; filament_density: 1.24
; filament_diameter: 1.75
; max_z_height: 20.00
; filament: 1
; HEADER_BLOCK_END

; THUMBNAIL_BLOCK_START

;
; THUMBNAIL_BLOCK_END

; THUMBNAIL_BLOCK_START

;
; THUMBNAIL_BLOCK_END

; external perimeters extrusion width = 0.40mm
; perimeters extrusion width = 0.45mm
; infill extrusion width = 0.45mm
; solid infill extrusion width = 0.40mm
; top infill extrusion width = 0.40mm
; first layer extrusion width = 0.50mm

; EXECUTABLE_BLOCK_START
M73 P0 R39
M201 X500 Y500 Z500 E5000
M203 X500 Y500 Z10 E60
M204 P500 R1000 T500
M205 X8.00 Y8.00 Z0.40 E5.00 ; sets the jerk limits, mm/sec
;TYPE:Custom
G90 ; use absolute coordinates
M83 ; extruder relative mode
M140 S60 ; set final bed temp
M104 S150 ; set temporary nozzle temp to prevent oozing during homing
G4 S10 ; allow partial nozzle warmup
G28 ; home all axis
G1 Z50 F240
G1 X2 Y10 F3000
M73 P0 R38
M104 S220 ; set final nozzle temp
M190 S60 ; wait for bed temp to stabilize
M109 S220 ; wait for nozzle temp to stabilize
G1 Z0.28 F240
G92 E0
G1 Y140 E10 F1500 ; prime the nozzle
M73 P1 R38
G1 X2.3 F5000
G92 E0
G1 Y10 E10 F1200 ; prime the nozzle
G92 E0
G90
G21
M83 ; use relative distances for extrusion
; filament start gcode
M106 S0
;LAYER_CHANGE
;Z:0.2
;HEIGHT:0.2
;BEFORE_LAYER_CHANGE
;0.2
G92 E0

G1 E-5 F3600
;_SET_FAN_SPEED_CHANGING_LAYER
M204 S500
G1 Z.6 F9000
G1 X91.793 Y92.757
G1 Z.6
G1 Z.2
G1 E5 F2400
;TYPE:Skirt
;WIDTH:0.5
G1 F3000
G1 X92 Y92.671 E.00833
G1 X128 Y92.671 E1.34086
G1 X129.576 Y93.324 E.06353
G1 X129.676 Y93.424 E.00527
G1 X130.329 Y95 E.06353
G1 X130.329 Y125 E1.11739
G1 X129.676 Y126.576 E.06353
G1 X129.576 Y126.676 E.00527
G1 X128 Y127.329 E.06353
G1 X92 Y127.329 E1.34086
G1 X90.424 Y126.676 E.06353
G1 X90.324 Y126.576 E.00527
G1 X89.671 Y125 E.06353
G1 X89.671 Y95 E1.11739
G1 X90.324 Y93.424 E.06353
G1 X90.424 Y93.324 E.00527
G1 X91.756 Y92.772 E.05371
; printing object Hinge00.stl id:720576387062527073 copy 0
G1 E-3.8 F3600
;WIPE_START
G1 F3000
G1 X92 Y92.671 E-.31648
G1 X92.736 Y92.671 E-.88352
;WIPE_END
G1 Z.6 F9000
G1 X126.981 Y96.964 Z.6
G1 Z.2
G1 E5 F2400
;TYPE:Inner wall
;WIDTH:0.367207
G1 F900
G1 X126.704 Y96.296 E.01911
G1 X126.036 Y96.019 E.01911
G1 X126.981 Y96.019 E.02497
G1 X126.981 Y96.924 E.02392
G1 E-3.5 F3600
;WIPE_START
G1 F900
G1 X126.704 Y96.296 E-1.02978
G1 X126.414 Y96.176 E-.47022
;WIPE_END
G1 Z.6 F9000
G1 X110.008 Y96.664 Z.6
G1 Z.2
G1 E5 F2400
;WIDTH:0.451842
G1 F900
G1 X109.837 Y96.386 E.01087
;WIDTH:0.45011
G1 X109.186 Y96.061 E.02417
G1 X110.694 Y96.061 E.05004
G1 X110.163 Y96.386 E.02066
;WIDTH:0.451842
G1 X110.028 Y96.629 E.00925
G1 E-3.5 F3600
;WIPE_START
G1 F900
G1 X109.837 Y96.386 E-.46282
G1 X109.219 Y96.077 E-1.03718
;WIPE_END
G1 Z.6 F9000
G1 X101.621 Y96.952 Z.6
G1 Z.2
G1 E5 F2400
;TYPE:Outer wall
;WIDTH:0.38292
G1 F900
G1 X101.181 Y96.928 E.01221
G1 X101.174 Y95.073 F9000
G1 F900
G1 X101.628 Y95.049 E.01259
G1 E-3.5 F3600
;WIPE_START
G1 F900
G1 X101.174 Y95.073 E-1.5
;WIPE_END
G1 Z.6 F9000
G1 X93.828 Y96.019 Z.6
G1 Z.2
G1 E5 F2400
;TYPE:Inner wall
;WIDTH:0.367207
G1 F900
G1 X93.296 Y96.296 E.01585
G1 X93.019 Y96.964 E.01911
G1 X93.019 Y96.019 E.02497
G1 X93.788 Y96.019 E.02032
G1 E-3.5 F3600
;WIPE_START
G1 F900
G1 X93.296 Y96.296 E-.84716
G1 X93.129 Y96.698 E-.65284
;WIPE_END
G1 Z.6 F9000
G1 X93.019 Y123.172 Z.6
G1 Z.2
G1 E5 F2400
G1 F900
G1 X93.296 Y123.704 E.01585
G1 X93.964 Y123.981 E.01911
G1 X93.019 Y123.981 E.02497
G1 X93.019 Y123.212 E.02032
M73 P2 R38
G1 E-3.5 F3600
;WIPE_START
G1 F900
G1 X93.296 Y123.704 E-.84716
G1 X93.698 Y123.871 E-.65284
;WIPE_END
G1 Z.6 F9000
G1 X101.174 Y123.073 Z.6
G1 Z.2
G1 E5 F2400
;TYPE:Outer wall
;WIDTH:0.38292
G1 F900
G1 X101.628 Y123.049 E.01259
G1 X101.621 Y124.952 F9000
G1 F900
G1 X101.181 Y124.928 E.01221
G1 E-3.5 F3600
;WIPE_START
G1 F900
G1 X101.621 Y124.952 E-1.5
;WIPE_END
G1 Z.6 F9000
G1 X109.306 Y123.939 Z.6
G1 Z.2
G1 E5 F2400
;TYPE:Inner wall
;WIDTH:0.45011
G1 F900
G1 X109.837 Y123.614 E.02066
G1 X109.99 Y123.335 E.01052
G1 X110.163 Y123.614 E.01088
G1 X110.814 Y123.939 E.02417
G1 X109.346 Y123.939 E.04871
G1 E-3.5 F3600
;WIPE_START
G1 F900
G1 X109.837 Y123.614 E-.88354
G1 X109.99 Y123.335 E-.47578
G1 X110.039 Y123.415 E-.14068
;WIPE_END
G1 Z.6 F9000
G1 X126.332 Y123.898 Z.6
G1 Z.2
G1 E5 F2400
;WIDTH:0.367207
G1 F900
G1 X126.704 Y123.704 E.01109
G1 X126.981 Y123.172 E.01585
G1 X126.981 Y123.981 E.02138
G1 X126.172 Y123.981 E.02138
G1 X126.296 Y123.916 E.00371
G1 E-3.5 F3600
;WIPE_START
G1 F900
G1 X126.704 Y123.704 E-.68946
G1 X126.953 Y123.225 E-.81054
;WIPE_END
G1 Z.6 F9000
G1 X103.063 Y123.7 Z.6
G1 Z.2
G1 E5 F2400
;WIDTH:0.64292
G1 F900
G1 X109.065 Y123.7 E.29344
G1 X109.207 Y123.585 E.00894
;WIDTH:0.59528
G1 X109.349 Y123.47 E.00823
;WIDTH:0.54764
G1 X109.491 Y123.354 E.00752
;WIDTH:0.548985
G1 X109.561 Y123.239 E.00554
;WIDTH:0.597971
G1 X109.63 Y123.124 E.00607
;WIDTH:0.646957
G1 X109.699 Y123.009 E.00661
G1 X109.7 Y122.943 E.00326
;WIDTH:0.64292
G1 X109.7 Y97.057 E1.26562
G1 X109.63 Y96.92 E.00752
;WIDTH:0.59528
G1 X109.561 Y96.783 E.00692
;WIDTH:0.54764
G1 X109.491 Y96.646 E.00632
G1 X109.309 Y96.53 E.00889
;WIDTH:0.59528
G1 X109.126 Y96.415 E.00973
;WIDTH:0.64292
G1 X108.943 Y96.3 E.01057
G1 X103.063 Y96.3 E.28746
G1 X103.087 Y96.205 E.00481
G1 X103.063 Y95.7 E.0247
G1 X108.943 Y95.7 E.28746
G1 X109.295 Y95.676 E.01727
;WIDTH:0.59528
G1 X109.648 Y95.652 E.0159
;WIDTH:0.54764
G1 X110 Y95.629 E.01452
G1 X110.352 Y95.652 E.01452
;WIDTH:0.59528
G1 X110.705 Y95.676 E.0159
;WIDTH:0.64292
G1 X111.057 Y95.7 E.01727
G1 X125.943 Y95.7 E.7278
G1 X126.235 Y95.676 E.01432
;WIDTH:0.59528
G1 X126.527 Y95.652 E.01318
;WIDTH:0.54764
G1 X126.819 Y95.629 E.01205
;WIDTH:0.499999
G1 X127.371 Y95.629 E.02059
G1 X127.371 Y96.181 E.02059
;WIDTH:0.54764
G1 X127.348 Y96.473 E.01205
;WIDTH:0.59528
G1 X127.324 Y96.765 E.01318
;WIDTH:0.64292
G1 X127.3 Y97.057 E.01432
G1 X127.3 Y123.164 E1.27641
G1 X127.324 Y123.382 E.01074
;WIDTH:0.59528
G1 X127.348 Y123.6 E.00989
;WIDTH:0.54764
G1 X127.371 Y123.819 E.00903
;WIDTH:0.499999
G1 X127.371 Y124.371 E.02059
G1 X126.819 Y124.371 E.02059
;WIDTH:0.54764
G1 X126.527 Y124.348 E.01205
;WIDTH:0.59528
G1 X126.235 Y124.324 E.01318
;WIDTH:0.64292
G1 X125.943 Y124.3 E.01432
G1 X111.057 Y124.3 E.7278
G1 X110.705 Y124.324 E.01727
;WIDTH:0.59528
G1 X110.352 Y124.348 E.0159
;WIDTH:0.54764
G1 X110 Y124.371 E.01452
G1 X109.648 Y124.348 E.01452
;WIDTH:0.59528
G1 X109.295 Y124.324 E.0159
;WIDTH:0.64292
G1 X108.943 Y124.3 E.01727
G1 X103.063 Y124.3 E.28746
G1 X103.087 Y124.205 E.00481
G1 X103.065 Y123.74 E.02274
G1 X102.323 Y123.337 F9000
;TYPE:Outer wall
;WIDTH:0.499999
G1 F900
G1 X102.094 Y123.15 E.01101
G1 X108.943 Y123.15 E.2551
G1 X109.109 Y123.067 E.0069
G1 X109.15 Y122.943 E.00488
G1 X109.15 Y97.057 E.96415
G1 X109.109 Y96.933 E.00488
G1 X108.943 Y96.85 E.0069
G1 X102.132 Y96.85 E.25367
G1 X102.277 Y96.722 E.00721
G1 X102.513 Y96.301 E.01798
G1 X102.537 Y95.795 E.01884
G1 X102.323 Y95.337 E.01884
G1 X102.094 Y95.15 E.01101
G1 X127.85 Y95.15 E.95931
G1 X127.85 Y124.85 E1.10621
G1 X102.132 Y124.85 E.95788
G1 X102.277 Y124.722 E.00721
M73 P2 R37
G1 X102.513 Y124.301 E.01798
G1 X102.537 Y123.795 E.01884
G1 X102.34 Y123.373 E.01735
G1 E-3.5 F3600
;WIPE_START
G1 F900
G1 X102.094 Y123.15 E-.4983
G1 X102.762 Y123.15 E-1.0017
;WIPE_END
G1 Z.6 F9000
G1 X126.251 Y123.56 Z.6
G1 Z.2
G1 E5 F2400
;TYPE:Inner wall
;WIDTH:0.59528
G1 F900
G1 X126.186 Y123.609 E.00366
;WIDTH:0.64292
G1 X126.064 Y123.7 E.0074
G1 X111.057 Y123.7 E.73375
G1 X110.874 Y123.585 E.01057
;WIDTH:0.59528
G1 X110.691 Y123.47 E.00973
;WIDTH:0.54764
G1 X110.509 Y123.354 E.00889
G1 X110.439 Y123.217 E.00632
;WIDTH:0.59528
G1 X110.37 Y123.08 E.00692
;WIDTH:0.64292
G1 X110.3 Y122.943 E.00752
G1 X110.3 Y97.057 E1.26562
G1 X110.37 Y96.92 E.00752
M73 P3 R37
;WIDTH:0.59528
G1 X110.439 Y96.783 E.00692
;WIDTH:0.54764
G1 X110.509 Y96.646 E.00632
G1 X110.651 Y96.53 E.00752
;WIDTH:0.59528
G1 X110.793 Y96.415 E.00823
;WIDTH:0.64292
G1 X110.935 Y96.3 E.00894
G1 X125.943 Y96.3 E.73379
G1 X126.105 Y96.391 E.00906
;WIDTH:0.59528
G1 X126.266 Y96.482 E.00834
;WIDTH:0.54764
G1 X126.428 Y96.572 E.00762
G1 X126.518 Y96.734 E.00762
;WIDTH:0.59528
G1 X126.609 Y96.895 E.00834
;WIDTH:0.64292
G1 X126.7 Y97.057 E.00906
G1 X126.7 Y122.943 E1.26562
;WIDTH:0.650929
G1 X126.693 Y123.074 E.00653
G1 X126.626 Y123.163 E.00547
;WIDTH:0.613197
G1 X126.56 Y123.251 E.00513
;WIDTH:0.575464
G1 X126.494 Y123.339 E.00479
;WIDTH:0.537732
G1 X126.428 Y123.428 E.00445
;WIDTH:0.54764
G1 X126.307 Y123.518 E.00622
;WIDTH:0.59528
G1 X126.283 Y123.536 E.00135
G1 X125.943 Y123.15 F9000
;TYPE:Outer wall
;WIDTH:0.499999
G1 F900
G1 X111.057 Y123.15 E.55444
G1 X110.891 Y123.067 E.0069
G1 X110.85 Y122.943 E.00488
G1 X110.85 Y97.057 E.96415
G1 X110.891 Y96.933 E.00488
G1 X111.057 Y96.85 E.0069
G1 X125.943 Y96.85 E.55444
G1 X126.089 Y96.911 E.0059
G1 X126.15 Y97.057 E.0059
G1 X126.15 Y122.943 E.96415
G1 X126.089 Y123.089 E.0059
G1 X125.98 Y123.135 E.00441
G1 E-3.5 F3600
;WIPE_START
G1 F900
G1 X124.98 Y123.136 E-1.5
;WIPE_END
G1 Z.6 F9000
G1 X99.937 Y96.3 Z.6
G1 Z.2
G1 E5 F2400
;TYPE:Inner wall
;WIDTH:0.64292
G1 F900
G1 X93.936 Y96.3 E.29341
G1 X93.814 Y96.391 E.0074
;WIDTH:0.59528
G1 X93.693 Y96.482 E.00681
;WIDTH:0.54764
G1 X93.572 Y96.572 E.00622
G1 X93.482 Y96.734 E.00762
;WIDTH:0.59528
G1 X93.391 Y96.895 E.00834
;WIDTH:0.64292
G1 X93.3 Y97.057 E.00906
G1 X93.3 Y123.064 E1.27156
G1 X93.391 Y123.186 E.0074
;WIDTH:0.59528
G1 X93.482 Y123.307 E.00681
;WIDTH:0.54764
G1 X93.572 Y123.428 E.00622
G1 X93.734 Y123.518 E.00762
;WIDTH:0.59528
G1 X93.895 Y123.609 E.00834
;WIDTH:0.64292
G1 X94.057 Y123.7 E.00906
G1 X99.937 Y123.7 E.28746
G1 X99.913 Y123.795 E.00481
G1 X99.937 Y124.3 E.0247
G1 X94.057 Y124.3 E.28746
G1 X93.765 Y124.324 E.01432
;WIDTH:0.59528
G1 X93.473 Y124.348 E.01318
;WIDTH:0.54764
G1 X93.181 Y124.371 E.01205
;WIDTH:0.499999
G1 X92.629 Y124.371 E.02059
G1 X92.629 Y123.819 E.02059
;WIDTH:0.54764
G1 X92.652 Y123.527 E.01205
;WIDTH:0.59528
G1 X92.676 Y123.235 E.01318
;WIDTH:0.64292
G1 X92.7 Y122.943 E.01432
G1 X92.7 Y97.057 E1.26562
G1 X92.676 Y96.765 E.01432
;WIDTH:0.59528
G1 X92.652 Y96.473 E.01318
;WIDTH:0.54764
G1 X92.629 Y96.181 E.01205
;WIDTH:0.499999
G1 X92.629 Y95.629 E.02059
G1 X93.181 Y95.629 E.02059
;WIDTH:0.54764
G1 X93.473 Y95.652 E.01205
;WIDTH:0.59528
G1 X93.765 Y95.676 E.01318
;WIDTH:0.64292
G1 X94.057 Y95.7 E.01432
G1 X99.937 Y95.7 E.28746
G1 X99.913 Y95.795 E.00481
G1 X99.935 Y96.26 E.02274
G1 X100.906 Y96.85 F9000
;TYPE:Outer wall
;WIDTH:0.499999
G1 F900
G1 X94.057 Y96.85 E.2551
G1 X93.911 Y96.911 E.0059
G1 X93.85 Y97.057 E.0059
G1 X93.85 Y122.943 E.96415
G1 X93.911 Y123.089 E.0059
G1 X94.057 Y123.15 E.0059
G1 X100.564 Y123.15 E.24234
G1 X100.84 Y123.117 E.01037
;WIDTH:0.450103
G1 X101.117 Y123.084 E.00924
G1 X100.929 Y123.174 E.00688
;WIDTH:0.499999
G1 X100.742 Y123.263 E.00772
G1 X100.487 Y123.699 E.01884
G1 X100.463 Y124.205 E.01884
G1 X100.677 Y124.663 E.01884
G1 X100.906 Y124.85 E.01101
G1 X92.15 Y124.85 E.32613
G1 X92.15 Y95.15 E1.10621
G1 X100.564 Y95.15 E.31338
G1 X100.767 Y95.124 E.00764
;WIDTH:0.460973
G1 X100.971 Y95.099 E.00699
;WIDTH:0.421947
G1 X101.174 Y95.073 E.00634
G1 X101.03 Y95.136 E.00486
;WIDTH:0.460973
G1 X100.886 Y95.2 E.00536
;WIDTH:0.499999
G1 X100.742 Y95.263 E.00586
G1 X100.487 Y95.699 E.01884
G1 X100.463 Y96.205 E.01884
G1 X100.677 Y96.663 E.01884
G1 X100.875 Y96.825 E.00952
; stop printing object Hinge00.stl id:720576387062527073 copy 0
M106 S255
;LAYER_CHANGE
;Z:0.32
;HEIGHT:0.12
;BEFORE_LAYER_CHANGE
;0.32
G92 E0

G1 E-3.5 F3600
;WIPE_START
G1 F900
G1 X99.875 Y96.828 E-1.5
;WIPE_END
;_SET_FAN_SPEED_CHANGING_LAYER
; printing object Hinge00.stl id:720576387062527073 copy 0
M204 S700
G1 Z.72 F9000
G1 X103.327 Y123.782 Z.72
G1 Z.32
G1 E5 F2400
M204 S500
;TYPE:Inner wall
;WIDTH:0.461505
G1 X108.914 Y123.782 E.11903
G1 X109.241 Y123.657 E.00746
;WIDTH:0.449999
G1 X109.574 Y123.372 E.00909
;WIDTH:0.451829
G1 X109.713 Y123.121 E.00598
;WIDTH:0.461505
G1 X109.782 Y122.766 E.00771
G1 X109.782 Y97.234 E.54395
G1 X109.712 Y96.879 E.00771
M73 P4 R37
;WIDTH:0.449999
G1 X109.574 Y96.628 E.00595
G1 X109.241 Y96.343 E.00909
;WIDTH:0.461505
G1 X108.766 Y96.218 E.01047
G1 X103.327 Y96.218 E.11587
G1 X103.354 Y96 E.00468
G1 X103.327 Y95.782 E.00468
G1 X109.383 Y95.776 E.12901
;WIDTH:0.449999
G1 X110.617 Y95.776 E.0256
;WIDTH:0.461505
G1 X127.224 Y95.774 E.3538
;WIDTH:0.449999
G1 X127.224 Y96.212 E.00908
;WIDTH:0.461505
G1 X127.218 Y122.766 E.56573
;WIDTH:0.470856
G1 X127.224 Y124.224 E.03173
;WIDTH:0.449999
G1 X126.788 Y124.224 E.00903
;WIDTH:0.461505
G1 X110.617 Y124.224 E.34453
;WIDTH:0.449999
G1 X109.383 Y124.224 E.0256
;WIDTH:0.461505
G1 X103.327 Y124.218 E.12901
G1 X103.354 Y124 E.00468
G1 X103.332 Y123.822 E.00382
M204 S700
G1 X102.769 Y123.419 F9000
M204 S500
;WIDTH:0.449999
G1 F2400
G1 X102.749 Y123.352 E.00144
G1 X108.766 Y123.352 E.12481
G1 X109.042 Y123.283 E.0059
G1 X109.235 Y123.118 E.00528
G1 X109.315 Y122.972 E.00345
G1 X109.352 Y122.766 E.00434
G1 X109.352 Y97.234 E.52959
G1 X109.315 Y97.028 E.00434
G1 X109.235 Y96.882 E.00345
G1 X109.042 Y96.717 E.00528
G1 X108.766 Y96.648 E.0059
G1 X102.749 Y96.648 E.12481
G1 X102.907 Y96.14 E.01103
G1 X102.907 Y95.86 E.00582
G1 X102.749 Y95.352 E.01103
G1 X127.648 Y95.352 E.51647
G1 X127.648 Y124.648 E.60767
G1 X102.749 Y124.648 E.51647
G1 X102.907 Y124.14 E.01103
G1 X102.907 Y123.86 E.00582
G1 X102.781 Y123.457 E.00875
M204 S700
G1 E-3.5 F3600
;WIPE_START
G1 F2400
G1 X102.749 Y123.352 E-.16443
G1 X103.639 Y123.352 E-1.33557
;WIPE_END
G1 Z.72 F9000
G1 X101.176 Y97.008 Z.72
G1 Z.32
G1 E5 F2400
M204 S500
;TYPE:Outer wall
;WIDTH:0.478628
G1 F1380
G1 X101.636 Y97.031 E.0102
M204 S700
G1 E-3.79774 F3600
;WIPE_START
G1 F1380
G1 X101.176 Y97.008 E-1.20226
;WIPE_END
G1 Z.72 F9000
G1 X99.671 Y96.2 Z.72
G1 Z.32
G1 E5 F2400
M204 S500
;TYPE:Inner wall
;WIDTH:0.461506
G1 X99.453 Y96.218 E.00466
G1 X94.078 Y96.218 E.11452
G1 X93.52 Y96.52 E.01351
G1 X93.218 Y97.234 E.01653
G1 X93.218 Y122.922 E.54729
G1 X93.52 Y123.48 E.01351
G1 X94.234 Y123.782 E.01653
G1 X99.653 Y123.782 E.11545
G1 X99.675 Y124.218 E.0093
G1 X92.776 Y124.226 E.14697
;WIDTH:0.449999
G1 X92.776 Y123.788 E.00908
;WIDTH:0.461505
G1 X92.774 Y95.776 E.59679
;WIDTH:0.449999
G1 X93.212 Y95.776 E.00908
;WIDTH:0.461505
G1 X99.675 Y95.782 E.1377
;WIDTH:0.461506
G1 X99.671 Y96.16 E.00806
M204 S700
G1 X100.26 Y96.648 F9000
M204 S500
;WIDTH:0.449999
G1 F2400
G1 X94.15 Y96.648 E.12673
G1 X93.82 Y96.82 E.00772
G1 X93.648 Y97.234 E.00931
G1 X93.648 Y122.85 E.53134
G1 X93.82 Y123.18 E.00772
G1 X94.234 Y123.352 E.00931
G1 X100.26 Y123.352 E.12498
G1 X100.168 Y123.527 E.0041
G1 X100.101 Y123.8 E.00582
G1 X100.101 Y124.2 E.00831
G1 X100.168 Y124.473 E.00582
G1 X100.26 Y124.648 E.0041
G1 X92.352 Y124.648 E.16402
G1 X92.352 Y95.352 E.60767
G1 X100.26 Y95.352 E.16402
G1 X100.168 Y95.527 E.0041
G1 X100.101 Y95.8 E.00582
G1 X100.101 Y96.2 E.00831
G1 X100.168 Y96.473 E.00582
G1 X100.241 Y96.612 E.00327
M204 S700
G1 E-3.5 F3600
;WIPE_START
G1 F2400
G1 X99.241 Y96.618 E-1.5
;WIPE_END
G1 Z.72 F9000
G1 X101.601 Y94.967 Z.72
G1 Z.32
G1 E5 F2400
M204 S500
;TYPE:Outer wall
;WIDTH:0.45453
G1 F1380
G1 X101.382 Y94.98 E.0046
;WIDTH:0.480396
G1 X101.164 Y94.993 E.00485
G1 X100.975 Y96.853 F9000
;WIDTH:0.478628
G1 F1440
G1 F1500
G1 X101.176 Y97.008 E.00562
G1 F1380
G1 X100.919 Y97.034 E.00572
;WIDTH:0.439314
G1 F1320
G1 X100.662 Y97.06 E.00522
;WIDTH:0.399999
G1 X94.234 Y97.06 E.11762
G1 F1140
G1 X94.111 Y97.111 E.00244
M106 S255
G1 X94.06 Y97.234 E.00244
G1 F1320
G1 X94.06 Y122.766 E.46718
G1 F1140
G1 X94.111 Y122.889 E.00244
M106 S255
G1 X94.234 Y122.94 E.00244
G1 F1320
G1 X100.662 Y122.94 E.11762
;WIDTH:0.440198
G1 X100.913 Y122.967 E.00512
;WIDTH:0.480396
G1 F1380
G1 X101.164 Y122.993 E.00561
G1 F1500
G1 X100.941 Y123.178 E.00644
;WIDTH:0.440198
G1 X100.719 Y123.364 E.00587
;WIDTH:0.399999
G1 X100.513 Y123.8 E.00882
G1 X100.533 Y124.281 E.00882
G1 X100.774 Y124.699 E.00882
;WIDTH:0.439315
