; HEADER_BLOCK_START
; generated by OrcaSlicer 2.3.2 on 2026-06-03 at 01:02:48
; total layer number: 84
; filament_density: 1.24
; filament_diameter: 1.75
; max_z_height: 20.12
; filament: 1
; HEADER_BLOCK_END

; THUMBNAIL_BLOCK_START

;
; THUMBNAIL_BLOCK_END

; THUMBNAIL_BLOCK_START

;
; THUMBNAIL_BLOCK_END

; external perimeters extrusion width = 0.40mm
; perimeters extrusion width = 0.45mm
; infill extrusion width = 0.45mm
; solid infill extrusion width = 0.40mm
; top infill extrusion width = 0.45mm
; support material extrusion width = 0.40mm
; first layer extrusion width = 0.50mm

; EXECUTABLE_BLOCK_START
M73 P0 R143
M201 X500 Y500 Z500 E5000
M203 X500 Y500 Z10 E60
M204 P500 R1000 T500
M205 X8.00 Y8.00 Z0.40 E5.00 ; sets the jerk limits, mm/sec
;TYPE:Custom
G90 ; use absolute coordinates
M83 ; extruder relative mode
M140 S60 ; set final bed temp
M104 S150 ; set temporary nozzle temp to prevent oozing during homing
G4 S10 ; allow partial nozzle warmup
G28 ; home all axis
G1 Z50 F240
G1 X2 Y10 F3000
M104 S220 ; set final nozzle temp
M190 S60 ; wait for bed temp to stabilize
M109 S220 ; wait for nozzle temp to stabilize
G1 Z0.28 F240
G92 E0
G1 Y140 E10 F1500 ; prime the nozzle
G1 X2.3 F5000
G92 E0
G1 Y10 E10 F1200 ; prime the nozzle
G92 E0
G90
G21
M83 ; use relative distances for extrusion
; filament start gcode
M106 S0
;LAYER_CHANGE
;Z:0.2
;HEIGHT:0.2
;BEFORE_LAYER_CHANGE
;0.2
G92 E0

G1 E-5 F3600
;_SET_FAN_SPEED_CHANGING_LAYER
M204 S500
G1 Z.6 F9000
G1 X80.971 Y83.379
G1 Z.6
G1 Z.2
G1 E5 F2400
;TYPE:Skirt
;WIDTH:0.5
G1 F3000
G1 X82.02 Y82.824 E.0442
G1 X122.243 Y73.952 E1.53417
G1 X123.808 Y73.783 E.05862
G1 X125.079 Y73.892 E.04753
G1 X126.187 Y74.194 E.04276
G1 X127.682 Y74.925 E.06197
G1 X138.83 Y83.212 E.51739
G1 X139.608 Y84.278 E.04917
G1 X139.729 Y85 E.02725
G1 X139.729 Y135 E1.86231
G1 X139.338 Y136.261 E.04917
G1 X138.097 Y137.147 E.05677
G1 X112.413 Y144.264 E.9927
G1 X111.219 Y144.384 E.04467
G1 X94.303 Y144.384 E.63009
G1 X92.838 Y144.216 E.05491
G1 X91.47 Y143.738 E.05396
G1 X74.219 Y132.743 E.76195
G1 X73.175 Y131.817 E.05198
G1 X72.362 Y130.746 E.05005
G1 X71.717 Y129.417 E.05503
G1 X71.388 Y128.159 E.04845
G1 X71.294 Y127.226 E.0349
G1 X71.388 Y125.803 E.05314
G1 X80.322 Y84.528 E1.57292
G1 X80.951 Y83.414 E.04768
; printing object Hinge1.stl id:2427 copy 0
G1 E-3.8 F3600
;WIPE_START
G1 F3000
G1 X81.827 Y82.93 E-1.2
;WIPE_END
G1 Z.6 F9000
G1 X78.796 Y122.358 Z.6
G1 Z.2
G1 E5 F2400
;TYPE:Support
G1 F900
G1 X79.213 Y122.4 E.01562
G1 X80.085 Y122.643 E.03372
G1 X80.912 Y123.065 E.03457
G1 X81.638 Y123.643 E.03458
G1 X82.05 Y124.132 E.02382
G1 X82.05 Y129.833 E.21232
G1 X81.641 Y130.319 E.02367
G1 X80.915 Y130.898 E.03458
G1 X80.088 Y131.32 E.03457
G1 X79.195 Y131.57 E.03456
G1 X78.269 Y131.638 E.03456
G1 X77.349 Y131.521 E.03456
G1 X76.47 Y131.224 E.03456
G1 X75.667 Y130.758 E.03457
G1 X74.973 Y130.142 E.03458
G1 X74.438 Y129.432 E.03311
G1 X74.214 Y129.012 E.01773
G1 X74.022 Y128.567 E.01802
G1 X73.893 Y128.14 E.01664
G1 X73.795 Y127.667 E.01798
G1 X73.751 Y127.222 E.01666
G1 X73.752 Y126.739 E.01798
G1 X73.795 Y126.295 E.01663
G1 X73.894 Y125.821 E.01803
G1 X74.023 Y125.395 E.01657
G1 X74.216 Y124.948 E.01812
G1 X74.424 Y124.559 E.01646
G1 X74.705 Y124.157 E.01825
G1 X74.983 Y123.819 E.01631
G1 X75.342 Y123.479 E.01842
G1 X75.677 Y123.205 E.01613
G1 X76.103 Y122.942 E.01862
G1 X76.479 Y122.741 E.01592
G1 X76.955 Y122.567 E.01885
G1 X77.358 Y122.445 E.01568
G1 X77.865 Y122.37 E.0191
G1 X78.277 Y122.329 E.01542
G1 X78.727 Y122.355 E.0168
G1 X74.449 Y124.947 F9000
G1 F900
G1 X74.449 Y128.519 E.13304
G1 X74.585 Y128.833 E.01275
G1 X74.786 Y129.21 E.0159
G1 X74.957 Y129.437 E.01061
G1 X74.957 Y124.514 E.18336
G1 X75.284 Y124.1 E.01965
G1 X75.465 Y123.929 E.00927
G1 X75.465 Y130.029 E.22717
G1 X75.91 Y130.423 E.02213
G1 X75.973 Y130.46 E.00273
G1 X75.973 Y123.506 E.25901
G1 X76.481 Y123.206 E.02195
G1 X76.481 Y130.754 E.28113
G1 X76.641 Y130.847 E.00689
G1 X76.989 Y130.965 E.01367
G1 X76.989 Y122.993 E.29693
G1 X77.497 Y122.84 E.01975
G1 X77.497 Y131.125 E.30858
G1 X78.004 Y131.19 E.01907
G1 X78.004 Y122.77 E.31362
G1 X78.286 Y122.742 E.01053
G1 X78.512 Y122.755 E.00845
G1 X78.512 Y131.208 E.31485
G1 X79.02 Y131.171 E.01897
G1 X79.02 Y122.794 E.312
G1 X79.137 Y122.805 E.00438
G1 X79.528 Y122.915 E.01512
G1 X79.528 Y131.05 E.30301
G1 X79.938 Y130.935 E.01585
G1 X80.036 Y130.885 E.0041
G1 X80.036 Y123.08 E.29071
G1 X80.544 Y123.339 E.02124
G1 X80.544 Y130.625 E.27138
G1 X80.691 Y130.55 E.00615
G1 X81.052 Y130.263 E.01717
G1 X81.052 Y123.702 E.24437
G1 X81.35 Y123.939 E.0142
G1 X81.56 Y124.188 E.01212
G1 X81.56 Y130.097 E.22008
G1 E-3.5 F3600
;WIPE_START
G1 F900
;WIPE_END
G1 E-1.5 F3600
G1 Z.6 F9000
G1 X90.701 Y136.336 Z.6
G1 Z.2
G1 E5 F2400
G1 F900
G1 X90.701 Y138.641 E.08588
G1 X90.97 Y139.411 E.03036
G1 X91.209 Y139.791 E.0167
G1 X91.209 Y135.861 E.14635
G1 X91.717 Y135.861 E.01892
G1 X91.717 Y140.419 E.16976
G1 X92.001 Y140.703 E.01495
G1 X92.225 Y140.844 E.00986
G1 X92.225 Y135.861 E.18557
G1 X92.733 Y135.861 E.01892
G1 X92.733 Y141.155 E.19717
G1 X93.24 Y141.333 E.02004
G1 X93.24 Y135.861 E.20379
G1 X93.748 Y135.861 E.01892
G1 X93.748 Y141.449 E.20812
G1 X94.256 Y141.506 E.01904
G1 X94.256 Y135.861 E.21025
G1 X94.764 Y135.861 E.01892
G1 X94.764 Y141.462 E.20862
G1 X95.142 Y141.42 E.01416
M73 P0 R142
G1 X95.272 Y141.374 E.00514
G1 X95.272 Y135.861 E.20533
G1 X95.78 Y135.861 E.01892
G1 X95.78 Y141.197 E.19872
G1 X95.927 Y141.145 E.00579
G1 X96.288 Y140.918 E.01588
G1 X96.288 Y135.861 E.18835
G1 X96.795 Y135.861 E.01892
G1 X96.795 Y140.538 E.17418
G1 X97.218 Y140.115 E.02228
G1 X97.303 Y139.98 E.00595
G1 X97.303 Y135.861 E.15339
G1 X97.455 Y135.861 E.00564
G1 X97.811 Y136.428 E.02495
G1 X97.811 Y139.172 E.10217
G1 X98.166 Y138.607 E.02485
G1 X98.319 Y138.881 E.01169
G1 X98.319 Y136.719 E.08049
G1 X98.798 Y135.861 E.0366
G1 X98.827 Y135.861 E.00109
G1 X98.827 Y139.791 E.14636
G1 X99.154 Y140.199 E.01947
G1 X99.335 Y140.38 E.00955
G1 X99.335 Y135.861 E.16831
G1 X99.843 Y135.861 E.01892
G1 X99.843 Y140.764 E.18261
G1 X100.082 Y140.929 E.01084
G1 X100.351 Y141.035 E.01075
G1 X100.351 Y135.861 E.1927
G1 X100.858 Y135.861 E.01892
G1 X100.858 Y141.229 E.19994
G1 X101.366 Y141.304 E.01912
G1 X101.366 Y135.861 E.20272
G1 X101.874 Y135.861 E.01892
G1 X101.874 Y141.324 E.20347
G1 X102.382 Y141.282 E.01898
G1 X102.382 Y135.861 E.2019
G1 X102.89 Y135.861 E.01892
G1 X102.89 Y141.133 E.19636
G1 X103.215 Y141.029 E.0127
G1 X103.398 Y140.919 E.00796
G1 X103.398 Y135.861 E.18837
G1 X103.906 Y135.861 E.01892
G1 X103.906 Y140.612 E.17696
G1 X104.413 Y140.122 E.02629
G1 X104.413 Y135.861 E.1587
G1 X104.69 Y135.861 E.01031
G1 X104.921 Y136.22 E.0159
G1 X104.921 Y139.76 E.13183
G1 X98.145 Y136.187 F9000
G1 F900
G1 X98.569 Y135.45 E.03167
G1 X104.914 Y135.45 E.23633
G1 X105.298 Y136.045 E.02638
G1 X105.606 Y136.907 E.03409
G1 X105.709 Y137.8 E.03347
G1 X105.605 Y138.699 E.03369
G1 X105.301 Y139.55 E.03369
G1 X104.818 Y140.299 E.03317
G1 X104.151 Y140.946 E.03463
G1 X103.386 Y141.406 E.03325
G1 X102.525 Y141.683 E.03369
G1 X101.623 Y141.758 E.03369
G1 X100.729 Y141.626 E.03368
G1 X99.887 Y141.295 E.03368
G1 X99.178 Y140.805 E.03211
G1 X98.85 Y140.477 E.01727
G1 X98.518 Y140.081 E.01924
G1 X98.145 Y139.413 E.0285
G1 X97.542 Y140.373 E.04222
G1 X96.889 Y141.027 E.03442
G1 X96.106 Y141.518 E.03442
G1 X95.234 Y141.823 E.03442
G1 X94.316 Y141.927 E.03442
G1 X93.397 Y141.823 E.03442
G1 X92.525 Y141.518 E.03442
G1 X91.742 Y141.027 E.03442
G1 X91.089 Y140.373 E.03442
G1 X90.597 Y139.591 E.03442
G1 X90.292 Y138.718 E.03442
G1 X90.189 Y137.8 E.03442
G1 X90.292 Y136.882 E.03442
G1 X90.597 Y136.009 E.03442
G1 X90.949 Y135.45 E.02461
G1 X97.682 Y135.45 E.25079
G1 X98.109 Y136.129 E.02986
G1 E-3.5 F3600
;WIPE_START
G1 F900
G1 X98.569 Y135.45 E-1.23055
G1 X98.749 Y135.45 E-.26945
;WIPE_END
G1 Z.6 F9000
G1 X107.969 Y139.968 Z.6
G1 Z.2
G1 E5 F2400
G1 F900
G1 X107.969 Y136.018 E.14711
G1 X108.067 Y135.861 E.00691
G1 X108.476 Y135.861 E.01524
G1 X108.476 Y140.288 E.16486
G1 X108.892 Y140.703 E.02187
G1 X108.984 Y140.761 E.00408
G1 X108.984 Y135.861 E.1825
G1 X109.492 Y135.861 E.01892
G1 X109.492 Y141.08 E.19438
G1 X109.596 Y141.145 E.00455
G1 X110 Y141.287 E.01596
G1 X110 Y135.861 E.20207
G1 X110.508 Y135.861 E.01892
G1 X110.508 Y141.434 E.20757
G1 X111.016 Y141.491 E.01904
G1 X111.016 Y135.861 E.2097
G1 X111.524 Y135.861 E.01892
G1 X111.524 Y141.477 E.20917
G1 X112.031 Y141.42 E.01904
G1 X112.031 Y135.861 E.20704
G1 X112.539 Y135.861 E.01892
G1 X112.539 Y141.243 E.20043
G1 X112.818 Y141.145 E.01098
G1 X113.047 Y141.001 E.0101
G1 X113.047 Y135.861 E.19143
G1 X113.555 Y135.861 E.01892
G1 X113.555 Y140.669 E.17908
G1 X114.063 Y140.161 E.02675
G1 X114.063 Y135.861 E.16016
G1 X114.346 Y135.861 E.01054
G1 X114.571 Y136.243 E.01651
G1 X114.571 Y139.767 E.13125
G1 X114.925 Y136.009 F9000
G1 F900
G1 X115.23 Y136.882 E.03442
G1 X115.333 Y137.8 E.03442
G1 X115.23 Y138.718 E.03442
G1 X114.925 Y139.591 E.03442
G1 X114.433 Y140.373 E.03442
G1 X113.78 Y141.027 E.03442
G1 X112.997 Y141.518 E.03442
G1 X112.125 Y141.823 E.03442
G1 X111.207 Y141.927 E.03442
G1 X110.288 Y141.823 E.03442
G1 X109.416 Y141.518 E.03442
G1 X108.633 Y141.027 E.03442
G1 X107.98 Y140.373 E.03442
G1 X107.488 Y139.591 E.03442
G1 X107.183 Y138.718 E.03442
G1 X107.08 Y137.8 E.03442
G1 X107.183 Y136.882 E.03442
G1 X107.488 Y136.009 E.03442
G1 X107.84 Y135.45 E.02461
G1 X114.573 Y135.45 E.25079
G1 X114.888 Y135.951 E.02205
G1 E-3.5 F3600
;WIPE_START
G1 F900
G1 X115.23 Y136.882 E-1.48662
G1 X115.231 Y136.891 E-.01338
;WIPE_END
G1 Z.6 F9000
G1 X127.775 Y82.848 Z.6
G1 Z.2
G1 E5 F2400
G1 F900
G1 X127.775 Y79.438 E.12702
G1 X127.719 Y79.253 E.00722
G1 X127.316 Y78.507 E.03156
G1 X127.267 Y78.449 E.00282
G1 X127.267 Y83.326 E.18163
G1 X126.76 Y83.92 E.02911
G1 X126.76 Y77.846 E.22621
G1 X126.252 Y77.44 E.02423
G1 X126.252 Y84.139 E.2495
G1 X125.744 Y84.139 E.01892
G1 X125.744 Y77.139 E.26072
G1 X125.358 Y76.94 E.01617
G1 X125.236 Y76.906 E.00471
G1 X125.236 Y84.139 E.26939
G1 X124.728 Y84.139 E.01892
G1 X124.728 Y76.763 E.27473
G1 X124.557 Y76.714 E.00662
G1 X124.22 Y76.681 E.01261
G1 X124.22 Y84.139 E.27776
G1 X123.712 Y84.139 E.01892
G1 X123.712 Y76.65 E.27891
G1 X123.205 Y76.702 E.01901
G1 X123.205 Y84.139 E.27698
G1 X122.697 Y84.139 E.01892
G1 X122.697 Y76.804 E.27318
G1 X122.189 Y76.976 E.01997
G1 X122.189 Y84.139 E.26677
G1 X121.681 Y84.139 E.01892
G1 X121.681 Y77.226 E.25748
G1 X121.319 Y77.453 E.0159
G1 X121.173 Y77.572 E.00704
G1 X121.173 Y84.139 E.24456
G1 X121.108 Y84.139 E.00244
G1 X120.665 Y83.741 E.02216
G1 X120.665 Y78.04 E.21234
G1 X120.422 Y78.337 E.01431
G1 X120.157 Y78.728 E.01759
G1 X120.157 Y83.054 E.16112
G1 X119.807 Y82.316 E.03043
G1 X119.649 Y81.686 E.0242
G1 X119.649 Y79.316 E.08825
G1 X124.083 Y76.258 F9000
G1 F900
G1 X123.689 Y76.237 E.01469
G1 X123.223 Y76.283 E.01746
G1 X122.766 Y76.353 E.01721
G1 X122.318 Y76.489 E.01744
G1 X121.884 Y76.651 E.01725
G1 X121.473 Y76.87 E.01736
G1 X121.078 Y77.118 E.01735
G1 X120.721 Y77.411 E.0172
G1 X120.382 Y77.737 E.01753
G1 X120.092 Y78.089 E.01698
G1 X119.822 Y78.482 E.01777
G1 X119.611 Y78.878 E.0167
G1 X119.423 Y79.325 E.01808
G1 X119.295 Y79.745 E.01635
G1 X119.199 Y80.231 E.01845
G1 X119.157 Y80.658 E.01595
G1 X119.162 Y81.164 E.01887
G1 X119.206 Y81.607 E.01656
G1 X119.418 Y82.456 E.03259
G1 X119.813 Y83.287 E.0343
G1 X120.364 Y84.025 E.03431
G1 X120.95 Y84.55 E.0293
G1 X126.632 Y84.55 E.21163
M73 P1 R142
G1 X127.023 Y84.244 E.01849
G1 X127.628 Y83.537 E.03467
G1 X128.08 Y82.723 E.03468
G1 X128.361 Y81.835 E.03468
G1 X128.459 Y80.91 E.03467
G1 X128.371 Y79.983 E.03466
G1 X128.1 Y79.093 E.03465
G1 X127.658 Y78.275 E.03464
G1 X127.062 Y77.562 E.03463
G1 X126.336 Y76.981 E.03463
G1 X125.509 Y76.556 E.03464
G1 X124.634 Y76.309 E.03388
G1 X124.152 Y76.261 E.01804
G1 E-3.5 F3600
;WIPE_START
G1 F900
G1 X123.689 Y76.237 E-.6944
G1 X123.223 Y76.283 E-.70323
G1 X123.155 Y76.293 E-.10237
;WIPE_END
G1 Z.6 F9000
G1 X136.314 Y133.814 Z.6
G1 Z.2
G1 E5 F2400
;TYPE:Inner wall
;WIDTH:0.499999
G1 F900
G1 X83.686 Y133.814 E1.96022
G1 X83.686 Y86.186 E1.77399
G1 X136.314 Y86.186 E1.96022
G1 X136.314 Y133.774 E1.7725
G1 X136.771 Y134.271 F9000
G1 F900
G1 X83.229 Y134.271 E1.99427
G1 X83.229 Y85.729 E1.80804
G1 X136.771 Y85.729 E1.99427
G1 X136.771 Y134.231 E1.80655
G1 X137.25 Y134.75 F9000
;TYPE:Outer wall
G1 F900
G1 X82.75 Y134.75 E2.02992
G1 X82.75 Y85.25 E1.84368
M73 P1 R141
G1 X137.25 Y85.25 E2.02992
G1 X137.25 Y134.71 E1.84219
G1 E-3.5 F3600
;WIPE_START
G1 F900
G1 X136.25 Y134.711 E-1.5
;WIPE_END
G1 Z.6 F9000
G1 X135.251 Y86.323 Z.6
G1 Z.2
G1 E5 F2400
;TYPE:Bottom surface
;WIDTH:0.501163
G1 F1200
G1 X135.972 Y87.043 E.03806
G1 X135.972 Y87.692 E.0242
G1 X134.808 Y86.528 E.06142
G1 X134.16 Y86.528 E.0242
G1 X135.972 Y88.34 E.09564
G1 X135.972 Y88.988 E.0242
G1 X133.512 Y86.528 E.12987
G1 X132.864 Y86.528 E.0242
G1 X135.972 Y89.636 E.16409
G1 X135.972 Y90.284 E.0242
G1 X132.216 Y86.528 E.19831
G1 X131.568 Y86.528 E.0242
G1 X135.972 Y90.932 E.23253
G1 X135.972 Y91.58 E.0242
G1 X130.92 Y86.528 E.26676
G1 X130.272 Y86.528 E.0242
G1 X135.972 Y92.228 E.30098
G1 X135.972 Y92.876 E.0242
G1 X129.624 Y86.528 E.3352
G1 X128.976 Y86.528 E.0242
G1 X135.972 Y93.524 E.36942
G1 X135.972 Y94.172 E.0242
G1 X128.328 Y86.528 E.40365
G1 X127.68 Y86.528 E.0242
G1 X135.972 Y94.82 E.43787
G1 X135.972 Y95.468 E.0242
G1 X127.032 Y86.528 E.47209
G1 X126.384 Y86.528 E.0242
G1 X135.972 Y96.116 E.50631
G1 X135.972 Y96.764 E.0242
G1 X125.736 Y86.528 E.54054
G1 X125.088 Y86.528 E.0242
G1 X135.972 Y97.412 E.57476
G1 X135.972 Y98.06 E.0242
G1 X124.44 Y86.528 E.60898
G1 X123.792 Y86.528 E.0242
G1 X135.972 Y98.708 E.64321
G1 X135.972 Y99.357 E.0242
G1 X123.143 Y86.528 E.67743
G1 X122.495 Y86.528 E.0242
G1 X135.972 Y100.005 E.71165
G1 X135.972 Y100.653 E.0242
G1 X121.847 Y86.528 E.74587
G1 X121.199 Y86.528 E.0242
G1 X135.972 Y101.301 E.7801
G1 X135.972 Y101.949 E.0242
G1 X120.551 Y86.528 E.81432
G1 X119.903 Y86.528 E.0242
G1 X135.972 Y102.597 E.84854
G1 X135.972 Y103.245 E.0242
G1 X119.255 Y86.528 E.88276
G1 X118.607 Y86.528 E.0242
G1 X135.972 Y103.893 E.91699
G1 X135.972 Y104.541 E.0242
G1 X117.959 Y86.528 E.95121
G1 X117.311 Y86.528 E.0242
G1 X135.972 Y105.189 E.98543
G1 X135.972 Y105.837 E.0242
G1 X116.663 Y86.528 E1.01965
G1 X116.015 Y86.528 E.0242
G1 X135.972 Y106.485 E1.05388
G1 X135.972 Y107.133 E.0242
G1 X115.367 Y86.528 E1.0881
G1 X114.719 Y86.528 E.0242
G1 X135.972 Y107.781 E1.12232
G1 X135.972 Y108.429 E.0242
G1 X114.071 Y86.528 E1.15654
G1 X113.423 Y86.528 E.0242
G1 X135.972 Y109.077 E1.19077
G1 X135.972 Y109.725 E.0242
G1 X112.775 Y86.528 E1.22499
G1 X112.127 Y86.528 E.0242
G1 X135.972 Y110.373 E1.25921
G1 X135.972 Y111.021 E.0242
G1 X111.479 Y86.528 E1.29343
G1 X110.83 Y86.528 E.0242
G1 X135.972 Y111.67 E1.32766
G1 X135.972 Y112.318 E.0242
G1 X110.182 Y86.528 E1.36188
G1 X109.534 Y86.528 E.0242
G1 X135.972 Y112.966 E1.3961
G1 X135.972 Y113.614 E.0242
G1 X108.886 Y86.528 E1.43032
G1 X108.238 Y86.528 E.0242
M73 P2 R141
G1 X135.972 Y114.262 E1.46455
G1 X135.972 Y114.91 E.0242
G1 X107.59 Y86.528 E1.49877
G1 X106.942 Y86.528 E.0242
G1 X135.972 Y115.558 E1.53299
G1 X135.972 Y116.206 E.0242
M73 P2 R140
G1 X106.294 Y86.528 E1.56721
G1 X105.646 Y86.528 E.0242
G1 X135.972 Y116.854 E1.60144
G1 X135.972 Y117.502 E.0242
G1 X104.998 Y86.528 E1.63566
G1 X104.35 Y86.528 E.0242
G1 X135.972 Y118.15 E1.66988
G1 X135.972 Y118.798 E.0242
G1 X103.702 Y86.528 E1.7041
G1 X103.054 Y86.528 E.0242
G1 X135.972 Y119.446 E1.73833
G1 X135.972 Y120.094 E.0242
G1 X102.406 Y86.528 E1.77255
G1 X101.758 Y86.528 E.0242
G1 X135.972 Y120.742 E1.80677
G1 X135.972 Y121.39 E.0242
G1 X101.11 Y86.528 E1.84099
G1 X100.462 Y86.528 E.0242
G1 X135.972 Y122.038 E1.87522
G1 X135.972 Y122.686 E.0242
G1 X99.814 Y86.528 E1.90944
G1 X99.166 Y86.528 E.0242
G1 X135.972 Y123.334 E1.94366
G1 X135.972 Y123.983 E.0242
G1 X98.517 Y86.528 E1.97788
G1 X97.869 Y86.528 E.0242
G1 X135.972 Y124.631 E2.01211
G1 X135.972 Y125.279 E.0242
G1 X97.221 Y86.528 E2.04633
G1 X96.573 Y86.528 E.0242
