; HEADER_BLOCK_START
; generated by OrcaSlicer 2.3.2 on 2026-06-05 at 09:53:51
; total layer number: 83
; filament_density: 1.24
; filament_diameter: 1.75
; max_z_height: 10.04
; filament: 1
; HEADER_BLOCK_END

; THUMBNAIL_BLOCK_START

;
; THUMBNAIL_BLOCK_END

; THUMBNAIL_BLOCK_START

;
; THUMBNAIL_BLOCK_END

; external perimeters extrusion width = 0.40mm
; perimeters extrusion width = 0.45mm
; infill extrusion width = 0.45mm
; solid infill extrusion width = 0.40mm
; top infill extrusion width = 0.40mm
; first layer extrusion width = 0.50mm

; EXECUTABLE_BLOCK_START
M73 P0 R79
M201 X500 Y500 Z500 E5000
M203 X500 Y500 Z10 E60
M204 P500 R1000 T500
M205 X8.00 Y8.00 Z0.40 E5.00 ; sets the jerk limits, mm/sec
;TYPE:Custom
G90 ; use absolute coordinates
M83 ; extruder relative mode
M140 S60 ; set final bed temp
M104 S150 ; set temporary nozzle temp to prevent oozing during homing
G4 S10 ; allow partial nozzle warmup
G28 ; home all axis
G1 Z50 F240
G1 X2 Y10 F3000
M104 S220 ; set final nozzle temp
M190 S60 ; wait for bed temp to stabilize
M109 S220 ; wait for nozzle temp to stabilize
G1 Z0.28 F240
G92 E0
G1 Y140 E10 F1500 ; prime the nozzle
G1 X2.3 F5000
G92 E0
G1 Y10 E10 F1200 ; prime the nozzle
G92 E0
G90
G21
M83 ; use relative distances for extrusion
; filament start gcode
M106 S0
;LAYER_CHANGE
;Z:0.2
;HEIGHT:0.2
;BEFORE_LAYER_CHANGE
;0.2
G92 E0

G1 E-5 F3600
;_SET_FAN_SPEED_CHANGING_LAYER
M204 S500
G1 Z.6 F9000
G1 X99.671 Y73.324
G1 Z.6
M73 P0 R78
G1 Z.2
G1 E5 F2400
;TYPE:Skirt
;WIDTH:0.5
G1 F3000
G1 X99.671 Y61.4 E.44413
G1 X100.062 Y60.139 E.04917
G1 X101.098 Y59.321 E.04917
G1 X101.9 Y59.171 E.03037
G1 X118.1 Y59.171 E.60339
G1 X119.361 Y59.562 E.04917
G1 X120.179 Y60.598 E.04917
G1 X120.329 Y61.4 E.03037
G1 X120.329 Y158.6 E3.62033
G1 X119.938 Y159.861 E.04917
G1 X118.902 Y160.679 E.04917
G1 X118.1 Y160.829 E.03037
G1 X101.9 Y160.829 E.60339
G1 X100.639 Y160.438 E.04917
G1 X99.821 Y159.402 E.04917
G1 X99.671 Y158.6 E.03037
G1 X99.671 Y73.364 E3.17471
; printing object Arm00.stl id:720576387062527073 copy 0
G1 E-3.8 F3600
;WIPE_START
G1 F3000
G1 X99.671 Y72.364 E-1.2
;WIPE_END
G1 Z.6 F9000
G1 X116.914 Y84.314 Z.6
G1 Z.2
G1 E5 F2400
;TYPE:Inner wall
;WIDTH:0.499999
G1 F900
G1 X103.086 Y84.314 E.51507
G1 X103.086 Y62.586 E.80931
G1 X116.914 Y62.586 E.51507
G1 X116.914 Y84.274 E.80782
M73 P1 R78
G1 E-3.5 F3600
;WIPE_START
G1 F900
G1 X115.914 Y84.277 E-1.5
;WIPE_END
G1 Z.6 F9000
G1 X102.636 Y85.011 Z.6
G1 Z.2
G1 E5 F2400
G1 F900
G1 X102.629 Y85.018 E.00041
G1 X102.629 Y62.129 E.85256
G1 X117.371 Y62.129 E.54912
G1 X117.371 Y85.018 E.85256
G1 X117.124 Y84.771 E.01301
G1 X102.876 Y84.771 E.53072
G1 X102.665 Y84.982 E.01111
G1 E-3.5 F3600
;WIPE_START
G1 F900
G1 X102.629 Y85.018 E-.07642
G1 X102.629 Y84.069 E-1.42358
;WIPE_END
G1 Z.6 F9000
G1 X116.871 Y130.271 Z.6
G1 Z.2
G1 E5 F2400
;WIDTH:0.585841
G1 F900
G1 X103.129 Y130.271 E.608
G1 X103.129 Y129.729 E.02402
G1 X116.871 Y129.729 E.608
G1 X116.871 Y130.231 E.02225
G1 E-3.5 F3600
;WIPE_START
G1 F900
G1 X115.871 Y130.234 E-1.5
;WIPE_END
G1 Z.6 F9000
G1 X102.629 Y129.021 Z.6
G1 Z.2
G1 E5 F2400
;WIDTH:0.499999
G1 F900
G1 X102.876 Y129.229 E.01201
G1 X117.124 Y129.229 E.53072
G1 X117.371 Y129.021 E.01201
G1 X117.371 Y131.1 E.07743
G1 X117.043 Y130.771 E.01731
G1 X102.957 Y130.771 E.52464
G1 X102.629 Y131.1 E.01731
G1 X102.629 Y129.061 E.07594
G1 E-3.5 F3600
;WIPE_START
G1 F900
G1 X102.876 Y129.229 E-.44763
G1 X103.577 Y129.229 E-1.05237
;WIPE_END
G1 Z.6 F9000
G1 X117.325 Y157.041 Z.6
G1 Z.2
G1 E5 F2400
;WIDTH:0.592932
G1 F900
G1 X117.325 Y157.825 E.03515
G1 X102.675 Y157.825 E.6566
G1 X102.675 Y157.041 E.03515
G1 X102.952 Y157.275 E.01626
G1 X117.043 Y157.275 E.63154
G1 X117.294 Y157.066 E.01464
G1 E-3.5 F3600
;WIPE_START
G1 F900
G1 X117.325 Y157.825 E-1.13898
G1 X117.084 Y157.825 E-.36102
;WIPE_END
G1 Z.6 F9000
G1 X117.043 Y131.25 Z.6
G1 Z.2
G1 E5 F2400
;TYPE:Outer wall
;WIDTH:0.549999
G1 F900
G1 X117.275 Y131.457 E.01285
G1 X117.275 Y156.543 E1.03656
;WIDTH:0.553841
G1 X117.273 Y156.583 E.00168
G1 X117.158 Y156.667 E.00592
;WIDTH:0.52692
G1 X117.043 Y156.75 E.00561
;WIDTH:0.499999
G1 X102.956 Y156.75 E.5247
;WIDTH:0.549999
G1 X102.725 Y156.582 E.01179
G1 X102.725 Y131.457 E1.03818
G1 X102.957 Y131.25 E.01285
;WIDTH:0.499999
G1 X117.003 Y131.25 E.52315
G1 E-3.5 F3600
;WIPE_START
G1 F900
G1 X117.275 Y131.457 E-.51288
G1 X117.275 Y132.115 E-.98712
;WIPE_END
G1 Z.6 F9000
G1 X102.876 Y85.25 Z.6
G1 Z.2
G1 E5 F2400
G1 F900
G1 X117.124 Y85.25 E.53072
;WIDTH:0.509234
G1 X117.336 Y85.457 E.01125
G1 X117.336 Y128.543 E1.63721
;WIDTH:0.512767
G1 X117.335 Y128.58 E.00141
G1 X117.124 Y128.75 E.01036
;WIDTH:0.499999
G1 X102.876 Y128.75 E.53072
;WIDTH:0.509235
G1 X102.664 Y128.579 E.01035
G1 X102.664 Y85.457 E1.63857
G1 X102.847 Y85.278 E.00973
G1 E-3.5 F3600
;WIPE_START
G1 F900
G1 X103.847 Y85.276 E-1.5
;WIPE_END
G1 Z.6 F9000
G1 X117.85 Y158.35 Z.6
G1 Z.2
G1 E5 F2400
;WIDTH:0.499999
G1 F900
G1 X102.15 Y158.35 E.58476
G1 X102.15 Y157.55 E.0298
;WIDTH:0.549999
G1 X102.175 Y156.543 E.04163
G1 X102.175 Y131.457 E1.03656
G1 X102.15 Y130.443 E.04192
;WIDTH:0.499999
G1 X102.15 Y129.476 E.03603
;WIDTH:0.509235
G1 X102.15 Y84.524 E1.70809
;WIDTH:0.499999
G1 X102.15 Y61.65 E.85199
G1 X117.85 Y61.65 E.58476
G1 X117.85 Y84.524 E.85199
;WIDTH:0.509234
G1 X117.85 Y129.476 E1.70808
;WIDTH:0.499999
G1 X117.85 Y130.443 E.03603
;WIDTH:0.549999
G1 X117.825 Y131.457 E.04192
G1 X117.825 Y156.697 E1.04292
G1 X117.85 Y157.55 E.03527
M73 P2 R78
;WIDTH:0.499999
G1 X117.85 Y158.31 E.02831
G1 E-3.5 F3600
;WIPE_START
G1 F900
G1 X116.85 Y158.313 E-1.5
;WIPE_END
G1 Z.6 F9000
G1 X115.848 Y62.723 Z.6
G1 Z.2
G1 E5 F2400
;TYPE:Bottom surface
;WIDTH:0.502545
G1 F1200
G1 X116.572 Y63.446 E.03833
G1 X116.572 Y64.096 E.02435
G1 X115.404 Y62.928 E.06187
G1 X114.754 Y62.928 E.02435
G1 X116.572 Y64.746 E.0963
G1 X116.572 Y65.396 E.02435
G1 X114.104 Y62.928 E.13073
G1 X113.454 Y62.928 E.02435
G1 X116.572 Y66.046 E.16515
G1 X116.572 Y66.696 E.02435
M73 P2 R77
G1 X112.804 Y62.928 E.19958
G1 X112.154 Y62.928 E.02435
G1 X116.572 Y67.346 E.23401
G1 X116.572 Y67.996 E.02435
G1 X111.504 Y62.928 E.26844
G1 X110.854 Y62.928 E.02435
G1 X116.572 Y68.646 E.30287
G1 X116.572 Y69.297 E.02435
G1 X110.203 Y62.928 E.3373
G1 X109.553 Y62.928 E.02435
G1 X116.572 Y69.947 E.37173
G1 X116.572 Y70.597 E.02435
G1 X108.903 Y62.928 E.40616
G1 X108.253 Y62.928 E.02435
G1 X116.572 Y71.247 E.44059
G1 X116.572 Y71.897 E.02435
G1 X107.603 Y62.928 E.47502
G1 X106.953 Y62.928 E.02435
G1 X116.572 Y72.547 E.50945
G1 X116.572 Y73.197 E.02435
G1 X106.303 Y62.928 E.54388
G1 X105.653 Y62.928 E.02435
G1 X116.572 Y73.847 E.57831
G1 X116.572 Y74.497 E.02435
G1 X105.003 Y62.928 E.61273
G1 X104.353 Y62.928 E.02435
G1 X116.572 Y75.147 E.64716
G1 X116.572 Y75.797 E.02435
G1 X103.703 Y62.928 E.68159
G1 X103.428 Y62.928 E.0103
G1 X103.428 Y63.303 E.01405
G1 X116.572 Y76.447 E.69616
G1 X116.572 Y77.097 E.02435
G1 X103.428 Y63.953 E.69616
G1 X103.428 Y64.603 E.02435
G1 X116.572 Y77.747 E.69616
G1 X116.572 Y78.397 E.02435
G1 X103.428 Y65.253 E.69616
G1 X103.428 Y65.903 E.02435
G1 X116.572 Y79.047 E.69616
G1 X116.572 Y79.697 E.02435
G1 X103.428 Y66.553 E.69616
G1 X103.428 Y67.203 E.02435
G1 X116.572 Y80.347 E.69616
G1 X116.572 Y80.997 E.02435
G1 X103.428 Y67.854 E.69616
G1 X103.428 Y68.504 E.02435
G1 X116.572 Y81.647 E.69616
G1 X116.572 Y82.297 E.02435
G1 X103.428 Y69.154 E.69616
G1 X103.428 Y69.804 E.02435
G1 X116.572 Y82.947 E.69616
G1 X116.572 Y83.597 E.02435
G1 X103.428 Y70.454 E.69616
G1 X103.428 Y71.104 E.02435
G1 X116.296 Y83.972 E.68159
G1 X115.646 Y83.972 E.02435
G1 X103.428 Y71.754 E.64716
G1 X103.428 Y72.404 E.02435
G1 X114.996 Y83.972 E.61273
G1 X114.346 Y83.972 E.02435
G1 X103.428 Y73.054 E.5783
G1 X103.428 Y73.704 E.02435
G1 X113.696 Y83.972 E.54387
G1 X113.046 Y83.972 E.02435
G1 X103.428 Y74.354 E.50944
G1 X103.428 Y75.004 E.02435
G1 X112.396 Y83.972 E.47501
G1 X111.746 Y83.972 E.02435
G1 X103.428 Y75.654 E.44058
G1 X103.428 Y76.304 E.02435
G1 X111.096 Y83.972 E.40615
G1 X110.446 Y83.972 E.02435
G1 X103.428 Y76.954 E.37172
G1 X103.428 Y77.604 E.02435
G1 X109.796 Y83.972 E.33729
G1 X109.146 Y83.972 E.02435
G1 X103.428 Y78.254 E.30286
G1 X103.428 Y78.904 E.02435
G1 X108.496 Y83.972 E.26844
G1 X107.846 Y83.972 E.02435
G1 X103.428 Y79.554 E.23401
G1 X103.428 Y80.204 E.02435
G1 X107.196 Y83.972 E.19958
G1 X106.546 Y83.972 E.02435
G1 X103.428 Y80.854 E.16515
G1 X103.428 Y81.504 E.02435
G1 X105.896 Y83.972 E.13072
G1 X105.246 Y83.972 E.02435
G1 X103.428 Y82.154 E.09629
G1 X103.428 Y82.804 E.02435
G1 X104.596 Y83.972 E.06186
G1 X103.946 Y83.972 E.02435
G1 X103.223 Y83.248 E.03833
; stop printing object Arm00.stl id:720576387062527073 copy 0
M106 S255
;LAYER_CHANGE
;Z:0.32
;HEIGHT:0.12
;BEFORE_LAYER_CHANGE
;0.32
G92 E0

G1 E-3.5 F3600
;WIPE_START
G1 F1200
G1 X103.93 Y83.955 E-1.5
;WIPE_END
;_SET_FAN_SPEED_CHANGING_LAYER
; printing object Arm00.stl id:720576387062527073 copy 0
M204 S700
G1 Z.72 F9000
G1 X117.625 Y156.631 Z.72
G1 Z.32
G1 E5 F2400
M204 S500
;TYPE:Inner wall
;WIDTH:0.494908
G1 X117.648 Y157.628 E.02287
;WIDTH:0.449999
G1 X117.648 Y158.148 E.01079
G1 X102.352 Y158.148 E.31727
G1 X102.352 Y157.628 E.01079
;WIDTH:0.494908
G1 X102.375 Y156.631 E.02287
G1 X102.92 Y157.11 E.01665
;WIDTH:0.449999
G1 X117.077 Y157.112 E.29364
;WIDTH:0.494908
G1 X117.595 Y156.657 E.01582
M204 S700
G1 E-3.5 F3600
;WIPE_START
G1 F2400
G1 X117.648 Y157.628 E-1.45762
G1 X117.648 Y157.656 E-.04238
;WIPE_END
G1 Z.72 F9000
G1 X102.872 Y157.628 Z.72
G1 Z.32
G1 E5 F2400
M204 S500
;WIDTH:0.641958
G1 X102.974 Y157.63 E.00307
;WIDTH:0.637258
G1 X117.026 Y157.63 E.42011
;WIDTH:0.64196
G1 X117.128 Y157.628 E.00307
M204 S700
G1 E-3.5 F3600
;WIPE_START
G1 F2400
G1 X117.026 Y157.63 E-.15288
G1 X116.128 Y157.63 E-1.34712
;WIPE_END
G1 Z.72 F9000
G1 X102.776 Y129.439 Z.72
G1 Z.32
G1 E5 F2400
M204 S500
;WIDTH:0.449999
G1 X102.893 Y129.536 E.00315
G1 X117.107 Y129.536 E.29484
G1 X117.224 Y129.439 E.00315
G1 X117.224 Y130.53 E.02263
G1 X117.026 Y130.464 E.00433
G1 X102.974 Y130.464 E.29146
G1 X102.776 Y130.53 E.00433
G1 X102.776 Y129.479 E.0218
M204 S700
G1 X102.334 Y128.624 F9000
M204 S500
G1 F2400
G1 X102.893 Y129.112 E.0154
G1 X117.107 Y129.112 E.29484
G1 X117.666 Y128.624 E.0154
G1 X117.648 Y130.87 E.04659
;WIDTH:0.485752
G1 X117.63 Y131.474 E.0136
G1 X117.378 Y131.005 E.01198
;WIDTH:0.449999
G1 X117.026 Y130.888 E.00769
G1 X102.974 Y130.888 E.29146
G1 X102.622 Y131.005 E.00769
;WIDTH:0.485752
G1 X102.37 Y131.474 E.01198
G1 X102.352 Y130.87 E.0136
;WIDTH:0.449999
G1 X102.334 Y128.664 E.04576
M204 S700
G1 E-3.5 F3600
;WIPE_START
G1 F2400
G1 X102.893 Y129.112 E-1.07467
G1 X103.176 Y129.112 E-.42533
;WIPE_END
G1 Z.72 F9000
G1 X117.13 Y131.335 Z.72
G1 Z.32
G1 E5 F2400
M204 S500
;TYPE:Outer wall
;WIDTH:0.399999
G1 F1500
G1 X117.2 Y131.474 E.00285
G1 X117.2 Y156.526 E.45839
G1 X117.041 Y156.7 E.00431
G1 X102.974 Y156.7 E.25739
G1 X102.8 Y156.554 E.00416
G1 X102.8 Y131.474 E.4589
G1 X102.87 Y131.335 E.00285
G1 X102.974 Y131.3 E.00202
G1 X117.026 Y131.3 E.25711
G1 X117.092 Y131.322 E.00128
M204 S700
G1 E-3.5 F3600
;WIPE_START
G1 F1500
G1 X117.2 Y131.474 E-.27944
G1 X117.2 Y132.288 E-1.22056
;WIPE_END
G1 Z.72 F9000
G1 X117.625 Y156.631 Z.72
G1 Z.32
G1 E5 F2400
M204 S500
;TYPE:Inner wall
;WIDTH:0.494908
G1 X117.63 Y156.526 E.00242
;WIDTH:0.485752
G1 X117.63 Y131.474 E.56342
M204 S700
G1 E-3.5 F3600
;WIPE_START
G1 F2400
G1 X117.63 Y132.474 E-1.5
;WIPE_END
G1 Z.72 F9000
G1 X102.37 Y131.474 Z.72
G1 Z.32
G1 E5 F2400
M204 S500
G1 X102.37 Y156.526 E.56342
;WIDTH:0.494908
G1 X102.375 Y156.631 E.00242
M73 P3 R77
M204 S700
G1 E-3.5 F3600
;WIPE_START
G1 F2400
G1 X102.37 Y156.526 E-.15794
G1 X102.37 Y155.631 E-1.34206
;WIPE_END
G1 Z.72 F9000
G1 X102.776 Y84.58 Z.72
G1 Z.32
G1 E5 F2400
M204 S500
;WIDTH:0.449999
G1 X102.776 Y62.276 E.46263
G1 X117.224 Y62.276 E.29967
G1 X117.224 Y84.58 E.46263
G1 X117.107 Y84.464 E.00341
G1 X102.893 Y84.464 E.29484
G1 X102.805 Y84.552 E.00258
M204 S700
G1 X102.687 Y85.102 F9000
M204 S500
G1 F2400
G1 X102.329 Y85.474 E.0107
G1 X102.352 Y84.347 E.02338
G1 X102.352 Y61.852 E.4666
G1 X117.648 Y61.852 E.31727
G1 X117.648 Y84.347 E.4666
G1 X117.671 Y85.474 E.02338
G1 X117.107 Y84.888 E.01687
G1 X102.893 Y84.888 E.29484
G1 X102.715 Y85.073 E.00533
G1 X102.893 Y85.3 F9000
;TYPE:Outer wall
;WIDTH:0.399999
G1 F1500
G1 X117.107 Y85.3 E.2601
G1 X117.282 Y85.474 E.00451
G1 X117.282 Y128.526 E.78775
G1 X117.107 Y128.7 E.00451
G1 X102.893 Y128.7 E.2601
G1 X102.718 Y128.526 E.00451
G1 X102.718 Y85.474 E.78775
G1 X102.864 Y85.328 E.00378
M204 S700
G1 E-3.5 F3600
;WIPE_START
G1 F1500
G1 X103.864 Y85.326 E-1.5
;WIPE_END
G1 Z.72 F9000
G1 X117.666 Y128.624 Z.72
G1 Z.32
G1 E5 F2400
M204 S500
;TYPE:Inner wall
;WIDTH:0.41276
G1 X117.671 Y128.526 E.00186
;WIDTH:0.404222
G1 X117.671 Y85.474 E.79664
M204 S700
G1 E-3.5 F3600
;WIPE_START
G1 F2400
G1 X117.671 Y86.474 E-1.5
;WIPE_END
G1 Z.72 F9000
G1 X102.329 Y85.474 Z.72
G1 Z.32
G1 E5 F2400
M204 S500
;WIDTH:0.404224
G1 X102.329 Y128.526 E.79664
;WIDTH:0.412762
G1 X102.334 Y128.624 E.00186
M73 P3 R76
M204 S700
G1 E-3.5 F3600
;WIPE_START
G1 F2400
G1 X102.329 Y128.526 E-.14728
G1 X102.329 Y127.624 E-1.35272
;WIPE_END
G1 Z.72 F9000
G1 X118.06 Y158.56 Z.72
G1 Z.32
G1 E5 F2400
M204 S500
;TYPE:Outer wall
;WIDTH:0.399999
G1 F1320
G1 X102.7 Y158.56 E.28105
G1 X101.94 Y158.56 E.01391
G1 X101.94 Y157.8 E.01391
G1 X101.94 Y61.44 E1.76318
G1 X118.06 Y61.44 E.29496
G1 X118.06 Y158.52 E1.77635
M204 S700
G1 E-3.5 F3600
;WIPE_START
G1 F1320
G1 X117.06 Y158.522 E-1.5
;WIPE_END
G1 Z.72 F9000
G1 X115.62 Y84.064 Z.72
G1 Z.32
G1 E5 F2400
M204 S500
;TYPE:Internal solid infill
G1 X116.824 Y84.064 E.02204
G1 X116.824 Y82.86 E.02204
G1 X115.648 Y84.036 E.03044
M204 S700
G1 X117.09 Y82.116 F9000
M204 S500
;WIDTH:0.401187
G1 F2400
G1 X115.045 Y84.162 E.0531
G1 X114.514 Y84.162 E.00975
G1 X116.922 Y81.754 E.06251
G1 X116.922 Y81.223 E.00975
G1 X113.983 Y84.162 E.07629
G1 X113.452 Y84.162 E.00975
G1 X116.922 Y80.692 E.09008
G1 X116.922 Y80.161 E.00975
G1 X112.921 Y84.162 E.10386
G1 X112.39 Y84.162 E.00975
G1 X116.922 Y79.63 E.11764
G1 X116.922 Y79.099 E.00975
G1 X111.859 Y84.162 E.13143
G1 X111.328 Y84.162 E.00975
G1 X116.922 Y78.568 E.14521
G1 X116.922 Y78.037 E.00975
G1 X110.797 Y84.162 E.15899
G1 X110.266 Y84.162 E.00975
G1 X116.922 Y77.506 E.17277
G1 X116.922 Y76.975 E.00975
G1 X109.735 Y84.162 E.18656
G1 X109.204 Y84.162 E.00975
G1 X116.922 Y76.444 E.20034
G1 X116.922 Y75.914 E.00975
G1 X108.674 Y84.162 E.21412
G1 X108.143 Y84.162 E.00975
G1 X116.922 Y75.383 E.22791
G1 X116.922 Y74.852 E.00975
G1 X107.612 Y84.162 E.24169
G1 X107.081 Y84.162 E.00975
G1 X116.922 Y74.321 E.25547
G1 X116.922 Y73.79 E.00975
G1 X106.55 Y84.162 E.26926
G1 X106.019 Y84.162 E.00975
G1 X116.922 Y73.259 E.28304
G1 X116.922 Y72.728 E.00975
G1 X105.488 Y84.162 E.29682
G1 X104.957 Y84.162 E.00975
G1 X116.922 Y72.197 E.3106
G1 X116.922 Y71.666 E.00975
G1 X104.426 Y84.162 E.32439
G1 X103.895 Y84.162 E.00975
G1 X116.922 Y71.135 E.33817
G1 X116.922 Y70.604 E.00975
G1 X103.364 Y84.162 E.35195
G1 X103.078 Y84.162 E.00525
G1 X103.078 Y83.917 E.0045
G1 X116.922 Y70.073 E.35938
G1 X116.922 Y69.542 E.00975
G1 X103.078 Y83.386 E.35938
G1 X103.078 Y82.855 E.00975
G1 X116.922 Y69.011 E.35938
G1 X116.922 Y68.48 E.00975
G1 X103.078 Y82.324 E.35938
G1 X103.078 Y81.793 E.00975
G1 X116.922 Y67.949 E.35938
G1 X116.922 Y67.418 E.00975
G1 X103.078 Y81.262 E.35938
G1 X103.078 Y80.731 E.00975
G1 X116.922 Y66.887 E.35938
G1 X116.922 Y66.356 E.00975
G1 X103.078 Y80.2 E.35938
G1 X103.078 Y79.669 E.00975
G1 X116.922 Y65.826 E.35938
G1 X116.922 Y65.295 E.00975
G1 X103.078 Y79.139 E.35938
G1 X103.078 Y78.608 E.00975
G1 X116.922 Y64.764 E.35938
G1 X116.922 Y64.233 E.00975
G1 X103.078 Y78.077 E.35938
G1 X103.078 Y77.546 E.00975
G1 X116.922 Y63.702 E.35938
G1 X116.922 Y63.171 E.00975
G1 X103.078 Y77.015 E.35938
G1 X103.078 Y76.484 E.00975
G1 X116.922 Y62.64 E.35938
G1 X116.922 Y62.578 E.00114
G1 X116.453 Y62.578 E.00861
G1 X103.078 Y75.953 E.3472
G1 X103.078 Y75.422 E.00975
G1 X115.922 Y62.578 E.33342
G1 X115.391 Y62.578 E.00975
