; HEADER_BLOCK_START
; generated by OrcaSlicer 2.3.2 on 2026-06-05 at 09:33:08
; total layer number: 83
; filament_density: 1.24
; filament_diameter: 1.75
; max_z_height: 10.04
; filament: 1
; HEADER_BLOCK_END

; THUMBNAIL_BLOCK_START

;
; THUMBNAIL_BLOCK_END

; THUMBNAIL_BLOCK_START

;
; THUMBNAIL_BLOCK_END

; external perimeters extrusion width = 0.40mm
; perimeters extrusion width = 0.45mm
; infill extrusion width = 0.45mm
; solid infill extrusion width = 0.40mm
; top infill extrusion width = 0.40mm
; first layer extrusion width = 0.50mm

; EXECUTABLE_BLOCK_START
M73 P0 R61
M201 X500 Y500 Z500 E5000
M203 X500 Y500 Z10 E60
M204 P500 R1000 T500
M205 X8.00 Y8.00 Z0.40 E5.00 ; sets the jerk limits, mm/sec
;TYPE:Custom
G90 ; use absolute coordinates
M83 ; extruder relative mode
M140 S60 ; set final bed temp
M104 S150 ; set temporary nozzle temp to prevent oozing during homing
G4 S10 ; allow partial nozzle warmup
G28 ; home all axis
G1 Z50 F240
G1 X2 Y10 F3000
M104 S220 ; set final nozzle temp
M190 S60 ; wait for bed temp to stabilize
M109 S220 ; wait for nozzle temp to stabilize
G1 Z0.28 F240
G92 E0
G1 Y140 E10 F1500 ; prime the nozzle
M73 P0 R60
G1 X2.3 F5000
G92 E0
G1 Y10 E10 F1200 ; prime the nozzle
G92 E0
G90
G21
M83 ; use relative distances for extrusion
; filament start gcode
M106 S0
;LAYER_CHANGE
;Z:0.2
;HEIGHT:0.2
;BEFORE_LAYER_CHANGE
;0.2
G92 E0

G1 E-5 F3600
M73 P1 R60
;_SET_FAN_SPEED_CHANGING_LAYER
M204 S500
G1 Z.6 F9000
G1 X100.671 Y73.459
G1 Z.6
G1 Z.2
G1 E5 F2400
;TYPE:Skirt
;WIDTH:0.5
G1 F3000
G1 X100.671 Y61.5 E.44541
G1 X101.324 Y59.924 E.06353
G1 X101.424 Y59.824 E.00527
G1 X103 Y59.171 E.06353
G1 X117 Y59.171 E.52145
G1 X118.576 Y59.824 E.06353
G1 X118.676 Y59.924 E.00527
G1 X119.329 Y61.5 E.06353
G1 X119.329 Y158.5 E3.61288
G1 X118.676 Y160.076 E.06353
G1 X118.576 Y160.176 E.00527
G1 X117 Y160.829 E.06353
G1 X103 Y160.829 E.52145
G1 X101.424 Y160.176 E.06353
G1 X101.324 Y160.076 E.00527
G1 X100.671 Y158.5 E.06353
G1 X100.671 Y73.499 E3.16598
; printing object Arm00.stl id:720576387062527073 copy 0
G1 E-3.8 F3600
;WIPE_START
G1 F3000
G1 X100.671 Y72.499 E-1.2
;WIPE_END
G1 Z.6 F9000
G1 X115.914 Y83.414 Z.6
G1 Z.2
G1 E5 F2400
;TYPE:Inner wall
;WIDTH:0.499999
G1 F900
G1 X104.086 Y83.414 E.44058
G1 X104.086 Y62.586 E.77579
G1 X115.914 Y62.586 E.44058
G1 X115.914 Y83.374 E.7743
G1 X116.371 Y83.871 F9000
G1 F900
G1 X103.629 Y83.871 E.47462
G1 X103.629 Y62.129 E.80984
G1 X116.371 Y62.129 E.47462
G1 X116.371 Y83.831 E.80835
G1 X116.85 Y84.35 F9000
;TYPE:Outer wall
G1 F900
G1 X103.15 Y84.35 E.51027
G1 X103.15 Y61.65 E.84549
G1 X116.85 Y61.65 E.51027
G1 X116.85 Y84.31 E.844
G1 E-3.5 F3600
;WIPE_START
G1 F900
G1 X115.85 Y84.313 E-1.5
;WIPE_END
G1 Z.6 F9000
G1 X103.2 Y129.7 Z.6
G1 Z.2
G1 E5 F2400
;WIDTH:0.6
G1 F900
G1 X116.8 Y129.7 E.61737
G1 X116.8 Y130.3 E.02724
G1 X103.2 Y130.3 E.61737
G1 X103.2 Y129.74 E.02542
G1 E-3.5 F3600
;WIPE_START
G1 F900
G1 X104.2 Y129.737 E-1.5
;WIPE_END
G1 Z.6 F9000
G1 X103.2 Y157.7 Z.6
G1 Z.2
G1 E5 F2400
;WIDTH:0.599999
G1 F900
G1 X116.8 Y157.7 E.61737
G1 X116.8 Y158.3 E.02724
G1 X103.2 Y158.3 E.61737
G1 X103.2 Y157.74 E.02542
G1 E-3.5 F3600
;WIPE_START
G1 F900
G1 X104.2 Y157.737 E-1.5
;WIPE_END
G1 Z.6 F9000
G1 X114.837 Y62.723 Z.6
G1 Z.2
G1 E5 F2400
;TYPE:Bottom surface
;WIDTH:0.507596
G1 F1200
G1 X115.572 Y63.457 E.03933
G1 X115.572 Y64.114 E.02488
G1 X114.386 Y62.928 E.0635
G1 X113.729 Y62.928 E.02488
G1 X115.572 Y64.771 E.09869
G1 X115.572 Y65.429 E.02488
G1 X113.071 Y62.928 E.13388
G1 X112.414 Y62.928 E.02488
G1 X115.572 Y66.086 E.16907
G1 X115.572 Y66.743 E.02488
G1 X111.757 Y62.928 E.20426
G1 X111.1 Y62.928 E.02488
G1 X115.572 Y67.4 E.23945
G1 X115.572 Y68.057 E.02488
G1 X110.443 Y62.928 E.27464
G1 X109.786 Y62.928 E.02488
G1 X115.572 Y68.714 E.30983
G1 X115.572 Y69.372 E.02488
G1 X109.128 Y62.928 E.34502
G1 X108.471 Y62.928 E.02488
G1 X115.572 Y70.029 E.38021
G1 X115.572 Y70.686 E.02488
G1 X107.814 Y62.928 E.4154
G1 X107.157 Y62.928 E.02488
G1 X115.572 Y71.343 E.45059
G1 X115.572 Y72 E.02488
G1 X106.5 Y62.928 E.48578
G1 X105.843 Y62.928 E.02488
G1 X115.572 Y72.657 E.52097
G1 X115.572 Y73.314 E.02488
G1 X105.186 Y62.928 E.55616
G1 X104.528 Y62.928 E.02488
G1 X115.572 Y73.972 E.59135
G1 X115.572 Y74.629 E.02488
M73 P2 R60
G1 X104.428 Y63.486 E.59671
G1 X104.428 Y64.143 E.02488
G1 X115.572 Y75.286 E.59671
G1 X115.572 Y75.943 E.02488
G1 X104.428 Y64.8 E.59671
G1 X104.428 Y65.457 E.02488
G1 X115.572 Y76.6 E.59671
G1 X115.572 Y77.257 E.02488
G1 X104.428 Y66.114 E.59671
G1 X104.428 Y66.771 E.02488
G1 X115.572 Y77.914 E.59671
G1 X115.572 Y78.572 E.02488
M73 P2 R59
G1 X104.428 Y67.428 E.59671
G1 X104.428 Y68.086 E.02488
G1 X115.572 Y79.229 E.59671
G1 X115.572 Y79.886 E.02488
G1 X104.428 Y68.743 E.59671
G1 X104.428 Y69.4 E.02488
G1 X115.572 Y80.543 E.59671
G1 X115.572 Y81.2 E.02488
G1 X104.428 Y70.057 E.59671
G1 X104.428 Y70.714 E.02488
G1 X115.572 Y81.857 E.59671
G1 X115.572 Y82.515 E.02488
G1 X104.428 Y71.371 E.59671
G1 X104.428 Y72.029 E.02488
G1 X115.471 Y83.072 E.59135
G1 X114.814 Y83.072 E.02488
G1 X104.428 Y72.686 E.55616
G1 X104.428 Y73.343 E.02488
G1 X114.157 Y83.072 E.52097
G1 X113.5 Y83.072 E.02488
G1 X104.428 Y74 E.48578
G1 X104.428 Y74.657 E.02488
G1 X112.843 Y83.072 E.45059
G1 X112.186 Y83.072 E.02488
G1 X104.428 Y75.314 E.4154
G1 X104.428 Y75.971 E.02488
G1 X111.529 Y83.072 E.38021
G1 X110.871 Y83.072 E.02488
G1 X104.428 Y76.629 E.34502
G1 X104.428 Y77.286 E.02488
G1 X110.214 Y83.072 E.30983
G1 X109.557 Y83.072 E.02488
G1 X104.428 Y77.943 E.27464
G1 X104.428 Y78.6 E.02488
G1 X108.9 Y83.072 E.23945
G1 X108.243 Y83.072 E.02488
G1 X104.428 Y79.257 E.20426
G1 X104.428 Y79.914 E.02488
G1 X107.586 Y83.072 E.16907
G1 X106.929 Y83.072 E.02488
G1 X104.428 Y80.572 E.13388
G1 X104.428 Y81.229 E.02488
G1 X106.271 Y83.072 E.09869
G1 X105.614 Y83.072 E.02488
G1 X104.428 Y81.886 E.0635
G1 X104.428 Y82.543 E.02488
G1 X105.163 Y83.277 E.03932
; stop printing object Arm00.stl id:720576387062527073 copy 0
M106 S255
;LAYER_CHANGE
;Z:0.32
;HEIGHT:0.12
;BEFORE_LAYER_CHANGE
;0.32
G92 E0

G1 E-3.5 F3600
;WIPE_START
G1 F1200
G1 X104.456 Y82.57 E-1.5
;WIPE_END
;_SET_FAN_SPEED_CHANGING_LAYER
; printing object Arm00.stl id:720576387062527073 copy 0
M204 S700
G1 Z.72 F9000
G1 X110 Y83.724 Z.72
G1 Z.32
G1 E5 F2400
M204 S500
;TYPE:Inner wall
;WIDTH:0.449999
G1 X103.776 Y83.724 E.12909
G1 X103.776 Y62.276 E.44487
G1 X116.224 Y62.276 E.25819
G1 X116.224 Y83.724 E.44487
G1 X110.04 Y83.724 E.12826
M204 S700
G1 X110 Y84.148 F9000
M204 S500
G1 F2400
G1 X103.352 Y84.148 E.13789
G1 X103.352 Y61.852 E.46247
G1 X116.648 Y61.852 E.27579
G1 X116.648 Y84.148 E.46247
G1 X110.04 Y84.148 E.13706
G1 X110 Y84.56 F9000
;TYPE:Outer wall
;WIDTH:0.399999
G1 F1200
G1 X106.022 Y84.6 E.07279
G1 X102.893 Y84.631 E.05726
;WIDTH:0.377905
G1 F960
G1 X102.829 Y84.734 E.00209
G1 X102.869 Y84.607 E.00229
;WIDTH:0.399999
G1 F1080
G1 X102.9 Y81.478 E.05726
M106 S255
G1 F1200
G1 X102.94 Y77.5 E.07279
G1 F1320
G1 X102.94 Y61.583 E.29125
G1 X103.083 Y61.44 E.0037
G1 X116.917 Y61.44 E.25313
G1 X117.06 Y61.583 E.0037
G1 X117.06 Y77.5 E.29125
G1 F1200
G1 X117.1 Y81.478 E.07279
G1 F1080
G1 X117.131 Y84.607 E.05726
;WIDTH:0.377905
G1 F960
G1 X117.171 Y84.734 E.00229
G1 X117.107 Y84.631 E.00209
;WIDTH:0.399999
G1 F1200
G1 X113.978 Y84.6 E.05726
M106 S255
G1 X110.04 Y84.56 E.07206
M204 S700
G1 E-3.5 F3600
;WIPE_START
G1 F1200
G1 X109.04 Y84.57 E-1.5
;WIPE_END
G1 Z.72 F9000
G1 X117.17 Y129.277 Z.72
G1 Z.32
G1 E5 F2400
M204 S500
;WIDTH:0.365752
G1 F960
G1 X117.17 Y128.475 E.01333
G1 X117.171 Y85.537 E.71378
G1 X117.171 Y84.734 E.01335
M204 S700
G1 E-3.5 F3600
;WIPE_START
G1 F960
G1 X117.171 Y85.734 E-1.5
;WIPE_END
G1 Z.72 F9000
G1 X117.129 Y157.284 Z.72
G1 Z.32
G1 E5 F2400
M204 S500
G1 F1080
G1 X117.13 Y130.734 E.44135
M204 S700
G1 E-3.5 F3600
;WIPE_START
G1 F1080
G1 X117.13 Y131.734 E-1.5
;WIPE_END
G1 Z.72 F9000
G1 X102.87 Y130.734 Z.72
G1 Z.32
G1 E5 F2400
M204 S500
G1 F1080
G1 X102.871 Y157.284 E.44135
M204 S700
G1 E-3.5 F3600
;WIPE_START
G1 F1080
G1 X102.871 Y156.284 E-1.5
;WIPE_END
G1 Z.72 F9000
G1 X102.829 Y84.734 Z.72
G1 Z.32
M73 P3 R59
G1 E5 F2400
M204 S500
G1 F960
G1 X102.829 Y85.537 E.01335
G1 X102.83 Y128.475 E.71378
G1 X102.83 Y129.277 E.01333
G1 X102.87 Y130.734 F9000
;WIDTH:0.385709
G1 F1080
M106 S255
G1 X102.911 Y130.526 E.00373
;WIDTH:0.399999
G1 F1260
G1 X102.94 Y130 E.00964
G1 X102.9 Y129.738 E.00485
G1 F960
G1 X102.83 Y129.277 E.00853
;WIDTH:0.377047
G1 X102.893 Y129.366 E.00187
;WIDTH:0.399999
G1 F1200
G1 X103.171 Y129.4 E.00512
M106 S255
G1 X103.5 Y129.44 E.00606
G1 F1320
G1 X104.26 Y129.44 E.01391
G1 X115.74 Y129.44 E.21006
G1 X116.5 Y129.44 E.01391
G1 F1200
G1 X116.829 Y129.4 E.00606
G1 X117.107 Y129.366 E.00512
;WIDTH:0.377047
G1 F960
G1 X117.17 Y129.277 E.00187
G1 X117.134 Y129.393 E.00209
;WIDTH:0.399999
G1 F1080
G1 X117.1 Y129.671 E.00512
G1 F1200
G1 X117.06 Y130 E.00606
G1 X117.1 Y130.42 E.00772
G1 F1080
G1 X117.13 Y130.734 E.00577
;WIDTH:0.385709
M106 S255
G1 X117.026 Y130.589 E.00314
;WIDTH:0.399999
G1 F1260
G1 X116.5 Y130.56 E.00964
G1 X103.5 Y130.56 E.23787
G1 X102.974 Y130.589 E.00964
;WIDTH:0.385709
G1 F1200
G1 X102.893 Y130.702 E.00245
M204 S700
G1 X103.5 Y130 F9000
M204 S500
;TYPE:Inner wall
;WIDTH:0.745752
G1 F2400
M106 S255
G1 X116.5 Y130 E.45763
M204 S700
G1 E-3.5 F3600
;WIPE_START
G1 F2400
G1 X115.5 Y130 E-1.5
;WIPE_END
G1 Z.72 F9000
G1 X117.06 Y158.417 Z.72
G1 Z.32
G1 E5 F2400
M204 S500
;TYPE:Outer wall
;WIDTH:0.399999
G1 F1320
G1 X116.917 Y158.56 E.0037
G1 X103.083 Y158.56 E.25313
G1 X102.94 Y158.417 E.0037
G1 X102.94 Y158 E.00763
G1 F1200
G1 X102.9 Y157.586 E.00761
G1 X102.871 Y157.284 E.00555
;WIDTH:0.3843
G1 F1080
M106 S255
G1 X102.974 Y157.408 E.00283
;WIDTH:0.399999
G1 F1260
G1 X103.5 Y157.44 E.00964
G1 X116.5 Y157.44 E.23787
G1 X117.026 Y157.408 E.00964
;WIDTH:0.3843
G1 F1080
G1 X117.129 Y157.284 E.00283
M106 S255
G1 X117.092 Y157.474 E.00339
;WIDTH:0.399999
G1 F1200
G1 X117.061 Y158.377 E.01653
M204 S700
G1 X116.5 Y158 F9000
M204 S500
;TYPE:Inner wall
;WIDTH:0.745752
G1 F2400
G1 X103.5 Y158 E.45763
M204 S700
G1 E-3.5 F3600
;WIPE_START
G1 F2400
G1 X104.5 Y158 E-1.5
;WIPE_END
G1 Z.72 F9000
G1 X114.88 Y83.255 Z.72
G1 Z.32
G1 E5 F2400
M204 S500
;TYPE:Internal solid infill
;WIDTH:0.538287
G1 X115.755 Y83.255 E.02193
G1 X115.755 Y82.38 E.02193
G1 X114.909 Y83.227 E.03001
M204 S700
G1 X116.09 Y81.47 F9000
M204 S500
;WIDTH:0.401289
G1 F2400
G1 X114.138 Y83.422 E.05068
G1 X113.607 Y83.422 E.00975
G1 X115.922 Y81.107 E.0601
G1 X115.922 Y80.576 E.00975
G1 X113.076 Y83.422 E.07389
G1 X112.545 Y83.422 E.00975
G1 X115.922 Y80.045 E.08768
G1 X115.922 Y79.514 E.00975
G1 X112.014 Y83.422 E.10147
G1 X111.483 Y83.422 E.00975
G1 X115.922 Y78.983 E.11526
G1 X115.922 Y78.452 E.00975
G1 X110.952 Y83.422 E.12905
G1 X110.421 Y83.422 E.00975
G1 X115.922 Y77.921 E.14284
G1 X115.922 Y77.39 E.00975
G1 X109.89 Y83.422 E.15663
G1 X109.359 Y83.422 E.00975
G1 X115.922 Y76.859 E.17042
G1 X115.922 Y76.328 E.00975
G1 X108.828 Y83.422 E.18421
G1 X108.296 Y83.422 E.00975
G1 X115.922 Y75.796 E.198
G1 X115.922 Y75.265 E.00975
G1 X107.765 Y83.422 E.2118
G1 X107.234 Y83.422 E.00975
G1 X115.922 Y74.734 E.22559
G1 X115.922 Y74.203 E.00975
G1 X106.703 Y83.422 E.23938
G1 X106.172 Y83.422 E.00975
G1 X115.922 Y73.672 E.25317
G1 X115.922 Y73.141 E.00975
G1 X105.641 Y83.422 E.26696
G1 X105.11 Y83.422 E.00975
G1 X115.922 Y72.61 E.28075
G1 X115.922 Y72.079 E.00975
G1 X104.579 Y83.422 E.29454
G1 X104.078 Y83.422 E.0092
G1 X104.078 Y83.392 E.00056
G1 X115.922 Y71.548 E.30754
G1 X115.922 Y71.017 E.00975
G1 X104.078 Y82.861 E.30754
G1 X104.078 Y82.33 E.00975
G1 X115.922 Y70.486 E.30754
G1 X115.922 Y69.955 E.00975
G1 X104.078 Y81.798 E.30754
G1 X104.078 Y81.267 E.00975
G1 X115.922 Y69.423 E.30754
G1 X115.922 Y68.892 E.00975
G1 X104.078 Y80.736 E.30754
G1 X104.078 Y80.205 E.00975
G1 X115.922 Y68.361 E.30754
G1 X115.922 Y67.83 E.00975
G1 X104.078 Y79.674 E.30754
G1 X104.078 Y79.143 E.00975
G1 X115.922 Y67.299 E.30754
G1 X115.922 Y66.768 E.00975
G1 X104.078 Y78.612 E.30754
G1 X104.078 Y78.081 E.00975
G1 X115.922 Y66.237 E.30754
G1 X115.922 Y65.706 E.00975
G1 X104.078 Y77.55 E.30754
G1 X104.078 Y77.019 E.00975
G1 X115.922 Y65.175 E.30754
G1 X115.922 Y64.644 E.00975
G1 X104.078 Y76.488 E.30754
G1 X104.078 Y75.956 E.00975
G1 X115.922 Y64.113 E.30754
G1 X115.922 Y63.581 E.00975
G1 X104.078 Y75.425 E.30754
G1 X104.078 Y74.894 E.00975
G1 X115.922 Y63.05 E.30754
G1 X115.922 Y62.578 E.00867
G1 X115.863 Y62.578 E.00108
G1 X104.078 Y74.363 E.30602
G1 X104.078 Y73.832 E.00975
G1 X115.332 Y62.578 E.29223
G1 X114.801 Y62.578 E.00975
G1 X104.078 Y73.301 E.27843
G1 X104.078 Y72.77 E.00975
G1 X114.27 Y62.578 E.26464
G1 X113.739 Y62.578 E.00975
G1 X104.078 Y72.239 E.25085
G1 X104.078 Y71.708 E.00975
G1 X113.208 Y62.578 E.23706
G1 X112.677 Y62.578 E.00975
G1 X104.078 Y71.177 E.22327
G1 X104.078 Y70.646 E.00975
G1 X112.146 Y62.578 E.20948
G1 X111.614 Y62.578 E.00975
G1 X104.078 Y70.114 E.19569
G1 X104.078 Y69.583 E.00975
G1 X111.083 Y62.578 E.1819
G1 X110.552 Y62.578 E.00975
M73 P3 R58
G1 X104.078 Y69.052 E.16811
G1 X104.078 Y68.521 E.00975
G1 X110.021 Y62.578 E.15432
G1 X109.49 Y62.578 E.00975
G1 X104.078 Y67.99 E.14053
G1 X104.078 Y67.459 E.00975
G1 X108.959 Y62.578 E.12674
G1 X108.428 Y62.578 E.00975
G1 X104.078 Y66.928 E.11295
G1 X104.078 Y66.397 E.00975
G1 X107.897 Y62.578 E.09916
G1 X107.366 Y62.578 E.00975
G1 X104.078 Y65.866 E.08537
G1 X104.078 Y65.335 E.00975
G1 X106.835 Y62.578 E.07158
G1 X106.304 Y62.578 E.00975
G1 X104.078 Y64.804 E.05779
G1 X104.078 Y64.272 E.00975
G1 X105.772 Y62.578 E.044
G1 X105.241 Y62.578 E.00975
G1 X104.078 Y63.741 E.03021
G1 X104.078 Y63.21 E.00975
G1 X104.879 Y62.41 E.02079
; stop printing object Arm00.stl id:720576387062527073 copy 0
;LAYER_CHANGE
;Z:0.44
;HEIGHT:0.12
;BEFORE_LAYER_CHANGE
;0.44
G92 E0

G1 E-3.5 F3600
;WIPE_START
G1 F2400
G1 X104.172 Y63.117 E-1.5
;WIPE_END
;_SET_FAN_SPEED_CHANGING_LAYER
; printing object Arm00.stl id:720576387062527073 copy 0
M204 S700
G1 Z.84 F9000
G1 X103.656 Y62.156 Z.84
G1 Z.44
G1 E5 F2400
M204 S500
;TYPE:Inner wall
;WIDTH:0.449999
G1 X116.344 Y62.156 E.26316
G1 X116.344 Y83.844 E.44985
G1 X103.656 Y83.844 E.26316
G1 X103.656 Y62.196 E.44902
M204 S700
G1 X103.232 Y61.732 F9000
M204 S500
G1 F2400
G1 X116.731 Y61.732 E.28001
G1 X116.768 Y61.769 E.00107
G1 X116.768 Y84.268 E.46669
G1 X103.232 Y84.268 E.28076
G1 X103.232 Y61.772 E.46662
G1 X103.083 Y61.32 F9000
;TYPE:Outer wall
;WIDTH:0.399999
G1 F1500
G1 X116.917 Y61.32 E.25314
G1 X117.18 Y61.583 E.0068
G1 X117.18 Y77.5 E.29125
G1 F1440
G1 F1500
G1 X117.182 Y78.22 E.01317
G1 F1380
G1 X117.194 Y83.872 E.10342
G1 X117.196 Y84.607 E.01345
M73 P4 R58
;WIDTH:0.389392
G1 F1320
G1 X117.231 Y84.854 E.00444
G1 X117.107 Y84.696 E.00357
;WIDTH:0.399999
G1 F1380
G1 X116.377 Y84.694 E.01336
G1 X110.72 Y84.682 E.10351
M106 S255
G1 F1500
G1 X110 Y84.68 E.01317
G1 X109.28 Y84.682 E.01317
G1 F1380
G1 X103.623 Y84.694 E.10351
G1 X102.893 Y84.696 E.01336
;WIDTH:0.389392
G1 F1320
G1 X102.769 Y84.854 E.00357
G1 X102.804 Y84.607 E.00444
;WIDTH:0.399999
G1 F1380
M106 S255
G1 X102.805 Y83.872 E.01345
G1 X102.82 Y62.303 E.39467
G1 F1500
G1 X102.82 Y61.583 E.01317
G1 X103.055 Y61.348 E.00608
M204 S700
G1 E-3.5 F3600
;WIPE_START
G1 F1500
G1 X104.055 Y61.346 E-1.5
;WIPE_END
G1 Z.84 F9000
G1 X117.23 Y129.167 Z.84
G1 Z.44
G1 E5 F2400
M204 S500
;WIDTH:0.365752
G1 F1320
G1 X117.231 Y84.854 E.73663
M204 S700
G1 E-3.5 F3600
;WIPE_START
G1 F1320
G1 X117.231 Y85.854 E-1.5
;WIPE_END
G1 Z.84 F9000
G1 X117.189 Y157.174 Z.84
G1 Z.44
G1 E5 F2400
M204 S500
G1 F1500
G1 X117.19 Y130.854 E.43753
M204 S700
G1 E-3.5 F3600
;WIPE_START
G1 F1500
G1 X117.19 Y131.854 E-1.5
;WIPE_END
G1 Z.84 F9000
G1 X103.26 Y157.76 Z.84
G1 Z.44
G1 E5 F2400
M204 S500
;TYPE:Inner wall
;WIDTH:0.505752
G1 X116.74 Y157.76 E.31635
G1 F2280
G1 X116.735 Y158.24 E.01127
G1 F2400
G1 X103.269 Y158.24 E.31602
G1 X103.261 Y157.8 E.01033
M204 S700
G1 E-3.5 F3600
;WIPE_START
G1 F2400
G1 X104.261 Y157.797 E-1.5
;WIPE_END
G1 Z.84 F9000
G1 X102.81 Y130.854 Z.84
G1 Z.44
G1 E5 F2400
M204 S500
;TYPE:Outer wall
