; HEADER_BLOCK_START
; generated by OrcaSlicer 2.3.2 on 2026-06-03 at 17:31:40
; total layer number: 42
; filament_density: 1.24
; filament_diameter: 1.75
; max_z_height: 10.04
; filament: 1
; HEADER_BLOCK_END

; THUMBNAIL_BLOCK_START

;
; THUMBNAIL_BLOCK_END

; THUMBNAIL_BLOCK_START

;
; THUMBNAIL_BLOCK_END

; external perimeters extrusion width = 0.40mm
; perimeters extrusion width = 0.45mm
; infill extrusion width = 0.45mm
; solid infill extrusion width = 0.40mm
; top infill extrusion width = 0.45mm
; first layer extrusion width = 0.50mm

; EXECUTABLE_BLOCK_START
M73 P0 R55
M201 X500 Y500 Z500 E5000
M203 X500 Y500 Z10 E60
M204 P500 R1000 T500
M205 X8.00 Y8.00 Z0.40 E5.00 ; sets the jerk limits, mm/sec
;TYPE:Custom
G90 ; use absolute coordinates
M83 ; extruder relative mode
M140 S60 ; set final bed temp
M104 S150 ; set temporary nozzle temp to prevent oozing during homing
G4 S10 ; allow partial nozzle warmup
G28 ; home all axis
G1 Z50 F240
G1 X2 Y10 F3000
M104 S220 ; set final nozzle temp
M190 S60 ; wait for bed temp to stabilize
M109 S220 ; wait for nozzle temp to stabilize
G1 Z0.28 F240
G92 E0
G1 Y140 E10 F1500 ; prime the nozzle
G1 X2.3 F5000
G92 E0
G1 Y10 E10 F1200 ; prime the nozzle
G92 E0
G90
G21
M83 ; use relative distances for extrusion
; filament start gcode
M106 S0
;LAYER_CHANGE
;Z:0.2
;HEIGHT:0.2
;BEFORE_LAYER_CHANGE
;0.2
G92 E0

G1 E-5 F3600
M73 P1 R55
;_SET_FAN_SPEED_CHANGING_LAYER
M204 S500
G1 Z.6 F9000
G1 X97.948 Y72.18
G1 Z.6
G1 Z.2
G1 E5 F2400
;TYPE:Skirt
;WIDTH:0.5
G1 F3000
G1 X97.948 Y60.11 E.44956
G1 X98.339 Y58.849 E.04917
G1 X99.375 Y58.031 E.04917
G1 X100.176 Y57.882 E.03037
G1 X120.176 Y57.882 E.74492
G1 X121.437 Y58.273 E.04917
G1 X122.256 Y59.309 E.04917
G1 X122.405 Y60.11 E.03037
G1 X122.405 Y160.11 E3.72462
G1 X122.014 Y161.371 E.04917
G1 X120.978 Y162.19 E.04917
G1 X120.176 Y162.339 E.03037
G1 X100.176 Y162.339 E.74492
G1 X98.915 Y161.948 E.04917
G1 X98.097 Y160.912 E.04917
G1 X97.948 Y160.11 E.03037
G1 X97.948 Y72.22 E3.27357
; printing object Arm.stl id:24305219931751 copy 0
G1 E-3.8 F3600
;WIPE_START
G1 F3000
G1 X97.948 Y71.22 E-1.2
;WIPE_END
G1 Z.6 F9000
G1 X101.4 Y129.982 Z.6
G1 Z.2
G1 E5 F2400
;TYPE:Inner wall
;WIDTH:0.585841
G1 F900
G1 X101.383 Y129.703 E.01236
;WIDTH:0.54292
G1 X101.362 Y129.339 E.01487
;WIDTH:0.499999
G1 X101.362 Y61.296 E2.53434
G1 X108.27 Y61.296 E.25729
G1 X107.349 Y61.771 E.03861
G1 X107.122 Y61.927 E.01026
G1 X106.392 Y62.574 E.0363
G1 X106.21 Y62.78 E.01026
G1 X105.656 Y63.582 E.03631
G1 X105.415 Y64.126 E.02217
G1 X105.115 Y65.016 E.03495
G1 X104.999 Y65.972 E.0359
G1 X104.999 Y66.248 E.01026
G1 X105.116 Y67.216 E.03631
G1 X105.183 Y67.486 E.01037
G1 X105.535 Y68.406 E.03669
G1 X105.662 Y68.647 E.01015
G1 X106.21 Y69.441 E.0359
G1 X106.392 Y69.647 E.01026
G1 X107.122 Y70.293 E.03631
G1 X107.351 Y70.451 E.01037
G1 X108.225 Y70.906 E.03669
G1 X108.48 Y71.003 E.01015
G1 X109.416 Y71.233 E.0359
G1 X109.689 Y71.267 E.01026
G1 X110.664 Y71.267 E.03631
G1 X110.94 Y71.233 E.01037
G1 X111.896 Y70.994 E.03669
G1 X112.151 Y70.898 E.01015
G1 X113.004 Y70.45 E.0359
G1 X113.231 Y70.293 E.01026
G1 X113.961 Y69.647 E.0363
G1 X114.143 Y69.441 E.01026
G1 X114.697 Y68.638 E.0363
G1 X114.825 Y68.394 E.01026
G1 X115.171 Y67.483 E.03631
G1 X115.237 Y67.213 E.01037
G1 X115.353 Y66.234 E.03669
G1 X115.353 Y65.962 E.01015
G1 X115.236 Y65.005 E.0359
G1 X115.171 Y64.737 E.01026
G1 X114.941 Y64.131 E.02415
G1 X114.697 Y63.582 E.02237
G1 X114.143 Y62.78 E.0363
G1 X113.961 Y62.574 E.01026
G1 X113.231 Y61.927 E.03631
G1 X113.002 Y61.769 E.01037
G1 X112.08 Y61.296 E.03859
G1 X118.991 Y61.296 E.2574
G1 X118.991 Y129.339 E2.53434
;WIDTH:0.54292
G1 X118.969 Y129.703 E.01487
M73 P1 R54
;WIDTH:0.585841
G1 X118.948 Y130.067 E.01614
G1 X118.948 Y155.47 E1.12387
G1 X118.969 Y155.718 E.01099
;WIDTH:0.54292
G1 X118.991 Y155.966 E.01013
;WIDTH:0.499999
G1 X118.991 Y158.925 E.11021
G1 X101.362 Y158.925 E.6566
G1 X101.362 Y155.966 E.11021
;WIDTH:0.54292
G1 X101.383 Y155.559 E.01658
;WIDTH:0.585841
G1 X101.405 Y155.153 E.018
G1 X101.405 Y130.067 E1.10983
G1 X101.402 Y130.022 E.00202
G1 X102.996 Y128.944 F9000
;WIDTH:0.499999
G1 F900
G1 X103.133 Y128.925 E.00516
G1 X117.219 Y128.925 E.52464
G1 X117.539 Y128.97 E.01204
G1 X117.905 Y129.153 E.01523
G1 X118.228 Y129.53 E.01847
;WIDTH:0.54292
G1 X118.316 Y129.798 E.01154
;WIDTH:0.585841
G1 X118.405 Y130.067 E.01253
G1 X118.405 Y155.153 E1.10983
;WIDTH:0.596881
G1 X118.393 Y155.359 E.00931
G1 X118.295 Y155.552 E.00975
;WIDTH:0.54844
G1 X118.197 Y155.744 E.0089
;WIDTH:0.499999
G1 X117.82 Y156.125 E.01997
G1 X117.372 Y156.296 E.01787
G1 X103.133 Y156.296 E.53031
G1 X102.932 Y156.278 E.00755
G1 X102.533 Y156.125 E.0159
G1 X102.156 Y155.744 E.01997
;WIDTH:0.54292
G1 X102.052 Y155.539 E.00936
;WIDTH:0.585841
G1 X101.948 Y155.334 E.01017
G1 X101.948 Y130.067 E1.11785
G1 X102.037 Y129.798 E.01253
M73 P2 R54
;WIDTH:0.54292
G1 X102.125 Y129.53 E.01154
;WIDTH:0.499999
G1 X102.448 Y129.153 E.01847
G1 X102.813 Y128.97 E.01523
G1 X102.957 Y128.95 E.00539
G1 X103.06 Y129.392 F9000
G1 F900
G1 X103.133 Y129.382 E.00275
G1 X117.219 Y129.382 E.52464
G1 X117.411 Y129.409 E.00722
G1 X117.631 Y129.519 E.00914
G1 X117.824 Y129.745 E.01108
G1 X117.905 Y130.067 E.01239
G1 X117.905 Y155.153 E.93435
G1 X117.806 Y155.508 E.01372
G1 X117.58 Y155.736 E.01198
G1 X117.219 Y155.839 E.01395
G1 X103.133 Y155.839 E.52464
G1 X102.773 Y155.736 E.01395
G1 X102.547 Y155.508 E.01198
G1 X102.448 Y155.153 E.01372
G1 X102.448 Y130.067 E.93435
G1 X102.528 Y129.745 E.01239
G1 X102.722 Y129.519 E.01108
G1 X102.941 Y129.409 E.00914
G1 X103.021 Y129.398 E.00298
G1 X103.125 Y129.863 F9000
;TYPE:Outer wall
G1 F900
G1 X103.133 Y129.86 E.00035
G1 X117.219 Y129.86 E.52464
G1 X117.344 Y129.902 E.00488
G1 X117.426 Y130.067 E.0069
G1 X117.426 Y155.153 E.93435
G1 X117.397 Y155.26 E.00414
G1 X117.251 Y155.36 E.00659
G1 X103.133 Y155.36 E.52581
G1 X103.025 Y155.329 E.00421
G1 X102.926 Y155.184 E.00652
G1 X102.926 Y130.067 E.93551
G1 X103.009 Y129.902 E.0069
G1 X103.087 Y129.876 E.00304
G1 E-3.5 F3600
;WIPE_START
G1 F900
G1 X103.133 Y129.86 E-.07413
G1 X104.084 Y129.86 E-1.42587
;WIPE_END
G1 Z.6 F9000
G1 X119.448 Y159.382 Z.6
G1 Z.2
G1 E5 F2400
;TYPE:Inner wall
G1 F900
G1 X100.905 Y159.382 E.69065
G1 X100.905 Y60.839 E3.67034
G1 X108.478 Y60.839 E.28208
;WIDTH:0.528751
G1 X109.084 Y60.853 E.02397
;WIDTH:0.557502
G1 X109.689 Y60.868 E.02539
;WIDTH:0.571827
G1 X110.9 Y60.875 E.05218
G1 X111.382 Y60.857 E.02079
;WIDTH:0.535913
G1 X111.864 Y60.839 E.01938
;WIDTH:0.499999
G1 X119.448 Y60.839 E.28248
G1 X119.448 Y159.342 E3.66885
G1 X119.926 Y159.86 F9000
;TYPE:Outer wall
G1 F900
G1 X100.426 Y159.86 E.7263
G1 X100.426 Y60.36 E3.70599
G1 X119.926 Y60.36 E.7263
M73 P3 R54
G1 X119.926 Y159.82 E3.7045
G1 E-3.5 F3600
;WIPE_START
G1 F900
G1 X118.926 Y159.822 E-1.5
;WIPE_END
G1 Z.6 F9000
G1 X114.333 Y68.33 Z.6
G1 Z.2
G1 E5 F2400
;TYPE:Inner wall
G1 F900
G1 X113.767 Y69.181 E.03806
G1 X112.928 Y69.951 E.04242
G1 X111.938 Y70.493 E.04202
G1 X110.83 Y70.789 E.04274
G1 X110.176 Y70.81 E.02434
G1 X109.638 Y70.808 E.02006
G1 X108.589 Y70.559 E.04014
G1 X107.563 Y70.046 E.04274
G1 X106.695 Y69.305 E.04249
G1 X106.038 Y68.388 E.04202
G1 X105.61 Y67.323 E.04274
G1 X105.453 Y66.193 E.04249
G1 X105.569 Y65.071 E.04202
G1 X105.843 Y64.287 E.0309
G1 X106.032 Y63.842 E.01804
G1 X106.586 Y63.04 E.03631
G1 X107.425 Y62.27 E.04242
G1 X108.424 Y61.723 E.04242
;WIDTH:0.526986
G1 X108.971 Y61.564 E.02248
;WIDTH:0.553973
G1 X109.518 Y61.405 E.02373
;WIDTH:0.557502
G1 X110.664 Y61.382 E.04803
;WIDTH:0.571827
G1 X110.836 Y61.396 E.00747
G1 X111.3 Y61.529 E.02079
;WIDTH:0.535913
G1 X111.764 Y61.661 E.01938
;WIDTH:0.499999
G1 X112.79 Y62.175 E.04274
G1 X113.657 Y62.916 E.04249
G1 X114.321 Y63.842 E.04242
G1 X114.743 Y64.899 E.04242
G1 X114.899 Y66.017 E.04202
G1 X114.783 Y67.159 E.04274
G1 X114.398 Y68.232 E.04249
G1 X114.355 Y68.297 E.00287
G1 X113.944 Y68.072 F9000
;TYPE:Outer wall
G1 F900
G1 X113.373 Y68.909 E.03773
G1 X112.611 Y69.593 E.03815
G1 X111.716 Y70.069 E.03775
G1 X110.714 Y70.325 E.03852
G1 X109.674 Y70.33 E.03875
G1 X108.704 Y70.094 E.03718
G1 X107.784 Y69.621 E.03852
G1 X107.013 Y68.946 E.03817
G1 X106.432 Y68.116 E.03775
G1 X106.057 Y67.152 E.03852
G1 X105.928 Y66.135 E.03817
G1 X106.044 Y65.128 E.03775
G1 X106.426 Y64.114 E.04038
G1 X106.98 Y63.311 E.03631
G1 X107.742 Y62.628 E.03815
G1 X108.646 Y62.146 E.03815
G1 X109.639 Y61.895 E.03815
G1 X110.664 Y61.889 E.03815
G1 X111.649 Y62.126 E.03775
G1 X112.569 Y62.599 E.03852
G1 X113.34 Y63.274 E.03817
G1 X113.927 Y64.114 E.03815
M73 P3 R53
G1 X114.296 Y65.069 E.03815
G1 X114.424 Y66.075 E.03775
G1 X114.308 Y67.102 E.03852
G1 X113.96 Y68.036 E.0371
G1 E-3.5 F3600
;WIPE_START
G1 F900
G1 X113.402 Y68.866 E-1.5
;WIPE_END
G1 Z.6 F9000
G1 X118.854 Y62.361 Z.6
G1 Z.2
G1 E5 F2400
;TYPE:Bottom surface
;WIDTH:0.501838
G1 F1200
G1 X118.131 Y61.639 E.03819
G1 X117.482 Y61.639 E.02427
G1 X118.648 Y62.804 E.06164
G1 X118.648 Y63.453 E.02427
G1 X116.833 Y61.639 E.09596
G1 X116.184 Y61.639 E.02427
G1 X118.648 Y64.102 E.13029
G1 X118.648 Y64.751 E.02427
G1 X115.535 Y61.639 E.16461
G1 X114.886 Y61.639 E.02427
G1 X118.648 Y65.4 E.19893
G1 X118.648 Y66.049 E.02427
G1 X114.237 Y61.639 E.23326
G1 X113.588 Y61.639 E.02427
G1 X118.648 Y66.698 E.26758
G1 X118.648 Y67.347 E.02427
G1 X115.231 Y63.93 E.1807
G1 X115.494 Y64.622 E.02767
G1 X115.565 Y64.914 E.01122
G1 X118.648 Y67.996 E.16303
G1 X118.648 Y68.645 E.02427
G1 X115.661 Y65.658 E.15796
G1 X115.694 Y65.927 E.01013
G1 X115.686 Y66.333 E.01516
G1 X118.648 Y69.294 E.15662
G1 X118.648 Y69.943 E.02427
G1 X115.617 Y66.912 E.16032
G1 X115.565 Y67.337 E.01601
G1 X115.528 Y67.472 E.00525
G1 X118.648 Y70.592 E.165
G1 X118.648 Y71.241 E.02427
G1 X115.359 Y67.952 E.17393
G1 X115.181 Y68.423 E.01882
G1 X118.648 Y71.89 E.18337
G1 X118.648 Y72.539 E.02427
G1 X114.964 Y68.855 E.19484
G1 X114.699 Y69.239 E.01745
G1 X118.648 Y73.188 E.20886
G1 X118.648 Y73.837 E.02427
G1 X114.434 Y69.623 E.22287
G1 X114.123 Y69.961 E.01718
G1 X118.648 Y74.486 E.23932
G1 X118.648 Y75.135 E.02427
G1 X113.779 Y70.266 E.25752
G1 X113.432 Y70.569 E.0172
G1 X118.648 Y75.784 E.27584
G1 X118.648 Y76.433 E.02427
G1 X113.034 Y70.819 E.29689
G1 X112.605 Y71.04 E.01803
G1 X118.648 Y77.082 E.31958
G1 X118.648 Y77.731 E.02427
G1 X112.176 Y71.26 E.34227
G1 X111.667 Y71.399 E.01974
G1 X118.648 Y78.38 E.36919
G1 X118.648 Y79.029 E.02427
G1 X111.151 Y71.532 E.39648
G1 X111.017 Y71.567 E.00518
G1 X110.579 Y71.609 E.01644
G1 X118.648 Y79.678 E.42673
G1 X118.648 Y80.327 E.02427
G1 X109.93 Y71.609 E.46105
G1 X109.459 Y71.592 E.01763
G1 X109.201 Y71.53 E.00991
G1 X118.648 Y80.976 E.4996
G1 X118.648 Y81.625 E.02427
G1 X107.93 Y70.907 E.56683
G1 E-3.5 F3600
;WIPE_START
G1 F1200
G1 X108.637 Y71.615 E-1.5
;WIPE_END
G1 Z.6 F9000
G1 X106.821 Y62.011 Z.6
G1 Z.2
G1 E5 F2400
G1 F1200
G1 X106.449 Y61.639 E.01967
G1 X105.8 Y61.639 E.02427
G1 X106.331 Y62.17 E.02809
G1 X106.16 Y62.322 E.00857
G1 X106.007 Y62.494 E.00862
G1 X105.151 Y61.639 E.04525
G1 X104.502 Y61.639 E.02427
G1 X105.732 Y62.868 E.06503
G1 X105.467 Y63.252 E.01745
G1 X103.853 Y61.639 E.08534
G1 X103.204 Y61.639 E.02427
G1 X105.229 Y63.663 E.10706
G1 X105.047 Y64.13 E.01875
G1 X102.555 Y61.639 E.13178
G1 X101.906 Y61.639 E.02427
G1 X104.87 Y64.602 E.15672
G1 X104.775 Y64.967 E.01411
G1 X104.755 Y65.136 E.00636
G1 X101.705 Y62.086 E.16131
G1 X101.705 Y62.735 E.02427
G1 X104.685 Y65.715 E.1576
G1 X104.658 Y65.938 E.0084
G1 X104.665 Y66.345 E.01521
G1 X101.705 Y63.384 E.15656
G1 X101.705 Y64.033 E.02427
G1 X104.755 Y67.083 E.16131
G1 X104.777 Y67.264 E.0068
G1 X104.861 Y67.602 E.01302
G1 X105.007 Y67.984 E.01531
G1 X101.705 Y64.682 E.17463
G1 X101.705 Y65.331 E.02427
G1 X118.648 Y82.274 E.89606
G1 X118.648 Y82.923 E.02427
G1 X101.705 Y65.98 E.89606
G1 X101.705 Y66.629 E.02427
M73 P4 R53
G1 X118.648 Y83.572 E.89606
G1 X118.648 Y84.221 E.02427
G1 X101.705 Y67.278 E.89606
G1 X101.705 Y67.927 E.02427
G1 X118.648 Y84.87 E.89606
G1 X118.648 Y85.519 E.02427
G1 X101.705 Y68.576 E.89606
G1 X101.705 Y69.225 E.02427
G1 X118.648 Y86.168 E.89606
G1 X118.648 Y86.817 E.02427
G1 X101.705 Y69.874 E.89606
G1 X101.705 Y70.523 E.02427
G1 X118.648 Y87.466 E.89606
G1 X118.648 Y88.115 E.02427
G1 X101.705 Y71.172 E.89606
G1 X101.705 Y71.821 E.02427
G1 X118.648 Y88.764 E.89606
G1 X118.648 Y89.413 E.02427
G1 X101.705 Y72.47 E.89606
G1 X101.705 Y73.119 E.02427
G1 X118.648 Y90.062 E.89606
G1 X118.648 Y90.711 E.02427
G1 X101.705 Y73.768 E.89606
G1 X101.705 Y74.417 E.02427
G1 X118.648 Y91.361 E.89606
G1 X118.648 Y92.01 E.02427
G1 X101.705 Y75.066 E.89606
G1 X101.705 Y75.715 E.02427
G1 X118.648 Y92.659 E.89606
G1 X118.648 Y93.308 E.02427
G1 X101.705 Y76.364 E.89606
G1 X101.705 Y77.013 E.02427
G1 X118.648 Y93.957 E.89606
G1 X118.648 Y94.606 E.02427
G1 X101.705 Y77.662 E.89606
G1 X101.705 Y78.311 E.02427
G1 X118.648 Y95.255 E.89606
G1 X118.648 Y95.904 E.02427
G1 X101.705 Y78.96 E.89606
G1 X101.705 Y79.609 E.02427
G1 X118.648 Y96.553 E.89606
G1 X118.648 Y97.202 E.02427
G1 X101.705 Y80.258 E.89606
G1 X101.705 Y80.907 E.02427
G1 X118.648 Y97.851 E.89606
G1 X118.648 Y98.5 E.02427
G1 X101.705 Y81.556 E.89606
G1 X101.705 Y82.205 E.02427
G1 X118.648 Y99.149 E.89606
G1 X118.648 Y99.798 E.02427
G1 X101.705 Y82.854 E.89606
G1 X101.705 Y83.503 E.02427
G1 X118.648 Y100.447 E.89606
G1 X118.648 Y101.096 E.02427
M73 P5 R53
G1 X101.705 Y84.152 E.89606
G1 X101.705 Y84.801 E.02427
G1 X118.648 Y101.745 E.89606
G1 X118.648 Y102.394 E.02427
G1 X101.705 Y85.45 E.89606
G1 X101.705 Y86.099 E.02427
G1 X118.648 Y103.043 E.89606
G1 X118.648 Y103.692 E.02427
G1 X101.705 Y86.748 E.89606
G1 X101.705 Y87.397 E.02427
G1 X118.648 Y104.341 E.89606
G1 X118.648 Y104.99 E.02427
M73 P5 R52
G1 X101.705 Y88.047 E.89606
G1 X101.705 Y88.696 E.02427
G1 X118.648 Y105.639 E.89606
G1 X118.648 Y106.288 E.02427
G1 X101.705 Y89.345 E.89606
G1 X101.705 Y89.994 E.02427
G1 X118.648 Y106.937 E.89606
G1 X118.648 Y107.586 E.02427
G1 X101.705 Y90.643 E.89606
G1 X101.705 Y91.292 E.02427
G1 X118.648 Y108.235 E.89606
G1 X118.648 Y108.884 E.02427
G1 X101.705 Y91.941 E.89606
G1 X101.705 Y92.59 E.02427
G1 X118.648 Y109.533 E.89606
G1 X118.648 Y110.182 E.02427
G1 X101.705 Y93.239 E.89606
G1 X101.705 Y93.888 E.02427
G1 X118.648 Y110.831 E.89606
G1 X118.648 Y111.48 E.02427
G1 X101.705 Y94.537 E.89606
G1 X101.705 Y95.186 E.02427
G1 X118.648 Y112.129 E.89606
G1 X118.648 Y112.778 E.02427
G1 X101.705 Y95.835 E.89606
G1 X101.705 Y96.484 E.02427
G1 X118.648 Y113.427 E.89606
G1 X118.648 Y114.076 E.02427
G1 X101.705 Y97.133 E.89606
G1 X101.705 Y97.782 E.02427
G1 X118.648 Y114.725 E.89606
G1 X118.648 Y115.374 E.02427
G1 X101.705 Y98.431 E.89606
G1 X101.705 Y99.08 E.02427
G1 X118.648 Y116.023 E.89606
G1 X118.648 Y116.672 E.02427
G1 X101.705 Y99.729 E.89606
G1 X101.705 Y100.378 E.02427
G1 X118.648 Y117.321 E.89606
G1 X118.648 Y117.97 E.02427
M73 P6 R52
G1 X101.705 Y101.027 E.89606
G1 X101.705 Y101.676 E.02427
G1 X118.648 Y118.619 E.89606
G1 X118.648 Y119.268 E.02427
G1 X101.705 Y102.325 E.89606
G1 X101.705 Y102.974 E.02427
G1 X118.648 Y119.917 E.89606
G1 X118.648 Y120.566 E.02427
G1 X101.705 Y103.623 E.89606
G1 X101.705 Y104.272 E.02427
G1 X118.648 Y121.215 E.89606
G1 X118.648 Y121.864 E.02427
G1 X101.705 Y104.921 E.89606
G1 X101.705 Y105.57 E.02427
G1 X118.648 Y122.513 E.89606
G1 X118.648 Y123.162 E.02427
G1 X101.705 Y106.219 E.89606
G1 X101.705 Y106.868 E.02427
G1 X118.648 Y123.811 E.89606
G1 X118.648 Y124.46 E.02427
G1 X101.705 Y107.517 E.89606
G1 X101.705 Y108.166 E.02427
G1 X118.648 Y125.109 E.89606
G1 X118.648 Y125.758 E.02427
G1 X101.705 Y108.815 E.89606
G1 X101.705 Y109.464 E.02427
G1 X118.648 Y126.407 E.89606
G1 X118.648 Y127.056 E.02427
G1 X101.705 Y110.113 E.89606
G1 X101.705 Y110.762 E.02427
G1 X118.648 Y127.705 E.89606
G1 X118.648 Y128.354 E.02427
G1 X101.705 Y111.411 E.89606
G1 X101.705 Y112.06 E.02427
G1 X118.648 Y129.003 E.89606
G1 X118.648 Y129.332 E.01231
G1 X118.626 Y129.519 E.00704
G1 X118.59 Y129.523 E.00134
G1 X118.529 Y129.363 E.00643
G1 X118.114 Y128.878 E.02385
G1 X117.636 Y128.64 E.01996
G1 X101.705 Y112.709 E.84255
