; HEADER_BLOCK_START
; generated by OrcaSlicer 2.3.2 on 2026-06-05 at 14:37:39
; total layer number: 83
; filament_density: 1.24
; filament_diameter: 1.75
; max_z_height: 10.04
; filament: 1
; HEADER_BLOCK_END

; THUMBNAIL_BLOCK_START

;
; THUMBNAIL_BLOCK_END

; THUMBNAIL_BLOCK_START

;
; THUMBNAIL_BLOCK_END

; external perimeters extrusion width = 0.40mm
; perimeters extrusion width = 0.45mm
; infill extrusion width = 0.45mm
; solid infill extrusion width = 0.40mm
; top infill extrusion width = 0.40mm
; first layer extrusion width = 0.50mm

; EXECUTABLE_BLOCK_START
M73 P0 R79
M201 X500 Y500 Z500 E5000
M203 X500 Y500 Z10 E60
M204 P500 R1000 T500
M205 X8.00 Y8.00 Z0.40 E5.00 ; sets the jerk limits, mm/sec
;TYPE:Custom
G90 ; use absolute coordinates
M83 ; extruder relative mode
M140 S60 ; set final bed temp
M104 S150 ; set temporary nozzle temp to prevent oozing during homing
G4 S10 ; allow partial nozzle warmup
G28 ; home all axis
G1 Z50 F240
G1 X2 Y10 F3000
M104 S220 ; set final nozzle temp
M190 S60 ; wait for bed temp to stabilize
M109 S220 ; wait for nozzle temp to stabilize
G1 Z0.28 F240
G92 E0
G1 Y140 E10 F1500 ; prime the nozzle
G1 X2.3 F5000
G92 E0
G1 Y10 E10 F1200 ; prime the nozzle
G92 E0
G90
G21
M83 ; use relative distances for extrusion
; filament start gcode
M106 S0
;LAYER_CHANGE
;Z:0.2
;HEIGHT:0.2
;BEFORE_LAYER_CHANGE
;0.2
G92 E0

G1 E-5 F3600
;_SET_FAN_SPEED_CHANGING_LAYER
M204 S500
G1 Z.6 F9000
G1 X99.671 Y73.324
G1 Z.6
G1 Z.2
G1 E5 F2400
;TYPE:Skirt
;WIDTH:0.5
G1 F3000
G1 X99.671 Y61.4 E.44413
G1 X100.062 Y60.139 E.04917
G1 X101.098 Y59.321 E.04917
G1 X101.9 Y59.171 E.03037
G1 X118.1 Y59.171 E.60339
G1 X119.361 Y59.562 E.04917
G1 X120.179 Y60.598 E.04917
G1 X120.329 Y61.4 E.03037
G1 X120.329 Y158.6 E3.62033
G1 X119.938 Y159.861 E.04917
G1 X118.902 Y160.679 E.04917
G1 X118.1 Y160.829 E.03037
G1 X101.9 Y160.829 E.60339
G1 X100.639 Y160.438 E.04917
G1 X99.821 Y159.402 E.04917
G1 X99.671 Y158.6 E.03037
G1 X99.671 Y73.364 E3.17471
; printing object Arm00.stl id:720576387062527073 copy 0
G1 E-3.8 F3600
;WIPE_START
G1 F3000
G1 X99.671 Y72.364 E-1.2
;WIPE_END
G1 Z.6 F9000
G1 X116.914 Y85.314 Z.6
G1 Z.2
G1 E5 F2400
;TYPE:Inner wall
;WIDTH:0.499999
G1 F900
G1 X103.086 Y85.314 E.51507
G1 X103.086 Y62.586 E.84656
G1 X116.914 Y62.586 E.51507
M73 P0 R78
G1 X116.914 Y85.274 E.84507
M73 P1 R78
G1 E-3.5 F3600
;WIPE_START
G1 F900
G1 X115.914 Y85.277 E-1.5
;WIPE_END
G1 Z.6 F9000
G1 X102.636 Y86.011 Z.6
G1 Z.2
G1 E5 F2400
G1 F900
G1 X102.629 Y86.018 E.00041
G1 X102.629 Y62.129 E.88981
G1 X117.371 Y62.129 E.54912
G1 X117.371 Y86.018 E.88981
G1 X117.124 Y85.771 E.01301
G1 X102.876 Y85.771 E.53072
G1 X102.665 Y85.982 E.01111
G1 E-3.5 F3600
;WIPE_START
G1 F900
G1 X102.629 Y86.018 E-.07642
G1 X102.629 Y85.069 E-1.42358
;WIPE_END
G1 Z.6 F9000
G1 X116.871 Y130.271 Z.6
G1 Z.2
G1 E5 F2400
;WIDTH:0.585841
G1 F900
G1 X103.129 Y130.271 E.608
G1 X103.129 Y129.729 E.02402
G1 X116.871 Y129.729 E.608
G1 X116.871 Y130.231 E.02225
G1 E-3.5 F3600
;WIPE_START
G1 F900
G1 X115.871 Y130.234 E-1.5
;WIPE_END
G1 Z.6 F9000
G1 X102.629 Y129.021 Z.6
G1 Z.2
G1 E5 F2400
;WIDTH:0.499999
G1 F900
G1 X102.876 Y129.229 E.01201
G1 X117.124 Y129.229 E.53072
G1 X117.371 Y129.021 E.01201
G1 X117.371 Y131.1 E.07743
G1 X117.043 Y130.771 E.01731
G1 X102.957 Y130.771 E.52464
G1 X102.629 Y131.1 E.01731
G1 X102.629 Y129.061 E.07594
G1 E-3.5 F3600
;WIPE_START
G1 F900
G1 X102.876 Y129.229 E-.44763
G1 X103.577 Y129.229 E-1.05237
;WIPE_END
G1 Z.6 F9000
G1 X117.325 Y157.041 Z.6
G1 Z.2
G1 E5 F2400
;WIDTH:0.592932
G1 F900
G1 X117.325 Y157.825 E.03515
G1 X102.675 Y157.825 E.6566
G1 X102.675 Y157.041 E.03515
G1 X102.952 Y157.275 E.01626
G1 X117.043 Y157.275 E.63154
G1 X117.294 Y157.066 E.01464
G1 E-3.5 F3600
;WIPE_START
G1 F900
G1 X117.325 Y157.825 E-1.13898
G1 X117.084 Y157.825 E-.36102
;WIPE_END
G1 Z.6 F9000
G1 X117.043 Y131.25 Z.6
G1 Z.2
G1 E5 F2400
;TYPE:Outer wall
;WIDTH:0.549999
G1 F900
G1 X117.275 Y131.457 E.01285
G1 X117.275 Y156.543 E1.03656
;WIDTH:0.553841
G1 X117.273 Y156.583 E.00168
G1 X117.158 Y156.667 E.00592
;WIDTH:0.52692
G1 X117.043 Y156.75 E.00561
;WIDTH:0.499999
G1 X102.956 Y156.75 E.5247
;WIDTH:0.549999
G1 X102.725 Y156.582 E.01179
G1 X102.725 Y131.457 E1.03818
G1 X102.957 Y131.25 E.01285
;WIDTH:0.499999
G1 X117.003 Y131.25 E.52315
G1 E-3.5 F3600
;WIPE_START
G1 F900
G1 X117.275 Y131.457 E-.51288
G1 X117.275 Y132.115 E-.98712
;WIPE_END
G1 Z.6 F9000
G1 X102.876 Y86.25 Z.6
G1 Z.2
G1 E5 F2400
G1 F900
G1 X117.124 Y86.25 E.53072
;WIDTH:0.509234
G1 X117.336 Y86.457 E.01125
G1 X117.336 Y128.543 E1.59921
;WIDTH:0.512767
G1 X117.335 Y128.58 E.00141
G1 X117.124 Y128.75 E.01036
;WIDTH:0.499999
G1 X102.876 Y128.75 E.53072
;WIDTH:0.509235
G1 X102.664 Y128.579 E.01035
G1 X102.664 Y86.457 E1.60057
G1 X102.847 Y86.278 E.00973
G1 E-3.5 F3600
;WIPE_START
G1 F900
G1 X103.847 Y86.276 E-1.5
;WIPE_END
G1 Z.6 F9000
G1 X117.85 Y158.35 Z.6
G1 Z.2
G1 E5 F2400
;WIDTH:0.499999
G1 F900
G1 X102.15 Y158.35 E.58476
G1 X102.15 Y157.55 E.0298
;WIDTH:0.549999
G1 X102.175 Y156.543 E.04163
G1 X102.175 Y131.457 E1.03656
G1 X102.15 Y130.443 E.04192
;WIDTH:0.499999
G1 X102.15 Y129.476 E.03603
;WIDTH:0.509235
G1 X102.15 Y85.524 E1.67009
;WIDTH:0.499999
G1 X102.15 Y61.65 E.88923
G1 X117.85 Y61.65 E.58476
G1 X117.85 Y85.524 E.88923
;WIDTH:0.509234
G1 X117.85 Y129.476 E1.67008
;WIDTH:0.499999
G1 X117.85 Y130.443 E.03603
;WIDTH:0.549999
G1 X117.825 Y131.457 E.04192
G1 X117.825 Y156.697 E1.04292
G1 X117.85 Y157.55 E.03527
M73 P2 R78
;WIDTH:0.499999
G1 X117.85 Y158.31 E.02831
G1 E-3.5 F3600
;WIPE_START
G1 F900
G1 X116.85 Y158.313 E-1.5
;WIPE_END
G1 Z.6 F9000
G1 X115.838 Y62.723 Z.6
G1 Z.2
G1 E5 F2400
;TYPE:Bottom surface
;WIDTH:0.507044
G1 F1200
G1 X116.572 Y63.456 E.03922
G1 X116.572 Y64.112 E.02482
G1 X115.388 Y62.928 E.06332
G1 X114.731 Y62.928 E.02482
G1 X116.572 Y64.769 E.09843
G1 X116.572 Y65.425 E.02482
G1 X114.075 Y62.928 E.13354
G1 X113.419 Y62.928 E.02482
G1 X116.572 Y66.081 E.16864
G1 X116.572 Y66.738 E.02482
G1 X112.762 Y62.928 E.20375
G1 X112.106 Y62.928 E.02482
G1 X116.572 Y67.394 E.23886
G1 X116.572 Y68.051 E.02482
G1 X111.449 Y62.928 E.27396
G1 X110.793 Y62.928 E.02482
G1 X116.572 Y68.707 E.30907
G1 X116.572 Y69.363 E.02482
G1 X110.137 Y62.928 E.34418
G1 X109.48 Y62.928 E.02482
G1 X116.572 Y70.02 E.37928
G1 X116.572 Y70.676 E.02482
G1 X108.824 Y62.928 E.41439
G1 X108.168 Y62.928 E.02482
G1 X116.572 Y71.332 E.44949
G1 X116.572 Y71.989 E.02482
G1 X107.511 Y62.928 E.4846
G1 X106.855 Y62.928 E.02482
G1 X116.572 Y72.645 E.51971
G1 X116.572 Y73.302 E.02482
G1 X106.198 Y62.928 E.55481
G1 X105.542 Y62.928 E.02482
G1 X116.572 Y73.958 E.58992
G1 X116.572 Y74.614 E.02482
G1 X104.886 Y62.928 E.62503
G1 X104.229 Y62.928 E.02482
M73 P2 R77
G1 X116.572 Y75.271 E.66013
G1 X116.572 Y75.927 E.02482
G1 X103.573 Y62.928 E.69524
G1 X103.428 Y62.928 E.00547
G1 X103.428 Y63.44 E.01936
G1 X116.572 Y76.583 E.70297
G1 X116.572 Y77.24 E.02482
G1 X103.428 Y64.097 E.70297
G1 X103.428 Y64.753 E.02482
G1 X116.572 Y77.896 E.70297
G1 X116.572 Y78.552 E.02482
G1 X103.428 Y65.409 E.70297
G1 X103.428 Y66.066 E.02482
G1 X116.572 Y79.209 E.70297
G1 X116.572 Y79.865 E.02482
G1 X103.428 Y66.722 E.70297
G1 X103.428 Y67.378 E.02482
G1 X116.572 Y80.522 E.70297
G1 X116.572 Y81.178 E.02482
G1 X103.428 Y68.035 E.70297
G1 X103.428 Y68.691 E.02482
G1 X116.572 Y81.834 E.70297
G1 X116.572 Y82.491 E.02482
G1 X103.428 Y69.348 E.70297
G1 X103.428 Y70.004 E.02482
G1 X116.572 Y83.147 E.70297
G1 X116.572 Y83.803 E.02482
G1 X103.428 Y70.66 E.70297
G1 X103.428 Y71.317 E.02482
G1 X116.572 Y84.46 E.70297
G1 X116.572 Y84.972 E.01935
G1 X116.427 Y84.972 E.00547
G1 X103.428 Y71.973 E.69524
G1 X103.428 Y72.629 E.02482
G1 X115.771 Y84.972 E.66013
G1 X115.114 Y84.972 E.02482
G1 X103.428 Y73.286 E.62502
G1 X103.428 Y73.942 E.02482
G1 X114.458 Y84.972 E.58992
G1 X113.801 Y84.972 E.02482
G1 X103.428 Y74.599 E.55481
G1 X103.428 Y75.255 E.02482
G1 X113.145 Y84.972 E.5197
G1 X112.489 Y84.972 E.02482
G1 X103.428 Y75.911 E.4846
G1 X103.428 Y76.568 E.02482
G1 X111.832 Y84.972 E.44949
G1 X111.176 Y84.972 E.02482
G1 X103.428 Y77.224 E.41438
G1 X103.428 Y77.88 E.02482
G1 X110.52 Y84.972 E.37928
G1 X109.863 Y84.972 E.02482
G1 X103.428 Y78.537 E.34417
G1 X103.428 Y79.193 E.02482
G1 X109.207 Y84.972 E.30907
G1 X108.551 Y84.972 E.02482
G1 X103.428 Y79.85 E.27396
G1 X103.428 Y80.506 E.02482
G1 X107.894 Y84.972 E.23885
G1 X107.238 Y84.972 E.02482
G1 X103.428 Y81.162 E.20375
G1 X103.428 Y81.819 E.02482
G1 X106.581 Y84.972 E.16864
G1 X105.925 Y84.972 E.02482
G1 X103.428 Y82.475 E.13353
G1 X103.428 Y83.131 E.02482
G1 X105.269 Y84.972 E.09843
G1 X104.612 Y84.972 E.02482
G1 X103.428 Y83.788 E.06332
G1 X103.428 Y84.444 E.02482
G1 X104.162 Y85.177 E.03921
; stop printing object Arm00.stl id:720576387062527073 copy 0
M106 S255
;LAYER_CHANGE
;Z:0.32
;HEIGHT:0.12
;BEFORE_LAYER_CHANGE
;0.32
G92 E0

G1 E-3.5 F3600
;WIPE_START
G1 F1200
G1 X103.454 Y84.47 E-1.5
;WIPE_END
;_SET_FAN_SPEED_CHANGING_LAYER
; printing object Arm00.stl id:720576387062527073 copy 0
M204 S700
G1 Z.72 F9000
G1 X117.625 Y156.631 Z.72
G1 Z.32
G1 E5 F2400
M204 S500
;TYPE:Inner wall
;WIDTH:0.494908
G1 X117.648 Y157.628 E.02287
;WIDTH:0.449999
G1 X117.648 Y158.148 E.01079
G1 X102.352 Y158.148 E.31727
G1 X102.352 Y157.628 E.01079
;WIDTH:0.494908
G1 X102.375 Y156.631 E.02287
G1 X102.92 Y157.11 E.01665
;WIDTH:0.449999
G1 X117.077 Y157.112 E.29364
;WIDTH:0.494908
G1 X117.595 Y156.657 E.01582
M204 S700
G1 E-3.5 F3600
;WIPE_START
G1 F2400
G1 X117.648 Y157.628 E-1.45762
G1 X117.648 Y157.656 E-.04238
;WIPE_END
G1 Z.72 F9000
G1 X102.872 Y157.628 Z.72
G1 Z.32
G1 E5 F2400
M204 S500
;WIDTH:0.641958
G1 X102.974 Y157.63 E.00307
;WIDTH:0.637258
G1 X117.026 Y157.63 E.42011
;WIDTH:0.64196
G1 X117.128 Y157.628 E.00307
M204 S700
G1 E-3.5 F3600
;WIPE_START
G1 F2400
G1 X117.026 Y157.63 E-.15288
G1 X116.128 Y157.63 E-1.34712
;WIPE_END
G1 Z.72 F9000
G1 X102.776 Y129.439 Z.72
G1 Z.32
G1 E5 F2400
M204 S500
;WIDTH:0.449999
G1 X102.893 Y129.536 E.00315
G1 X117.107 Y129.536 E.29484
G1 X117.224 Y129.439 E.00315
G1 X117.224 Y130.53 E.02263
G1 X117.026 Y130.464 E.00433
G1 X102.974 Y130.464 E.29146
G1 X102.776 Y130.53 E.00433
G1 X102.776 Y129.479 E.0218
M204 S700
G1 X102.334 Y128.624 F9000
M204 S500
G1 F2400
G1 X102.893 Y129.112 E.0154
G1 X117.107 Y129.112 E.29484
G1 X117.666 Y128.624 E.0154
G1 X117.648 Y130.87 E.04659
;WIDTH:0.485752
G1 X117.63 Y131.474 E.0136
G1 X117.378 Y131.005 E.01198
;WIDTH:0.449999
G1 X117.026 Y130.888 E.00769
G1 X102.974 Y130.888 E.29146
G1 X102.622 Y131.005 E.00769
;WIDTH:0.485752
G1 X102.37 Y131.474 E.01198
G1 X102.352 Y130.87 E.0136
;WIDTH:0.449999
G1 X102.334 Y128.664 E.04576
M204 S700
G1 E-3.5 F3600
;WIPE_START
G1 F2400
G1 X102.893 Y129.112 E-1.07467
G1 X103.176 Y129.112 E-.42533
;WIPE_END
G1 Z.72 F9000
G1 X117.13 Y131.335 Z.72
G1 Z.32
G1 E5 F2400
M204 S500
;TYPE:Outer wall
;WIDTH:0.399999
G1 F1500
G1 X117.2 Y131.474 E.00285
G1 X117.2 Y156.526 E.45839
G1 X117.041 Y156.7 E.00431
G1 X102.974 Y156.7 E.25739
G1 X102.8 Y156.554 E.00416
G1 X102.8 Y131.474 E.4589
G1 X102.87 Y131.335 E.00285
G1 X102.974 Y131.3 E.00202
G1 X117.026 Y131.3 E.25711
G1 X117.092 Y131.322 E.00128
M204 S700
G1 E-3.5 F3600
;WIPE_START
G1 F1500
G1 X117.2 Y131.474 E-.27944
G1 X117.2 Y132.288 E-1.22056
;WIPE_END
G1 Z.72 F9000
G1 X117.625 Y156.631 Z.72
G1 Z.32
G1 E5 F2400
M204 S500
;TYPE:Inner wall
;WIDTH:0.494908
G1 X117.63 Y156.526 E.00242
;WIDTH:0.485752
G1 X117.63 Y131.474 E.56342
M204 S700
G1 E-3.5 F3600
M73 P3 R77
;WIPE_START
G1 F2400
G1 X117.63 Y132.474 E-1.5
;WIPE_END
G1 Z.72 F9000
G1 X102.37 Y131.474 Z.72
G1 Z.32
G1 E5 F2400
M204 S500
G1 X102.37 Y156.526 E.56342
;WIDTH:0.494908
G1 X102.375 Y156.631 E.00242
M204 S700
G1 E-3.5 F3600
;WIPE_START
G1 F2400
G1 X102.37 Y156.526 E-.15794
G1 X102.37 Y155.631 E-1.34206
;WIPE_END
G1 Z.72 F9000
G1 X102.776 Y85.58 Z.72
G1 Z.32
G1 E5 F2400
M204 S500
;WIDTH:0.449999
G1 X102.776 Y62.276 E.48337
G1 X117.224 Y62.276 E.29967
G1 X117.224 Y85.58 E.48337
G1 X117.107 Y85.464 E.00341
G1 X102.893 Y85.464 E.29484
G1 X102.805 Y85.552 E.00258
M204 S700
G1 X102.687 Y86.102 F9000
M204 S500
G1 F2400
G1 X102.329 Y86.474 E.0107
G1 X102.352 Y85.347 E.02338
G1 X102.352 Y61.852 E.48735
G1 X117.648 Y61.852 E.31727
G1 X117.648 Y85.347 E.48735
G1 X117.671 Y86.474 E.02338
G1 X117.107 Y85.888 E.01687
G1 X102.893 Y85.888 E.29484
G1 X102.715 Y86.073 E.00533
G1 X102.893 Y86.3 F9000
;TYPE:Outer wall
;WIDTH:0.399999
G1 F1500
G1 X117.107 Y86.3 E.2601
G1 X117.282 Y86.474 E.00451
G1 X117.282 Y128.526 E.76945
G1 X117.107 Y128.7 E.00451
G1 X102.893 Y128.7 E.2601
G1 X102.718 Y128.526 E.00451
G1 X102.718 Y86.474 E.76945
G1 X102.864 Y86.328 E.00378
M204 S700
G1 E-3.5 F3600
;WIPE_START
G1 F1500
G1 X103.864 Y86.326 E-1.5
;WIPE_END
G1 Z.72 F9000
G1 X117.666 Y128.624 Z.72
G1 Z.32
G1 E5 F2400
M204 S500
;TYPE:Inner wall
;WIDTH:0.41276
G1 X117.671 Y128.526 E.00186
;WIDTH:0.404222
G1 X117.671 Y86.474 E.77813
M204 S700
G1 E-3.5 F3600
;WIPE_START
G1 F2400
G1 X117.671 Y87.474 E-1.5
;WIPE_END
G1 Z.72 F9000
G1 X102.329 Y86.474 Z.72
G1 Z.32
G1 E5 F2400
M204 S500
;WIDTH:0.404224
G1 X102.329 Y128.526 E.77814
;WIDTH:0.412762
G1 X102.334 Y128.624 E.00186
M204 S700
G1 E-3.5 F3600
;WIPE_START
G1 F2400
G1 X102.329 Y128.526 E-.14728
G1 X102.329 Y127.624 E-1.35272
;WIPE_END
G1 Z.72 F9000
G1 X118.06 Y158.56 Z.72
G1 Z.32
G1 E5 F2400
M204 S500
;TYPE:Outer wall
;WIDTH:0.399999
G1 F1320
G1 X102.7 Y158.56 E.28105
G1 X101.94 Y158.56 E.01391
G1 X101.94 Y157.8 E.01391
G1 X101.94 Y61.44 E1.76318
G1 X118.06 Y61.44 E.29496
G1 X118.06 Y158.52 E1.77635
M73 P3 R76
M204 S700
G1 E-3.5 F3600
;WIPE_START
G1 F1320
G1 X117.06 Y158.522 E-1.5
;WIPE_END
G1 Z.72 F9000
G1 X114.935 Y85.33 Z.72
G1 Z.32
G1 E5 F2400
M204 S500
;TYPE:Internal solid infill
;WIDTH:0.40115
G1 X116.922 Y83.343 E.05158
G1 X116.922 Y82.813 E.00974
G1 X114.573 Y85.162 E.06098
G1 X114.042 Y85.162 E.00974
G1 X116.922 Y82.282 E.07476
G1 X116.922 Y81.751 E.00974
G1 X113.511 Y85.162 E.08854
G1 X112.98 Y85.162 E.00974
G1 X116.922 Y81.22 E.10232
G1 X116.922 Y80.689 E.00974
G1 X112.449 Y85.162 E.1161
G1 X111.918 Y85.162 E.00974
G1 X116.922 Y80.158 E.12989
G1 X116.922 Y79.627 E.00974
G1 X111.387 Y85.162 E.14367
G1 X110.856 Y85.162 E.00974
G1 X116.922 Y79.096 E.15745
G1 X116.922 Y78.565 E.00974
G1 X110.325 Y85.162 E.17123
G1 X109.794 Y85.162 E.00974
G1 X116.922 Y78.034 E.18501
G1 X116.922 Y77.504 E.00974
G1 X109.264 Y85.162 E.19879
G1 X108.733 Y85.162 E.00974
G1 X116.922 Y76.973 E.21257
G1 X116.922 Y76.442 E.00974
G1 X108.202 Y85.162 E.22635
G1 X107.671 Y85.162 E.00974
G1 X116.922 Y75.911 E.24013
G1 X116.922 Y75.38 E.00974
G1 X107.14 Y85.162 E.25391
G1 X106.609 Y85.162 E.00974
G1 X116.922 Y74.849 E.26769
G1 X116.922 Y74.318 E.00974
G1 X106.078 Y85.162 E.28147
G1 X105.547 Y85.162 E.00974
G1 X116.922 Y73.787 E.29525
G1 X116.922 Y73.256 E.00974
G1 X105.016 Y85.162 E.30903
G1 X104.486 Y85.162 E.00974
G1 X116.922 Y72.726 E.32281
G1 X116.922 Y72.195 E.00974
G1 X103.955 Y85.162 E.33659
G1 X103.424 Y85.162 E.00974
G1 X116.922 Y71.664 E.35037
G1 X116.922 Y71.133 E.00974
G1 X103.078 Y84.977 E.35934
G1 X103.078 Y84.446 E.00974
G1 X116.922 Y70.602 E.35934
G1 X116.922 Y70.071 E.00974
G1 X103.078 Y83.915 E.35934
G1 X103.078 Y83.384 E.00974
G1 X116.922 Y69.54 E.35934
G1 X116.922 Y69.009 E.00974
G1 X103.078 Y82.853 E.35934
G1 X103.078 Y82.322 E.00974
G1 X116.922 Y68.478 E.35934
G1 X116.922 Y67.948 E.00974
G1 X103.078 Y81.791 E.35934
G1 X103.078 Y81.261 E.00974
G1 X116.922 Y67.417 E.35934
G1 X116.922 Y66.886 E.00974
G1 X103.078 Y80.73 E.35934
G1 X103.078 Y80.199 E.00974
G1 X116.922 Y66.355 E.35934
G1 X116.922 Y65.824 E.00974
G1 X103.078 Y79.668 E.35934
G1 X103.078 Y79.137 E.00974
G1 X116.922 Y65.293 E.35934
G1 X116.922 Y64.762 E.00974
G1 X103.078 Y78.606 E.35934
G1 X103.078 Y78.075 E.00974
G1 X116.922 Y64.231 E.35934
G1 X116.922 Y63.7 E.00974
G1 X103.078 Y77.544 E.35934
G1 X103.078 Y77.013 E.00974
G1 X116.922 Y63.169 E.35934
G1 X116.922 Y62.639 E.00974
G1 X103.078 Y76.483 E.35934
G1 X103.078 Y75.952 E.00974
G1 X116.452 Y62.578 E.34713
G1 X115.921 Y62.578 E.00974
G1 X103.078 Y75.421 E.33335
G1 X103.078 Y74.89 E.00974
