; HEADER_BLOCK_START
; generated by OrcaSlicer 2.3.2 on 2026-06-05 at 09:13:04
; total layer number: 83
; filament_density: 1.24
; filament_diameter: 1.75
; max_z_height: 10.04
; filament: 1
; HEADER_BLOCK_END

; THUMBNAIL_BLOCK_START

;
; THUMBNAIL_BLOCK_END

; THUMBNAIL_BLOCK_START

;
; THUMBNAIL_BLOCK_END

; external perimeters extrusion width = 0.40mm
; perimeters extrusion width = 0.45mm
; infill extrusion width = 0.45mm
; solid infill extrusion width = 0.40mm
; top infill extrusion width = 0.40mm
; first layer extrusion width = 0.50mm

; EXECUTABLE_BLOCK_START
M73 P0 R61
M201 X500 Y500 Z500 E5000
M203 X500 Y500 Z10 E60
M204 P500 R1000 T500
M205 X8.00 Y8.00 Z0.40 E5.00 ; sets the jerk limits, mm/sec
;TYPE:Custom
G90 ; use absolute coordinates
M83 ; extruder relative mode
M140 S60 ; set final bed temp
M104 S150 ; set temporary nozzle temp to prevent oozing during homing
G4 S10 ; allow partial nozzle warmup
G28 ; home all axis
G1 Z50 F240
G1 X2 Y10 F3000
M73 P0 R60
M104 S220 ; set final nozzle temp
M190 S60 ; wait for bed temp to stabilize
M109 S220 ; wait for nozzle temp to stabilize
G1 Z0.28 F240
G92 E0
G1 Y140 E10 F1500 ; prime the nozzle
G1 X2.3 F5000
G92 E0
G1 Y10 E10 F1200 ; prime the nozzle
G92 E0
G90
G21
M83 ; use relative distances for extrusion
; filament start gcode
M106 S0
;LAYER_CHANGE
;Z:0.2
;HEIGHT:0.2
;BEFORE_LAYER_CHANGE
;0.2
G92 E0

G1 E-5 F3600
M73 P1 R60
;_SET_FAN_SPEED_CHANGING_LAYER
M204 S500
G1 Z.6 F9000
G1 X99.697 Y75.447
G1 Z.6
G1 Z.2
G1 E5 F2400
;TYPE:Skirt
;WIDTH:0.5
G1 F3000
G1 X100.677 Y61.345 E.5265
G1 X101.424 Y59.824 E.06313
G1 X103 Y59.171 E.06353
G1 X117 Y59.171 E.52145
G1 X118.576 Y59.824 E.06353
G1 X119.323 Y61.345 E.06313
G1 X123.994 Y128.555 E2.50934
G1 X123.999 Y158.5 E1.11534
G1 X123.895 Y159.664 E.04354
G1 X123.664 Y160.6 E.03589
G1 X123.08 Y161.926 E.05397
G1 X122.521 Y162.76 E.03741
G1 X122.053 Y163.3 E.02662
G1 X121.268 Y164.013 E.0395
G1 X120.41 Y164.589 E.03846
G1 X119.771 Y164.909 E.02662
G1 X118.822 Y165.246 E.03752
G1 X117.82 Y165.446 E.03803
G1 X117 Y165.499 E.03063
G1 X103 Y165.499 E.52145
G1 X101.836 Y165.395 E.04354
G1 X100.413 Y164.986 E.05514
G1 X99.292 Y164.41 E.04694
G1 X98.508 Y163.833 E.03627
G1 X97.468 Y162.746 E.05601
G1 X96.911 Y161.91 E.03741
G1 X96.495 Y161.034 E.03612
G1 X96.169 Y159.986 E.04087
G1 X96.001 Y158.5 E.05571
G1 X96.006 Y128.549 E1.11558
G1 X99.694 Y75.487 E1.98111
; printing object Arm00.stl id:720576387062527073 copy 0
G1 E-3.8 F3600
;WIPE_START
G1 F3000
G1 X99.763 Y74.489 E-1.2
;WIPE_END
G1 Z.6 F9000
G1 X102.916 Y152.261 Z.6
G1 Z.2
G1 E5 F2400
;TYPE:Brim
G1 F900
G1 X117.083 Y152.261 E.52766
G1 X117.732 Y152.308 E.02423
G1 X118.355 Y152.447 E.02377
G1 X119.198 Y152.803 E.03411
G1 X119.818 Y153.198 E.02737
G1 X120.297 Y153.623 E.02386
G1 X120.709 Y154.115 E.0239
G1 X121.043 Y154.66 E.0238
G1 X121.357 Y155.449 E.03163
G1 X121.503 Y156.129 E.02589
G1 X121.542 Y156.711 E.02172
G1 X121.542 Y158.492 E.06633
G1 X121.494 Y159.14 E.02422
G1 X121.352 Y159.768 E.02398
G1 X121.184 Y160.229 E.01828
G1 X120.893 Y160.805 E.02404
G1 X120.521 Y161.332 E.02401
G1 X120.242 Y161.64 E.01549
G1 X119.653 Y162.16 E.02927
G1 X119.11 Y162.504 E.02396
G1 X118.734 Y162.681 E.01546
G1 X118.051 Y162.912 E.02686
G1 X117.417 Y163.022 E.02398
G1 X116.994 Y163.042 E.01575
G1 X103.008 Y163.042 E.52093
G1 X102.36 Y162.994 E.02422
G1 X101.732 Y162.852 E.02398
G1 X101.271 Y162.684 E.01828
G1 X100.695 Y162.393 E.02404
G1 X100.169 Y162.022 E.02396
G1 X99.762 Y161.644 E.0207
G1 X99.34 Y161.155 E.02406
G1 X98.996 Y160.61 E.02401
G1 X98.819 Y160.234 E.01546
G1 X98.588 Y159.551 E.02686
G1 X98.478 Y158.917 E.02398
G1 X98.458 Y158.494 E.01575
G1 X98.458 Y156.711 E.06641
G1 X98.506 Y156.063 E.02422
G1 X98.646 Y155.441 E.02377
G1 X99.003 Y154.597 E.03411
G1 X99.4 Y153.979 E.02737
G1 X99.826 Y153.5 E.02386
G1 X100.319 Y153.089 E.0239
G1 X100.864 Y152.756 E.02378
G1 X101.706 Y152.429 E.03367
G1 X102.333 Y152.299 E.02386
G1 X102.876 Y152.263 E.02026
G1 X102.907 Y152.72 F9000
G1 F900
G1 X102.935 Y152.718 E.00107
G1 X117.071 Y152.718 E.52652
G1 X117.675 Y152.763 E.02254
G1 X118.226 Y152.889 E.02106
G1 X118.975 Y153.204 E.03025
G1 X119.55 Y153.571 E.02541
G1 X119.975 Y153.95 E.02123
G1 X120.331 Y154.375 E.02062
G1 X120.627 Y154.855 E.02102
G1 X120.914 Y155.572 E.02877
G1 X121.048 Y156.183 E.02328
G1 X121.085 Y156.73 E.02045
G1 X121.085 Y158.48 E.06515
G1 X121.039 Y159.082 E.02251
G1 X120.915 Y159.63 E.02091
G1 X120.766 Y160.039 E.01623
G1 X120.494 Y160.578 E.02247
G1 X120.169 Y161.039 E.02102
G1 X119.925 Y161.309 E.01354
G1 X119.369 Y161.8 E.02765
G1 X118.896 Y162.098 E.02082
G1 X118.57 Y162.253 E.01346
G1 X117.928 Y162.47 E.02524
G1 X117.375 Y162.565 E.0209
G1 X116.98 Y162.585 E.01473
G1 X103.03 Y162.585 E.51957
G1 X102.438 Y162.542 E.02214
G1 X101.87 Y162.415 E.02166
G1 X101.446 Y162.26 E.01681
G1 X100.94 Y162.005 E.02113
G1 X100.465 Y161.672 E.02159
G1 X100.087 Y161.321 E.01923
G1 X99.715 Y160.89 E.0212
G1 X99.402 Y160.396 E.02177
G1 X99.247 Y160.07 E.01346
G1 X99.03 Y159.428 E.02524
G1 X98.935 Y158.875 E.0209
G1 X98.915 Y158.487 E.01448
G1 X98.915 Y156.723 E.06568
G1 X98.958 Y156.141 E.02176
G1 X99.08 Y155.593 E.0209
G1 X99.405 Y154.822 E.03116
G1 X99.773 Y154.248 E.02541
G1 X100.153 Y153.823 E.02123
G1 X100.578 Y153.468 E.02062
G1 X101.078 Y153.163 E.02183
G1 X101.847 Y152.866 E.03071
G1 X102.385 Y152.755 E.02047
G1 X102.867 Y152.722 E.01797
G1 X102.897 Y153.179 F9000
G1 F900
G1 X102.955 Y153.175 E.00217
G1 X117.049 Y153.175 E.52495
G1 X117.597 Y153.216 E.02044
G1 X118.097 Y153.33 E.01911
G1 X118.751 Y153.606 E.02643
G1 X119.281 Y153.944 E.02343
G1 X119.653 Y154.277 E.01858
G1 X119.964 Y154.651 E.01814
G1 X120.211 Y155.051 E.0175
G1 X120.471 Y155.696 E.02591
G1 X120.592 Y156.238 E.02066
G1 X120.628 Y156.751 E.01916
G1 X120.627 Y158.467 E.06394
G1 X120.583 Y159.024 E.0208
G1 X120.478 Y159.492 E.01789
G1 X120.349 Y159.85 E.01415
G1 X120.096 Y160.35 E.02087
G1 X119.816 Y160.746 E.01806
G1 X119.609 Y160.977 E.01157
G1 X119.085 Y161.439 E.02601
G1 X118.682 Y161.693 E.01773
G1 X118.39 Y161.832 E.01203
G1 X117.805 Y162.027 E.02299
G1 X117.332 Y162.109 E.01786
G1 X116.965 Y162.128 E.0137
G1 X103.052 Y162.128 E.5182
G1 X102.515 Y162.089 E.02008
G1 X102.008 Y161.977 E.01933
G1 X101.621 Y161.836 E.01533
G1 X101.167 Y161.606 E.01897
G1 X100.761 Y161.321 E.01847
G1 X100.411 Y160.997 E.01775
G1 X100.09 Y160.624 E.01835
G1 X99.807 Y160.182 E.01954
G1 X99.668 Y159.89 E.01202
G1 X99.473 Y159.305 E.02299
G1 X99.391 Y158.832 E.01786
G1 X99.372 Y158.479 E.0132
G1 X99.373 Y156.735 E.06493
G1 X99.411 Y156.218 E.01933
G1 X99.515 Y155.744 E.01805
G1 X99.806 Y155.046 E.02818
G1 X100.145 Y154.517 E.02341
G1 X100.464 Y154.16 E.01784
G1 X100.837 Y153.847 E.0181
G1 X101.292 Y153.571 E.01986
G1 X101.988 Y153.304 E.02775
G1 X102.457 Y153.208 E.01782
G1 X102.857 Y153.181 E.01493
G1 X102.887 Y153.638 F9000
G1 F900
G1 X102.975 Y153.632 E.00328
G1 X117.027 Y153.632 E.52341
G1 X117.518 Y153.668 E.01832
G1 X117.967 Y153.772 E.01716
G1 X118.527 Y154.008 E.02263
G1 X119.012 Y154.317 E.02143
G1 X119.329 Y154.603 E.0159
G1 X119.586 Y154.911 E.01495
G1 X119.795 Y155.248 E.01478
G1 X120.029 Y155.822 E.02307
G1 X120.136 Y156.294 E.01803
G1 X120.171 Y156.772 E.01784
G1 X120.17 Y158.455 E.06268
G1 X120.128 Y158.965 E.01907
G1 X120.04 Y159.356 E.01493
G1 X119.931 Y159.661 E.01205
G1 X119.697 Y160.122 E.01926
G1 X119.463 Y160.454 E.01515
G1 X119.292 Y160.646 E.00956
G1 X118.801 Y161.077 E.02435
G1 X118.468 Y161.287 E.01465
G1 X118.211 Y161.409 E.01059
G1 X117.683 Y161.584 E.02074
G1 X117.289 Y161.652 E.01487
G1 X116.949 Y161.671 E.01268
G1 X103.074 Y161.671 E.51681
G1 X102.59 Y161.636 E.01805
G1 X102.145 Y161.54 E.01698
G1 X101.811 Y161.419 E.01321
G1 X101.412 Y161.217 E.01668
G1 X101.057 Y160.97 E.01612
G1 X100.746 Y160.684 E.0157
G1 X100.464 Y160.358 E.0161
G1 X100.212 Y159.967 E.01731
G1 X100.091 Y159.711 E.01054
G1 X99.916 Y159.183 E.02074
G1 X99.848 Y158.789 E.01488
G1 X99.83 Y158.47 E.0119
G1 X99.83 Y156.747 E.06417
G1 X99.864 Y156.294 E.01694
G1 X99.957 Y155.871 E.01612
G1 X100.219 Y155.249 E.02514
G1 X100.504 Y154.803 E.0197
G1 X100.777 Y154.496 E.0153
G1 X101.096 Y154.227 E.01555
G1 X101.484 Y153.989 E.01695
G1 X102.106 Y153.748 E.02486
G1 X102.528 Y153.661 E.01603
G1 X102.847 Y153.64 E.01192
G1 X102.876 Y154.097 F9000
G1 F900
G1 X102.994 Y154.089 E.00439
G1 X117.006 Y154.089 E.52187
G1 X117.439 Y154.121 E.01619
G1 X117.837 Y154.213 E.0152
G1 X118.324 Y154.42 E.01971
G1 X118.743 Y154.689 E.01856
G1 X119.005 Y154.928 E.0132
G1 X119.208 Y155.172 E.01184
G1 X119.381 Y155.447 E.01208
G1 X119.587 Y155.949 E.02023
G1 X119.683 Y156.372 E.01614
G1 X119.714 Y156.793 E.01574
G1 X119.712 Y158.441 E.06138
G1 X119.673 Y158.905 E.01733
G1 X119.602 Y159.22 E.01204
G1 X119.506 Y159.487 E.01057
G1 X119.309 Y159.876 E.01625
G1 X119.099 Y160.175 E.01361
G1 X118.963 Y160.327 E.00758
G1 X118.534 Y160.703 E.02125
G1 X118.254 Y160.882 E.01238
G1 X118.048 Y160.981 E.0085
G1 X117.581 Y161.137 E.01834
G1 X117.246 Y161.196 E.01269
G1 X116.933 Y161.214 E.01166
G1 X103.095 Y161.214 E.51541
G1 X102.665 Y161.183 E.01605
G1 X102.28 Y161.101 E.01465
G1 X101.985 Y160.995 E.01169
G1 X101.638 Y160.818 E.01449
G1 X101.336 Y160.606 E.01374
G1 X101.07 Y160.36 E.01352
G1 X100.837 Y160.09 E.01327
G1 X100.617 Y159.751 E.01505
G1 X100.513 Y159.532 E.00903
G1 X100.363 Y159.081 E.0177
G1 X100.304 Y158.745 E.01273
G1 X100.287 Y158.461 E.01058
G1 X100.287 Y156.769 E.06302
G1 X100.316 Y156.37 E.0149
G1 X100.399 Y155.999 E.01417
G1 X100.632 Y155.452 E.02212
G1 X100.864 Y155.089 E.01607
G1 X101.09 Y154.831 E.01277
G1 X101.356 Y154.605 E.01299
G1 X101.677 Y154.407 E.01404
G1 X102.225 Y154.192 E.02194
G1 X102.599 Y154.115 E.0142
G1 X102.836 Y154.099 E.00888
G1 X102.871 Y154.555 F9000
G1 F900
G1 X114.998 Y154.55 E.45169
G1 X117.061 Y154.546 E.07684
G1 X117.589 Y154.624 E.0199
G1 X117.946 Y154.747 E.01405
G1 X118.245 Y154.9 E.0125
G1 X118.581 Y155.167 E.01602
G1 X118.863 Y155.502 E.0163
G1 X119.065 Y155.865 E.01547
G1 X119.162 Y156.139 E.01081
G1 X119.25 Y156.663 E.01981
G1 X119.231 Y158.694 E.07564
G1 X119.215 Y158.817 E.00463
G1 X119.084 Y159.283 E.01802
G1 X118.844 Y159.742 E.0193
G1 X118.498 Y160.137 E.01956
G1 X118.143 Y160.407 E.01659
G1 X118.038 Y160.467 E.00452
G1 X117.512 Y160.672 E.02104
G1 X116.951 Y160.757 E.02111
G1 X102.953 Y160.749 E.52137
G1 X102.492 Y160.673 E.0174
G1 X102.21 Y160.587 E.011
G1 X101.655 Y160.261 E.02398
G1 X101.369 Y160.003 E.01432
G1 X101.167 Y159.762 E.0117
G1 X100.983 Y159.45 E.01351
G1 X100.848 Y159.104 E.01384
G1 X100.743 Y158.459 E.02435
G1 X100.743 Y156.743 E.0639
G1 X100.842 Y156.116 E.02364
G1 X100.927 Y155.879 E.00937
G1 X101.024 Y155.682 E.00817
G1 X101.438 Y155.15 E.02512
G1 X101.592 Y155.016 E.0076
G1 X101.857 Y154.839 E.01188
G1 X102.173 Y154.689 E.01302
G1 X102.47 Y154.602 E.01155
G1 X102.831 Y154.56 E.01351
G1 X102.863 Y155.012 F9000
G1 F900
G1 X114.998 Y155.007 E.452
G1 X117.072 Y155.003 E.07723
G1 X117.428 Y155.052 E.01338
G1 X117.805 Y155.182 E.01489
G1 X118.037 Y155.307 E.00981
G1 X118.296 Y155.524 E.01257
G1 X118.512 Y155.795 E.01292
G1 X118.664 Y156.084 E.01217
G1 X118.711 Y156.214 E.00513
G1 X118.793 Y156.647 E.01642
G1 X118.774 Y158.698 E.07639
G1 X118.68 Y159.069 E.01427
G1 X118.488 Y159.455 E.01605
G1 X118.368 Y159.611 E.00733
G1 X118.16 Y159.828 E.01121
G1 X117.868 Y160.042 E.01348
G1 X117.444 Y160.22 E.01711
G1 X116.962 Y160.3 E.01823
G1 X103.038 Y160.3 E.51858
G1 X102.557 Y160.221 E.01816
G1 X102.348 Y160.151 E.00821
G1 X101.971 Y159.931 E.01628
G1 X101.669 Y159.658 E.01514
G1 X101.518 Y159.47 E.00898
G1 X101.377 Y159.219 E.01072
G1 X101.272 Y158.934 E.01131
G1 X101.2 Y158.47 E.0175
G1 X101.2 Y156.732 E.06471
G1 X101.272 Y156.271 E.01738
G1 X101.333 Y156.088 E.00719
G1 X101.44 Y155.872 E.00899
G1 X101.741 Y155.492 E.01807
G1 X101.839 Y155.401 E.00497
G1 X102.119 Y155.214 E.01257
G1 X102.309 Y155.125 E.00778
G1 X102.519 Y155.056 E.00824
G1 X102.823 Y155.017 E.01142
G1 X102.854 Y155.469 F9000
G1 F900
G1 X114.999 Y155.464 E.45233
G1 X117.082 Y155.46 E.0776
G1 X117.265 Y155.479 E.00686
G1 X117.666 Y155.618 E.01581
G1 X117.811 Y155.704 E.00626
G1 X117.947 Y155.818 E.00663
G1 X118.102 Y155.996 E.00876
G1 X118.264 Y156.305 E.01301
G1 X118.336 Y156.633 E.01253
G1 X118.331 Y158.59 E.07286
G1 X118.271 Y158.866 E.01052
G1 X118.125 Y159.177 E.01282
G1 X118.043 Y159.29 E.00518
G1 X117.821 Y159.521 E.01193
G1 X117.688 Y159.622 E.00621
G1 X117.369 Y159.77 E.01312
G1 X116.973 Y159.843 E.015
G1 X103.027 Y159.843 E.51941
G1 X102.632 Y159.77 E.01496
G1 X102.499 Y159.72 E.00531
G1 X102.207 Y159.539 E.01279
G1 X101.979 Y159.321 E.01174
G1 X101.878 Y159.188 E.00621
G1 X101.777 Y158.998 E.00803
G1 X101.7 Y158.775 E.00881
G1 X101.657 Y158.48 E.01107
G1 X101.657 Y156.722 E.06549
G1 X101.701 Y156.428 E.01106
G1 X101.769 Y156.225 E.00797
G1 X101.848 Y156.077 E.00626
G1 X102.097 Y155.778 E.01446
G1 X102.304 Y155.632 E.00945
G1 X102.51 Y155.535 E.00848
G1 X102.658 Y155.492 E.00574
G1 X102.814 Y155.474 E.00587
G1 X102.847 Y155.926 F9000
G1 F900
G1 X114.999 Y155.921 E.45263
G1 X117.09 Y155.917 E.07788
M73 P1 R59
G1 X117.221 Y155.934 E.00493
G1 X117.508 Y156.046 E.01146
G1 X117.66 Y156.175 E.00744
G1 X117.751 Y156.288 E.00542
G1 X117.853 Y156.506 E.00894
G1 X117.886 Y156.714 E.00784
G1 X117.886 Y158.485 E.06599
G1 X117.822 Y158.778 E.01116
G1 X117.719 Y158.967 E.00801
G1 X117.484 Y159.213 E.01268
G1 X117.279 Y159.322 E.00864
G1 X116.985 Y159.386 E.01119
G1 X103.015 Y159.386 E.52035
G1 X102.722 Y159.322 E.01116
M73 P2 R59
G1 X102.533 Y159.219 E.00801
G1 X102.287 Y158.984 E.01268
G1 X102.176 Y158.774 E.00883
G1 X102.136 Y158.639 E.00526
G1 X102.114 Y158.49 E.0056
G1 X102.114 Y156.712 E.06624
G1 X102.13 Y156.585 E.00475
G1 X102.206 Y156.36 E.00884
G1 X102.373 Y156.142 E.01024
G1 X102.487 Y156.051 E.00542
G1 X102.713 Y155.945 E.00931
G1 X102.807 Y155.932 E.00353
G1 X102.837 Y156.383 F9000
G1 F900
G1 X114.999 Y156.378 E.45299
G1 X117.099 Y156.375 E.07822
G1 X117.21 Y156.403 E.00426
G1 X117.295 Y156.45 E.00361
G1 X117.404 Y156.586 E.00652
G1 X117.429 Y156.703 E.00444
G1 X117.429 Y158.5 E.06693
G1 X117.382 Y158.658 E.00614
G1 X117.232 Y158.832 E.00855
G1 X117.158 Y158.882 E.00332
G1 X117 Y158.929 E.00614
G1 X103 Y158.929 E.52145
G1 X102.842 Y158.882 E.00614
G1 X102.668 Y158.732 E.00855
G1 X102.618 Y158.658 E.00332
G1 X102.571 Y158.5 E.00614
G1 X102.571 Y156.703 E.06693
G1 X102.6 Y156.592 E.00426
G1 X102.647 Y156.508 E.00361
G1 X102.784 Y156.399 E.00652
G1 X102.799 Y156.394 E.00058
G1 E-3.5 F3600
;WIPE_START
G1 F900
G1 X103.799 Y156.393 E-1.5
;WIPE_END
G1 Z.6 F9000
G1 X102.917 Y135.739 Z.6
G1 Z.2
G1 E5 F2400
G1 F900
G1 X102.268 Y135.692 E.02423
G1 X101.645 Y135.553 E.02377
G1 X100.801 Y135.197 E.03411
G1 X100.182 Y134.802 E.02737
G1 X99.703 Y134.377 E.02386
G1 X99.291 Y133.885 E.0239
G1 X98.957 Y133.341 E.02378
G1 X98.628 Y132.499 E.03366
G1 X98.497 Y131.872 E.02386
G1 X98.458 Y131.289 E.02175
G1 X98.458 Y128.711 E.09602
G1 X98.506 Y128.063 E.02422
G1 X98.646 Y127.441 E.02377
G1 X99.003 Y126.597 E.03411
G1 X99.4 Y125.979 E.02737
G1 X99.826 Y125.5 E.02386
G1 X100.319 Y125.089 E.0239
G1 X100.864 Y124.756 E.02378
G1 X101.706 Y124.429 E.03367
G1 X102.333 Y124.299 E.02386
G1 X102.916 Y124.261 E.02176
G1 X117.083 Y124.261 E.52766
G1 X117.732 Y124.308 E.02423
G1 X118.355 Y124.447 E.02377
G1 X119.199 Y124.803 E.03411
G1 X119.818 Y125.198 E.02737
G1 X120.297 Y125.623 E.02386
G1 X120.709 Y126.115 E.0239
G1 X121.043 Y126.66 E.0238
G1 X121.357 Y127.449 E.03163
G1 X121.503 Y128.129 E.02589
G1 X121.542 Y128.711 E.02172
G1 X121.542 Y131.289 E.09602
G1 X121.494 Y131.937 E.02422
G1 X121.354 Y132.559 E.02377
G1 X120.997 Y133.403 E.03411
G1 X120.6 Y134.021 E.02737
G1 X120.174 Y134.5 E.02386
G1 X119.681 Y134.911 E.0239
G1 X119.136 Y135.244 E.02378
G1 X118.294 Y135.571 E.03367
G1 X117.667 Y135.701 E.02386
G1 X117.084 Y135.739 E.02176
G1 X102.957 Y135.739 E.52617
G1 X102.957 Y135.282 F9000
G1 F900
G1 X102.938 Y135.282 E.00069
G1 X102.345 Y135.24 E.02216
G1 X101.774 Y135.111 E.02181
G1 X101.025 Y134.796 E.03025
G1 X100.468 Y134.442 E.02461
