; HEADER_BLOCK_START
; generated by OrcaSlicer 2.3.2 on 2026-06-05 at 14:46:23
; total layer number: 83
; filament_density: 1.24
; filament_diameter: 1.75
; max_z_height: 10.04
; filament: 1
; HEADER_BLOCK_END

; THUMBNAIL_BLOCK_START

;
; THUMBNAIL_BLOCK_END

; THUMBNAIL_BLOCK_START

;
; THUMBNAIL_BLOCK_END

; external perimeters extrusion width = 0.40mm
; perimeters extrusion width = 0.45mm
; infill extrusion width = 0.45mm
; solid infill extrusion width = 0.40mm
; top infill extrusion width = 0.40mm
; first layer extrusion width = 0.50mm

; EXECUTABLE_BLOCK_START
M73 P0 R72
M201 X500 Y500 Z500 E5000
M203 X500 Y500 Z10 E60
M204 P500 R1000 T500
M205 X8.00 Y8.00 Z0.40 E5.00 ; sets the jerk limits, mm/sec
;TYPE:Custom
G90 ; use absolute coordinates
M83 ; extruder relative mode
M140 S60 ; set final bed temp
M104 S150 ; set temporary nozzle temp to prevent oozing during homing
G4 S10 ; allow partial nozzle warmup
G28 ; home all axis
G1 Z50 F240
G1 X2 Y10 F3000
M73 P0 R71
M104 S220 ; set final nozzle temp
M190 S60 ; wait for bed temp to stabilize
M109 S220 ; wait for nozzle temp to stabilize
G1 Z0.28 F240
G92 E0
G1 Y140 E10 F1500 ; prime the nozzle
G1 X2.3 F5000
G92 E0
G1 Y10 E10 F1200 ; prime the nozzle
G92 E0
G90
G21
M83 ; use relative distances for extrusion
; filament start gcode
M106 S0
;LAYER_CHANGE
;Z:0.2
;HEIGHT:0.2
;BEFORE_LAYER_CHANGE
;0.2
G92 E0

G1 E-5 F3600
;_SET_FAN_SPEED_CHANGING_LAYER
M204 S500
G1 Z.6 F9000
G1 X87.019 Y93.355
G1 Z.6
G1 Z.2
G1 E5 F2400
;TYPE:Skirt
;WIDTH:0.5
G1 F3000
G1 X135.675 Y93.394 E1.81227
G1 X136.267 Y93.549 E.02276
G1 X137.211 Y94.246 E.04374
G1 X137.781 Y95.207 E.04162
G1 X137.905 Y95.945 E.02785
G1 X137.897 Y124.001 E1.04497
G1 X137.749 Y124.839 E.0317
G1 X137.034 Y125.937 E.0488
G1 X136.089 Y126.499 E.04096
G1 X135.25 Y126.647 E.03172
G1 X84.75 Y126.647 E1.88093
G1 X83.733 Y126.451 E.03856
G1 X82.789 Y125.754 E.04374
G1 X82.598 Y125.512 E.01148
G1 X82.219 Y124.793 E.03028
G1 X82.095 Y124.055 E.02785
G1 X82.103 Y95.999 E1.04497
G1 X82.251 Y95.161 E.0317
G1 X82.966 Y94.063 E.0488
G1 X83.911 Y93.501 E.04096
G1 X84.75 Y93.353 E.03172
G1 X86.979 Y93.355 E.08302
; printing object BasePlate.stl id:720576387062527073 copy 0
G1 E-3.8 F3600
;WIPE_START
G1 F3000
G1 X87.979 Y93.356 E-1.2
;WIPE_END
G1 Z.6 F9000
G1 X85.517 Y96.768 Z.6
G1 Z.2
G1 E5 F2400
;TYPE:Inner wall
;WIDTH:0.499999
G1 F900
G1 X134.491 Y96.768 E1.82406
G1 X134.483 Y123.232 E.98571
M73 P1 R71
G1 X85.509 Y123.232 E1.82406
G1 X85.517 Y96.808 E.98422
G1 X85.06 Y96.311 F9000
G1 F900
G1 X134.948 Y96.311 E1.85811
G1 X134.94 Y123.689 E1.01976
G1 X85.052 Y123.689 E1.85811
G1 X85.06 Y96.351 E1.01827
G1 X84.613 Y95.921 F9000
;TYPE:Outer wall
G1 F900
G1 X84.783 Y95.832 E.00718
G1 X135.289 Y95.832 E1.88116
G1 X135.426 Y96.019 E.00862
G1 X135.418 Y123.935 E1.0398
G1 X135.387 Y124.079 E.00545
G1 X135.217 Y124.168 E.00718
G1 X84.699 Y124.168 E1.88158
G1 X84.574 Y123.985 E.00826
M73 P1 R70
G1 X84.582 Y96.065 E1.03993
G1 X84.604 Y95.96 E.00396
G1 E-3.5 F3600
;WIPE_START
G1 F900
G1 X84.783 Y95.832 E-.33069
G1 X85.563 Y95.832 E-1.16931
;WIPE_END
G1 Z.6 F9000
G1 X134.353 Y97.829 Z.6
G1 Z.2
G1 E5 F2400
;TYPE:Bottom surface
;WIDTH:0.500033
G1 F1200
G1 X133.635 Y97.11 E.03783
G1 X132.989 Y97.11 E.02408
G1 X134.147 Y98.269 E.06104
G1 X134.147 Y98.915 E.02407
G1 X132.342 Y97.11 E.09508
G1 X131.696 Y97.11 E.02408
G1 X134.147 Y99.562 E.12913
G1 X134.147 Y100.208 E.02407
G1 X131.049 Y97.11 E.16317
G1 X130.403 Y97.11 E.02408
G1 X134.147 Y100.854 E.19721
G1 X134.146 Y101.5 E.02407
G1 X129.756 Y97.11 E.23126
G1 X129.11 Y97.11 E.02408
G1 X134.146 Y102.147 E.2653
G1 X134.146 Y102.793 E.02407
G1 X128.463 Y97.11 E.29934
G1 X127.817 Y97.11 E.02408
G1 X134.146 Y103.439 E.33339
G1 X134.146 Y104.085 E.02407
G1 X127.171 Y97.11 E.36743
G1 X126.524 Y97.11 E.02408
G1 X134.145 Y104.732 E.40147
G1 X134.145 Y105.378 E.02407
G1 X125.878 Y97.11 E.43552
G1 X125.231 Y97.11 E.02408
G1 X134.145 Y106.024 E.46956
G1 X134.145 Y106.671 E.02407
G1 X124.585 Y97.11 E.50361
G1 X123.938 Y97.11 E.02408
G1 X134.145 Y107.317 E.53765
G1 X134.144 Y107.963 E.02407
G1 X123.292 Y97.11 E.57169
G1 X122.645 Y97.11 E.02408
G1 X134.144 Y108.609 E.60574
G1 X134.144 Y109.256 E.02407
G1 X121.999 Y97.11 E.63978
G1 X121.352 Y97.11 E.02408
G1 X134.144 Y109.902 E.67382
G1 X134.144 Y110.548 E.02407
G1 X120.706 Y97.11 E.70787
G1 X120.06 Y97.11 E.02408
M73 P2 R70
G1 X134.143 Y111.194 E.74191
G1 X134.143 Y111.841 E.02407
G1 X119.413 Y97.11 E.77595
G1 X118.767 Y97.11 E.02408
G1 X134.143 Y112.487 E.81
G1 X134.143 Y113.133 E.02407
G1 X118.12 Y97.11 E.84404
G1 X117.474 Y97.11 E.02408
G1 X134.143 Y113.779 E.87808
G1 X134.142 Y114.426 E.02407
G1 X116.827 Y97.11 E.91213
G1 X116.181 Y97.11 E.02408
G1 X134.142 Y115.072 E.94617
G1 X134.142 Y115.718 E.02407
G1 X115.534 Y97.11 E.98022
G1 X114.888 Y97.11 E.02408
G1 X134.142 Y116.364 E1.01426
G1 X134.142 Y117.011 E.02407
G1 X114.241 Y97.11 E1.0483
G1 X113.595 Y97.11 E.02408
G1 X134.141 Y117.657 E1.08235
G1 X134.141 Y118.303 E.02407
G1 X112.949 Y97.11 E1.11639
G1 X112.302 Y97.11 E.02408
G1 X134.141 Y118.949 E1.15043
G1 X134.141 Y119.596 E.02407
G1 X111.656 Y97.11 E1.18448
G1 X111.009 Y97.11 E.02408
G1 X134.141 Y120.242 E1.21852
G1 X134.14 Y120.888 E.02407
G1 X110.363 Y97.11 E1.25256
G1 X109.716 Y97.11 E.02408
G1 X134.14 Y121.534 E1.28661
G1 X134.14 Y122.181 E.02407
G1 X109.07 Y97.11 E1.32065
G1 X108.423 Y97.11 E.02408
G1 X134.14 Y122.827 E1.35469
G1 X134.14 Y122.89 E.00233
G1 X133.556 Y122.89 E.02175
G1 X107.777 Y97.11 E1.35799
G1 X107.13 Y97.11 E.02408
G1 X132.91 Y122.89 E1.35799
G1 X132.263 Y122.89 E.02408
G1 X106.484 Y97.11 E1.35799
G1 X105.838 Y97.11 E.02408
G1 X131.617 Y122.89 E1.35799
G1 X130.97 Y122.89 E.02408
G1 X105.191 Y97.11 E1.35799
G1 X104.545 Y97.11 E.02408
G1 X130.324 Y122.89 E1.35799
G1 X129.677 Y122.89 E.02408
G1 X103.898 Y97.11 E1.35799
G1 X103.252 Y97.11 E.02408
G1 X129.031 Y122.89 E1.35799
G1 X128.384 Y122.89 E.02408
M73 P2 R69
G1 X102.605 Y97.11 E1.35799
G1 X101.959 Y97.11 E.02408
M73 P3 R69
G1 X127.738 Y122.89 E1.35799
G1 X127.091 Y122.89 E.02408
G1 X101.312 Y97.11 E1.35799
G1 X100.666 Y97.11 E.02408
G1 X126.445 Y122.89 E1.35799
G1 X125.799 Y122.89 E.02408
G1 X100.019 Y97.11 E1.35799
G1 X99.373 Y97.11 E.02408
G1 X125.152 Y122.89 E1.35799
G1 X124.506 Y122.89 E.02408
G1 X98.727 Y97.11 E1.35799
G1 X98.08 Y97.11 E.02408
G1 X123.859 Y122.89 E1.35799
G1 X123.213 Y122.89 E.02408
G1 X97.434 Y97.11 E1.35799
G1 X96.787 Y97.11 E.02408
G1 X122.566 Y122.89 E1.35799
G1 X121.92 Y122.89 E.02408
G1 X96.141 Y97.11 E1.35799
G1 X95.494 Y97.11 E.02408
G1 X121.273 Y122.89 E1.35799
G1 X120.627 Y122.89 E.02408
G1 X94.848 Y97.11 E1.35799
G1 X94.201 Y97.11 E.02408
G1 X119.98 Y122.89 E1.35799
G1 X119.334 Y122.89 E.02408
G1 X93.555 Y97.11 E1.35799
G1 X92.908 Y97.11 E.02408
G1 X118.688 Y122.89 E1.35799
G1 X118.041 Y122.89 E.02408
G1 X92.262 Y97.11 E1.35799
G1 X91.616 Y97.11 E.02408
G1 X117.395 Y122.89 E1.35799
G1 X116.748 Y122.89 E.02408
G1 X90.969 Y97.11 E1.35799
G1 X90.323 Y97.11 E.02408
G1 X116.102 Y122.89 E1.35799
G1 X115.455 Y122.89 E.02408
G1 X89.676 Y97.11 E1.35799
G1 X89.03 Y97.11 E.02408
G1 X114.809 Y122.89 E1.35799
G1 X114.162 Y122.89 E.02408
G1 X88.383 Y97.11 E1.35799
G1 X87.737 Y97.11 E.02408
G1 X113.516 Y122.89 E1.35799
G1 X112.869 Y122.89 E.02408
M73 P4 R69
G1 X87.09 Y97.11 E1.35799
G1 X86.444 Y97.11 E.02408
G1 X112.223 Y122.89 E1.35799
G1 X111.577 Y122.89 E.02408
G1 X85.86 Y97.173 E1.35469
G1 X85.86 Y97.819 E.02407
G1 X110.93 Y122.89 E1.32064
G1 X110.284 Y122.89 E.02408
G1 X85.86 Y98.466 E1.2866
G1 X85.86 Y99.112 E.02407
G1 X109.637 Y122.89 E1.25256
G1 X108.991 Y122.89 E.02408
G1 X85.859 Y99.758 E1.21851
G1 X85.859 Y100.404 E.02407
G1 X108.344 Y122.89 E1.18447
G1 X107.698 Y122.89 E.02408
G1 X85.859 Y101.051 E1.15043
G1 X85.859 Y101.697 E.02407
M73 P4 R68
G1 X107.051 Y122.89 E1.11638
G1 X106.405 Y122.89 E.02408
G1 X85.859 Y102.343 E1.08234
G1 X85.858 Y102.989 E.02407
G1 X105.758 Y122.89 E1.0483
G1 X105.112 Y122.89 E.02408
G1 X85.858 Y103.636 E1.01425
G1 X85.858 Y104.282 E.02407
G1 X104.466 Y122.89 E.98021
G1 X103.819 Y122.89 E.02408
G1 X85.858 Y104.928 E.94616
G1 X85.858 Y105.574 E.02407
G1 X103.173 Y122.89 E.91212
G1 X102.526 Y122.89 E.02408
G1 X85.857 Y106.221 E.87808
G1 X85.857 Y106.867 E.02407
G1 X101.88 Y122.89 E.84403
G1 X101.233 Y122.89 E.02408
G1 X85.857 Y107.513 E.80999
G1 X85.857 Y108.16 E.02407
G1 X100.587 Y122.89 E.77595
G1 X99.94 Y122.89 E.02408
G1 X85.857 Y108.806 E.7419
G1 X85.856 Y109.452 E.02407
G1 X99.294 Y122.89 E.70786
G1 X98.647 Y122.89 E.02408
G1 X85.856 Y110.098 E.67382
G1 X85.856 Y110.745 E.02407
G1 X98.001 Y122.89 E.63977
G1 X97.354 Y122.89 E.02408
G1 X85.856 Y111.391 E.60573
G1 X85.856 Y112.037 E.02407
G1 X96.708 Y122.89 E.57169
G1 X96.062 Y122.89 E.02408
G1 X85.855 Y112.683 E.53764
G1 X85.855 Y113.33 E.02407
G1 X95.415 Y122.89 E.5036
G1 X94.769 Y122.89 E.02408
G1 X85.855 Y113.976 E.46955
G1 X85.855 Y114.622 E.02407
G1 X94.122 Y122.89 E.43551
G1 X93.476 Y122.89 E.02408
G1 X85.855 Y115.268 E.40147
G1 X85.854 Y115.915 E.02407
G1 X92.829 Y122.89 E.36742
G1 X92.183 Y122.89 E.02408
G1 X85.854 Y116.561 E.33338
G1 X85.854 Y117.207 E.02407
G1 X91.536 Y122.89 E.29934
G1 X90.89 Y122.89 E.02408
G1 X85.854 Y117.853 E.26529
G1 X85.854 Y118.5 E.02407
G1 X90.243 Y122.89 E.23125
G1 X89.597 Y122.89 E.02408
G1 X85.853 Y119.146 E.19721
G1 X85.853 Y119.792 E.02407
M73 P5 R68
G1 X88.951 Y122.89 E.16316
G1 X88.304 Y122.89 E.02408
G1 X85.853 Y120.438 E.12912
G1 X85.853 Y121.085 E.02407
G1 X87.658 Y122.89 E.09508
G1 X87.011 Y122.89 E.02408
G1 X85.853 Y121.731 E.06103
G1 X85.852 Y122.377 E.02407
G1 X86.57 Y123.095 E.03782
; stop printing object BasePlate.stl id:720576387062527073 copy 0
M106 S255
;LAYER_CHANGE
;Z:0.32
;HEIGHT:0.12
;BEFORE_LAYER_CHANGE
;0.32
G92 E0

G1 E-3.5 F3600
;WIPE_START
G1 F1200
G1 X85.863 Y122.388 E-1.5
;WIPE_END
;_SET_FAN_SPEED_CHANGING_LAYER
; printing object BasePlate.stl id:720576387062527073 copy 0
M204 S700
G1 Z.72 F9000
G1 X85.121 Y96.372 Z.72
G1 Z.32
G1 E5 F2400
M204 S500
;TYPE:Inner wall
;WIDTH:0.449999
G1 X134.878 Y96.372 E1.03209
G1 X134.879 Y123.629 E.56538
G1 X85.122 Y123.628 E1.03209
G1 X85.121 Y96.412 E.56452
M204 S700
G1 X84.728 Y95.983 F9000
M204 S500
G1 F2400
G1 X84.841 Y95.948 E.00246
G1 X135.253 Y95.948 E1.04567
G1 X135.302 Y96.061 E.00256
G1 X135.304 Y123.898 E.5774
G1 X135.271 Y124.021 E.00264
G1 X135.173 Y124.054 E.00214
G1 X84.747 Y124.052 E1.04596
G1 X84.698 Y123.948 E.00239
G1 X84.696 Y96.119 E.57725
G1 X84.719 Y96.022 E.00205
G1 X84.483 Y95.628 F9000
;TYPE:Outer wall
;WIDTH:0.399999
G1 F1080
G1 X84.778 Y95.536 E.00565
G1 X85.625 Y95.536 E.0155
G1 X134.428 Y95.536 E.89299
G1 X135.279 Y95.536 E.01557
G1 X135.509 Y95.633 E.00457
G1 X135.686 Y95.85 E.00512
G1 X135.714 Y96.061 E.00389
G1 X135.714 Y96.908 E.0155
G1 X135.716 Y123.05 E.47834
G1 X135.716 Y123.898 E.01552
G1 X135.648 Y124.194 E.00556
G1 X135.516 Y124.373 E.00407
G1 X135.24 Y124.466 E.00533
G1 X134.393 Y124.466 E.0155
G1 X85.663 Y124.464 E.89165
G1 X84.817 Y124.464 E.01548
G1 X84.576 Y124.429 E.00446
G1 X84.366 Y124.234 E.00524
G1 X84.286 Y123.983 E.00482
G1 X84.286 Y123.137 E.01548
G1 X84.284 Y96.966 E.47887
G1 X84.284 Y96.119 E.0155
G1 X84.353 Y95.804 E.0059
G1 X84.459 Y95.66 E.00327
M204 S700
G1 E-3.5 F3600
;WIPE_START
G1 F1080
G1 X84.778 Y95.536 E-.51402
G1 X85.436 Y95.536 E-.98598
;WIPE_END
G1 Z.72 F9000
G1 X132.375 Y123.496 Z.72
G1 Z.32
G1 E5 F2400
M204 S500
;TYPE:Internal solid infill
;WIDTH:0.400537
M106 S255
G1 X134.578 Y121.294 E.05707
G1 X134.578 Y120.764 E.00971
G1 X132.014 Y123.328 E.06644
G1 X131.484 Y123.328 E.00971
G1 X134.578 Y120.234 E.08017
G1 X134.577 Y119.704 E.00971
G1 X130.954 Y123.328 E.0939
G1 X130.424 Y123.328 E.00971
G1 X134.577 Y119.174 E.10764
G1 X134.577 Y118.644 E.00971
G1 X129.894 Y123.328 E.12137
G1 X129.364 Y123.328 E.00971
G1 X134.577 Y118.114 E.13511
G1 X134.577 Y117.584 E.00971
G1 X128.834 Y123.328 E.14884
G1 X128.304 Y123.327 E.00971
G1 X134.577 Y117.054 E.16257
G1 X134.577 Y116.524 E.00971
G1 X127.774 Y123.327 E.17631
G1 X127.244 Y123.327 E.00971
G1 X134.577 Y115.994 E.19004
G1 X134.577 Y115.464 E.00971
G1 X126.714 Y123.327 E.20378
G1 X126.184 Y123.327 E.00971
G1 X134.577 Y114.934 E.21751
G1 X134.577 Y114.404 E.00971
G1 X125.654 Y123.327 E.23124
G1 X125.124 Y123.327 E.00971
G1 X134.577 Y113.874 E.24498
G1 X134.577 Y113.344 E.00971
G1 X124.594 Y123.327 E.25871
G1 X124.064 Y123.327 E.00971
G1 X134.577 Y112.814 E.27245
G1 X134.577 Y112.284 E.00971
G1 X123.534 Y123.327 E.28618
G1 X123.004 Y123.327 E.00971
G1 X134.577 Y111.754 E.29992
G1 X134.577 Y111.224 E.00971
G1 X122.474 Y123.327 E.31365
G1 X121.944 Y123.327 E.00971
G1 X134.577 Y110.694 E.32738
G1 X134.577 Y110.164 E.00971
G1 X121.414 Y123.327 E.34112
G1 X120.884 Y123.327 E.00971
G1 X134.577 Y109.634 E.35485
G1 X134.577 Y109.104 E.00971
G1 X120.354 Y123.327 E.36859
G1 X119.824 Y123.327 E.00971
G1 X134.577 Y108.574 E.38232
G1 X134.577 Y108.044 E.00971
G1 X119.294 Y123.327 E.39605
G1 X118.764 Y123.327 E.00971
G1 X134.577 Y107.514 E.40979
G1 X134.577 Y106.984 E.00971
G1 X118.234 Y123.327 E.42352
G1 X117.704 Y123.327 E.00971
G1 X134.577 Y106.454 E.43726
G1 X134.577 Y105.924 E.00971
G1 X117.174 Y123.327 E.45099
G1 X116.644 Y123.327 E.00971
M73 P5 R67
G1 X134.577 Y105.394 E.46472
G1 X134.577 Y104.864 E.00971
G1 X116.114 Y123.327 E.47846
G1 X115.584 Y123.327 E.00971
G1 X134.577 Y104.334 E.49219
G1 X134.577 Y103.804 E.00971
G1 X115.054 Y123.327 E.50593
G1 X114.524 Y123.327 E.00971
G1 X134.577 Y103.274 E.51966
G1 X134.577 Y102.744 E.00971
G1 X113.994 Y123.327 E.53339
G1 X113.463 Y123.327 E.00971
G1 X134.577 Y102.214 E.54713
G1 X134.577 Y101.684 E.00971
G1 X112.933 Y123.327 E.56086
G1 X112.403 Y123.327 E.00971
G1 X134.576 Y101.154 E.5746
G1 X134.576 Y100.624 E.00971
G1 X111.873 Y123.327 E.58833
G1 X111.343 Y123.327 E.00971
G1 X134.576 Y100.094 E.60206
G1 X134.576 Y99.564 E.00971
G1 X110.813 Y123.327 E.6158
G1 X110.283 Y123.327 E.00971
G1 X134.576 Y99.034 E.62953
G1 X134.576 Y98.504 E.00971
M73 P6 R67
G1 X109.753 Y123.327 E.64327
G1 X109.223 Y123.327 E.00971
G1 X134.576 Y97.974 E.657
G1 X134.576 Y97.444 E.00971
G1 X108.693 Y123.327 E.67073
G1 X108.163 Y123.327 E.00971
G1 X134.576 Y96.914 E.68447
G1 X134.576 Y96.674 E.0044
G1 X134.286 Y96.674 E.00531
G1 X107.633 Y123.327 E.69069
G1 X107.103 Y123.327 E.00971
G1 X133.756 Y96.674 E.69069
G1 X133.226 Y96.674 E.00971
G1 X106.573 Y123.327 E.69069
G1 X106.043 Y123.327 E.00971
G1 X132.696 Y96.674 E.69069
G1 X132.166 Y96.674 E.00971
G1 X105.513 Y123.327 E.69069
G1 X104.983 Y123.327 E.00971
G1 X131.636 Y96.674 E.69069
G1 X131.106 Y96.674 E.00971
G1 X104.453 Y123.327 E.69069
G1 X103.923 Y123.327 E.00971
G1 X130.576 Y96.674 E.69069
G1 X130.046 Y96.674 E.00971
G1 X103.393 Y123.327 E.69069
G1 X102.863 Y123.327 E.00971
G1 X129.516 Y96.674 E.69069
G1 X128.986 Y96.674 E.00971
G1 X102.333 Y123.327 E.69069
G1 X101.803 Y123.327 E.00971
G1 X128.456 Y96.674 E.69069
G1 X127.926 Y96.674 E.00971
G1 X101.273 Y123.327 E.69069
G1 X100.743 Y123.327 E.00971
G1 X127.396 Y96.674 E.69069
G1 X126.866 Y96.674 E.00971
G1 X100.213 Y123.327 E.69069
G1 X99.683 Y123.327 E.00971
G1 X126.336 Y96.674 E.69069
G1 X125.806 Y96.674 E.00971
G1 X99.153 Y123.327 E.69069
G1 X98.623 Y123.327 E.00971
G1 X125.276 Y96.674 E.69069
G1 X124.746 Y96.674 E.00971
G1 X98.093 Y123.327 E.69069
G1 X97.563 Y123.327 E.00971
G1 X124.216 Y96.674 E.69069
G1 X123.686 Y96.674 E.00971
G1 X97.033 Y123.327 E.69069
G1 X96.503 Y123.327 E.00971
G1 X123.156 Y96.674 E.69069
G1 X122.626 Y96.674 E.00971
G1 X95.973 Y123.327 E.69069
G1 X95.443 Y123.327 E.00971
G1 X122.096 Y96.674 E.69069
G1 X121.566 Y96.674 E.00971
G1 X94.913 Y123.327 E.69068
G1 X94.383 Y123.326 E.00971
G1 X121.036 Y96.674 E.69068
G1 X120.506 Y96.674 E.00971
G1 X93.853 Y123.326 E.69068
G1 X93.323 Y123.326 E.00971
G1 X119.976 Y96.674 E.69068
G1 X119.446 Y96.674 E.00971
G1 X92.793 Y123.326 E.69068
G1 X92.263 Y123.326 E.00971
G1 X118.916 Y96.674 E.69068
G1 X118.386 Y96.674 E.00971
G1 X91.733 Y123.326 E.69068
G1 X91.203 Y123.326 E.00971
G1 X117.856 Y96.674 E.69068
G1 X117.326 Y96.674 E.00971
G1 X90.673 Y123.326 E.69068
