; HEADER_BLOCK_START
; generated by OrcaSlicer 2.3.2 on 2026-06-01 at 10:23:42
; total layer number: 49
; filament_density: 1.24
; filament_diameter: 1.75
; max_z_height: 9.80
; filament: 1
; HEADER_BLOCK_END

; THUMBNAIL_BLOCK_START

;
; THUMBNAIL_BLOCK_END

; THUMBNAIL_BLOCK_START

;
; THUMBNAIL_BLOCK_END

; external perimeters extrusion width = 0.40mm
; perimeters extrusion width = 0.45mm
; infill extrusion width = 0.45mm
; solid infill extrusion width = 0.40mm
; top infill extrusion width = 0.40mm
; first layer extrusion width = 0.50mm

; EXECUTABLE_BLOCK_START
M73 P0 R31
M201 X500 Y500 Z500 E5000
M203 X500 Y500 Z10 E60
M204 P500 R1000 T500
M205 X8.00 Y8.00 Z0.40 E5.00 ; sets the jerk limits, mm/sec
;TYPE:Custom
G90 ; use absolute coordinates
M83 ; extruder relative mode
M140 S60 ; set final bed temp
M104 S150 ; set temporary nozzle temp to prevent oozing during homing
G4 S10 ; allow partial nozzle warmup
G28 ; home all axis
G1 Z50 F240
G1 X2 Y10 F3000
M73 P0 R30
M104 S220 ; set final nozzle temp
M190 S60 ; wait for bed temp to stabilize
M109 S220 ; wait for nozzle temp to stabilize
G1 Z0.28 F240
G92 E0
G1 Y140 E10 F1500 ; prime the nozzle
M73 P1 R30
G1 X2.3 F5000
G92 E0
G1 Y10 E10 F1200 ; prime the nozzle
G92 E0
G90
G21
M83 ; use relative distances for extrusion
; filament start gcode
M106 S0
;LAYER_CHANGE
;Z:0.2
;HEIGHT:0.2
;BEFORE_LAYER_CHANGE
;0.2
G92 E0

G1 E-5 F3600
;_SET_FAN_SPEED_CHANGING_LAYER
M204 S500
G1 Z.6 F9000
G1 X92.071 Y96.707
G1 Z.6
M73 P2 R30
G1 Z.2
G1 E5 F2400
;TYPE:Skirt
;WIDTH:0.5
G1 F3000
G1 X129.362 Y96.707 E1.38895
G1 X130.623 Y97.098 E.04917
G1 X131.442 Y98.134 E.04917
G1 X131.591 Y98.936 E.03037
G1 X131.591 Y121.064 E.8242
G1 X131.2 Y122.325 E.04917
G1 X130.164 Y123.144 E.04917
G1 X129.362 Y123.293 E.03037
G1 X90.638 Y123.293 E1.44235
G1 X89.377 Y122.902 E.04917
G1 X88.558 Y121.866 E.04917
G1 X88.409 Y121.064 E.03037
G1 X88.409 Y98.936 E.8242
G1 X88.8 Y97.675 E.04917
G1 X89.836 Y96.856 E.04917
G1 X90.638 Y96.707 E.03037
G1 X92.031 Y96.707 E.05192
; printing object Base-Body.stl id:720576387062527073 copy 0
G1 E-3.8 F3600
;WIPE_START
G1 F3000
G1 X93.031 Y96.707 E-1.2
;WIPE_END
G1 Z.6 F9000
G1 X128.177 Y119.879 Z.6
G1 Z.2
G1 E5 F2400
;TYPE:Inner wall
;WIDTH:0.499999
G1 F900
G1 X91.823 Y119.879 E1.35403
G1 X91.823 Y100.121 E.73588
G1 X128.177 Y100.121 E1.35403
G1 X128.177 Y119.839 E.73439
G1 X128.634 Y120.336 F9000
G1 F900
G1 X91.366 Y120.336 E1.38808
G1 X91.366 Y99.664 E.76993
G1 X128.634 Y99.664 E1.38808
G1 X128.634 Y120.296 E.76844
M73 P3 R30
G1 X129.112 Y120.814 F9000
;TYPE:Outer wall
G1 F900
G1 X90.888 Y120.814 E1.42373
G1 X90.888 Y99.186 E.80558
G1 X129.112 Y99.186 E1.42373
G1 X129.112 Y120.774 E.80409
G1 E-3.5 F3600
;WIPE_START
G1 F900
G1 X128.112 Y120.775 E-1.5
;WIPE_END
G1 Z.6 F9000
G1 X127.115 Y100.259 Z.6
G1 Z.2
G1 E5 F2400
M73 P3 R29
;TYPE:Bottom surface
;WIDTH:0.500513
G1 F1200
G1 X127.834 Y100.978 E.03794
G1 X127.834 Y101.625 E.02413
G1 X126.673 Y100.464 E.06121
G1 X126.026 Y100.464 E.02413
G1 X127.834 Y102.272 E.09534
G1 X127.834 Y102.919 E.02413
G1 X125.379 Y100.464 E.12947
G1 X124.732 Y100.464 E.02413
G1 X127.834 Y103.566 E.16359
G1 X127.834 Y104.214 E.02413
G1 X124.085 Y100.464 E.19772
G1 X123.437 Y100.464 E.02413
G1 X127.834 Y104.861 E.23184
G1 X127.834 Y105.508 E.02413
G1 X122.79 Y100.464 E.26597
G1 X122.143 Y100.464 E.02413
G1 X127.834 Y106.155 E.30009
G1 X127.834 Y106.802 E.02413
G1 X121.496 Y100.464 E.33422
G1 X120.849 Y100.464 E.02413
G1 X127.834 Y107.449 E.36834
G1 X127.834 Y108.096 E.02413
G1 X120.202 Y100.464 E.40247
G1 X119.555 Y100.464 E.02413
G1 X127.834 Y108.744 E.43659
G1 X127.834 Y109.391 E.02413
G1 X118.908 Y100.464 E.47072
G1 X118.26 Y100.464 E.02413
G1 X127.834 Y110.038 E.50485
G1 X127.834 Y110.685 E.02413
G1 X117.613 Y100.464 E.53897
G1 X116.966 Y100.464 E.02413
G1 X127.834 Y111.332 E.5731
G1 X127.834 Y111.979 E.02413
M73 P4 R29
G1 X116.319 Y100.464 E.60722
G1 X115.672 Y100.464 E.02413
G1 X127.834 Y112.626 E.64135
G1 X127.834 Y113.273 E.02413
G1 X115.025 Y100.464 E.67547
G1 X114.378 Y100.464 E.02413
G1 X127.834 Y113.921 E.7096
G1 X127.834 Y114.568 E.02413
G1 X113.73 Y100.464 E.74372
G1 X113.083 Y100.464 E.02413
G1 X127.834 Y115.215 E.77785
G1 X127.834 Y115.862 E.02413
G1 X112.436 Y100.464 E.81197
G1 X111.789 Y100.464 E.02413
G1 X127.834 Y116.509 E.8461
G1 X127.834 Y117.156 E.02413
G1 X111.142 Y100.464 E.88023
G1 X110.495 Y100.464 E.02413
G1 X127.834 Y117.803 E.91435
G1 X127.834 Y118.451 E.02413
G1 X109.848 Y100.464 E.94848
G1 X109.201 Y100.464 E.02413
G1 X127.834 Y119.098 E.9826
G1 X127.834 Y119.536 E.01634
G1 X127.625 Y119.536 E.00779
G1 X108.553 Y100.464 E1.00571
G1 X107.906 Y100.464 E.02413
G1 X126.978 Y119.536 E1.00571
G1 X126.331 Y119.536 E.02413
G1 X107.259 Y100.464 E1.00571
G1 X106.612 Y100.464 E.02413
G1 X125.684 Y119.536 E1.00571
G1 X125.036 Y119.536 E.02413
M73 P5 R29
G1 X105.965 Y100.464 E1.00571
G1 X105.318 Y100.464 E.02413
G1 X124.389 Y119.536 E1.00571
G1 X123.742 Y119.536 E.02413
G1 X104.671 Y100.464 E1.00571
G1 X104.023 Y100.464 E.02413
G1 X123.095 Y119.536 E1.00571
G1 X122.448 Y119.536 E.02413
G1 X103.376 Y100.464 E1.00571
G1 X102.729 Y100.464 E.02413
G1 X121.801 Y119.536 E1.00571
G1 X121.154 Y119.536 E.02413
G1 X102.082 Y100.464 E1.00571
G1 X101.435 Y100.464 E.02413
G1 X120.506 Y119.536 E1.00571
G1 X119.859 Y119.536 E.02413
G1 X100.788 Y100.464 E1.00571
G1 X100.141 Y100.464 E.02413
G1 X119.212 Y119.536 E1.00571
G1 X118.565 Y119.536 E.02413
G1 X99.493 Y100.464 E1.00571
G1 X98.846 Y100.464 E.02413
G1 X117.918 Y119.536 E1.00571
G1 X117.271 Y119.536 E.02413
G1 X98.199 Y100.464 E1.00571
G1 X97.552 Y100.464 E.02413
M73 P6 R29
G1 X116.624 Y119.536 E1.00571
G1 X115.977 Y119.536 E.02413
G1 X96.905 Y100.464 E1.00571
G1 X96.258 Y100.464 E.02413
G1 X115.329 Y119.536 E1.00571
G1 X114.682 Y119.536 E.02413
G1 X95.611 Y100.464 E1.00571
G1 X94.964 Y100.464 E.02413
G1 X114.035 Y119.536 E1.00571
G1 X113.388 Y119.536 E.02413
G1 X94.316 Y100.464 E1.00571
G1 X93.669 Y100.464 E.02413
G1 X112.741 Y119.536 E1.00571
G1 X112.094 Y119.536 E.02413
G1 X93.022 Y100.464 E1.00571
G1 X92.375 Y100.464 E.02413
G1 X111.447 Y119.536 E1.00571
G1 X110.799 Y119.536 E.02413
G1 X92.166 Y100.902 E.9826
G1 X92.166 Y101.55 E.02413
G1 X110.152 Y119.536 E.94848
G1 X109.505 Y119.536 E.02413
M73 P6 R28
G1 X92.166 Y102.197 E.91435
G1 X92.166 Y102.844 E.02413
G1 X108.858 Y119.536 E.88022
G1 X108.211 Y119.536 E.02413
G1 X92.166 Y103.491 E.8461
G1 X92.166 Y104.138 E.02413
M73 P7 R28
G1 X107.564 Y119.536 E.81197
G1 X106.917 Y119.536 E.02413
G1 X92.166 Y104.785 E.77785
G1 X92.166 Y105.432 E.02413
G1 X106.27 Y119.536 E.74372
G1 X105.622 Y119.536 E.02413
G1 X92.166 Y106.079 E.7096
G1 X92.166 Y106.727 E.02413
G1 X104.975 Y119.536 E.67547
G1 X104.328 Y119.536 E.02413
G1 X92.166 Y107.374 E.64135
G1 X92.166 Y108.021 E.02413
G1 X103.681 Y119.536 E.60722
G1 X103.034 Y119.536 E.02413
G1 X92.166 Y108.668 E.5731
G1 X92.166 Y109.315 E.02413
G1 X102.387 Y119.536 E.53897
G1 X101.74 Y119.536 E.02413
G1 X92.166 Y109.962 E.50484
G1 X92.166 Y110.609 E.02413
G1 X101.092 Y119.536 E.47072
G1 X100.445 Y119.536 E.02413
G1 X92.166 Y111.257 E.43659
G1 X92.166 Y111.904 E.02413
G1 X99.798 Y119.536 E.40247
G1 X99.151 Y119.536 E.02413
G1 X92.166 Y112.551 E.36834
G1 X92.166 Y113.198 E.02413
G1 X98.504 Y119.536 E.33422
G1 X97.857 Y119.536 E.02413
G1 X92.166 Y113.845 E.30009
G1 X92.166 Y114.492 E.02413
G1 X97.21 Y119.536 E.26597
G1 X96.563 Y119.536 E.02413
G1 X92.166 Y115.139 E.23184
G1 X92.166 Y115.786 E.02413
G1 X95.915 Y119.536 E.19771
G1 X95.268 Y119.536 E.02413
G1 X92.166 Y116.434 E.16359
G1 X92.166 Y117.081 E.02413
G1 X94.621 Y119.536 E.12946
G1 X93.974 Y119.536 E.02413
G1 X92.166 Y117.728 E.09534
G1 X92.166 Y118.375 E.02413
G1 X93.327 Y119.536 E.06121
G1 X92.68 Y119.536 E.02413
G1 X91.96 Y118.816 E.03793
; stop printing object Base-Body.stl id:720576387062527073 copy 0
M106 S255
;LAYER_CHANGE
;Z:0.4
;HEIGHT:0.2
;BEFORE_LAYER_CHANGE
;0.4
G92 E0

G1 E-3.5 F3600
;WIPE_START
G1 F1200
G1 X92.667 Y119.524 E-1.5
;WIPE_END
;_SET_FAN_SPEED_CHANGING_LAYER
; printing object Base-Body.stl id:720576387062527073 copy 0
M204 S700
G1 Z.8 F9000
G1 X128.352 Y120.054 Z.8
G1 Z.4
G1 E5 F2400
M204 S500
;TYPE:Inner wall
;WIDTH:0.449999
G1 X91.648 Y120.054 E1.21752
G1 X91.648 Y99.946 E.66699
G1 X128.352 Y99.946 E1.21752
G1 X128.352 Y120.014 E.66566
M73 P8 R28
M204 S700
G1 X128.759 Y120.461 F9000
M204 S500
G1 F2400
G1 X91.241 Y120.461 E1.24453
G1 X91.241 Y99.539 E.694
G1 X128.759 Y99.539 E1.24453
G1 X128.759 Y120.421 E.69267
G1 X129.162 Y120.864 F9000
;TYPE:Outer wall
;WIDTH:0.399999
G1 F1500
G1 X90.838 Y120.864 E1.11515
G1 X90.838 Y99.136 E.63224
G1 X129.162 Y99.136 E1.11515
G1 X129.162 Y120.824 E.63108
M204 S700
G1 E-3.5 F3600
;WIPE_START
G1 F1500
G1 X128.162 Y120.825 E-1.5
;WIPE_END
G1 Z.8 F9000
G1 X126.681 Y119.672 Z.8
G1 Z.4
G1 E5 F2400
M204 S500
;TYPE:Internal solid infill
G1 X127.97 Y119.672 E.03749
G1 X127.97 Y118.383 E.03749
G1 X126.71 Y119.643 E.05185
M204 S700
G1 X125.972 Y119.926 F9000
M204 S500
;WIDTH:0.400672
G1 F2400
G1 X128.063 Y117.835 E.08622
G1 X128.063 Y117.329 E.01475
G1 X125.627 Y119.765 E.10045
G1 X125.121 Y119.765 E.01475
G1 X128.063 Y116.823 E.12131
G1 X128.063 Y116.317 E.01475
G1 X124.615 Y119.765 E.14217
G1 X124.109 Y119.765 E.01475
G1 X128.063 Y115.811 E.16303
G1 X128.063 Y115.305 E.01475
G1 X123.603 Y119.765 E.18388
G1 X123.097 Y119.765 E.01475
G1 X128.063 Y114.799 E.20474
G1 X128.063 Y114.293 E.01475
G1 X122.591 Y119.765 E.2256
G1 X122.085 Y119.765 E.01475
G1 X128.063 Y113.787 E.24646
G1 X128.063 Y113.281 E.01475
G1 X121.579 Y119.765 E.26732
G1 X121.073 Y119.765 E.01475
G1 X128.063 Y112.775 E.28818
G1 X128.063 Y112.269 E.01475
G1 X120.567 Y119.765 E.30904
G1 X120.062 Y119.765 E.01475
G1 X128.063 Y111.763 E.32989
G1 X128.063 Y111.257 E.01475
G1 X119.556 Y119.765 E.35075
G1 X119.05 Y119.765 E.01475
G1 X128.063 Y110.751 E.37161
G1 X128.063 Y110.246 E.01475
G1 X118.544 Y119.765 E.39247
G1 X118.038 Y119.765 E.01475
G1 X128.063 Y109.74 E.41333
G1 X128.063 Y109.234 E.01475
G1 X117.532 Y119.765 E.43419
G1 X117.026 Y119.765 E.01475
G1 X128.063 Y108.728 E.45505
G1 X128.063 Y108.222 E.01475
G1 X116.52 Y119.765 E.4759
G1 X116.014 Y119.765 E.01475
G1 X128.063 Y107.716 E.49676
G1 X128.063 Y107.21 E.01475
G1 X115.508 Y119.765 E.51762
G1 X115.002 Y119.765 E.01475
G1 X128.063 Y106.704 E.53848
G1 X128.063 Y106.198 E.01475
G1 X114.496 Y119.765 E.55934
G1 X113.99 Y119.765 E.01475
G1 X128.063 Y105.692 E.5802
G1 X128.063 Y105.186 E.01475
G1 X113.484 Y119.765 E.60106
G1 X112.978 Y119.765 E.01475
M73 P9 R28
G1 X128.063 Y104.68 E.62191
G1 X128.063 Y104.174 E.01475
G1 X112.472 Y119.765 E.64277
G1 X111.967 Y119.765 E.01475
G1 X128.063 Y103.668 E.66363
G1 X128.063 Y103.162 E.01475
G1 X111.461 Y119.765 E.68449
G1 X110.955 Y119.765 E.01475
G1 X128.063 Y102.656 E.70535
G1 X128.063 Y102.151 E.01475
G1 X110.449 Y119.765 E.72621
G1 X109.943 Y119.765 E.01475
G1 X128.063 Y101.645 E.74707
G1 X128.063 Y101.139 E.01475
G1 X109.437 Y119.765 E.76792
G1 X108.931 Y119.765 E.01475
G1 X128.063 Y100.633 E.78878
G1 X128.063 Y100.235 E.0116
G1 X127.955 Y100.235 E.00315
G1 X108.425 Y119.765 E.80519
G1 X107.919 Y119.765 E.01475
G1 X127.449 Y100.235 E.80519
G1 X126.943 Y100.235 E.01475
G1 X107.413 Y119.765 E.80519
G1 X106.907 Y119.765 E.01475
G1 X126.437 Y100.235 E.80519
G1 X125.932 Y100.235 E.01475
G1 X106.401 Y119.765 E.80519
G1 X105.895 Y119.765 E.01475
G1 X125.426 Y100.235 E.80519
G1 X124.92 Y100.235 E.01475
G1 X105.389 Y119.765 E.80519
G1 X104.883 Y119.765 E.01475
G1 X124.414 Y100.235 E.80519
G1 X123.908 Y100.235 E.01475
G1 X104.377 Y119.765 E.80519
G1 X103.872 Y119.765 E.01475
G1 X123.402 Y100.235 E.80519
G1 X122.896 Y100.235 E.01475
G1 X103.366 Y119.765 E.80519
G1 X102.86 Y119.765 E.01475
G1 X122.39 Y100.235 E.80519
G1 X121.884 Y100.235 E.01475
G1 X102.354 Y119.765 E.80519
G1 X101.848 Y119.765 E.01475
G1 X121.378 Y100.235 E.80519
G1 X120.872 Y100.235 E.01475
G1 X101.342 Y119.765 E.80519
G1 X100.836 Y119.765 E.01475
G1 X120.366 Y100.235 E.80519
G1 X119.86 Y100.235 E.01475
M73 P10 R27
G1 X100.33 Y119.765 E.80519
G1 X99.824 Y119.765 E.01475
G1 X119.354 Y100.235 E.80519
G1 X118.848 Y100.235 E.01475
G1 X99.318 Y119.765 E.80519
G1 X98.812 Y119.765 E.01475
G1 X118.342 Y100.235 E.80519
G1 X117.836 Y100.235 E.01475
G1 X98.306 Y119.765 E.80519
G1 X97.8 Y119.765 E.01475
G1 X117.331 Y100.235 E.80519
G1 X116.825 Y100.235 E.01475
G1 X97.294 Y119.765 E.80519
G1 X96.788 Y119.765 E.01475
G1 X116.319 Y100.235 E.80519
G1 X115.813 Y100.235 E.01475
G1 X96.282 Y119.765 E.80519
G1 X95.776 Y119.765 E.01475
G1 X115.307 Y100.235 E.80519
G1 X114.801 Y100.235 E.01475
G1 X95.271 Y119.765 E.80519
G1 X94.765 Y119.765 E.01475
G1 X114.295 Y100.235 E.80519
G1 X113.789 Y100.235 E.01475
G1 X94.259 Y119.765 E.80519
G1 X93.753 Y119.765 E.01475
G1 X113.283 Y100.235 E.80519
G1 X112.777 Y100.235 E.01475
G1 X93.247 Y119.765 E.80519
G1 X92.741 Y119.765 E.01475
G1 X112.271 Y100.235 E.80519
G1 X111.765 Y100.235 E.01475
G1 X92.235 Y119.765 E.80519
G1 X91.937 Y119.765 E.00869
G1 X91.937 Y119.557 E.00605
G1 X111.259 Y100.235 E.79662
G1 X110.753 Y100.235 E.01475
G1 X91.937 Y119.052 E.77577
G1 X91.937 Y118.546 E.01475
G1 X110.247 Y100.235 E.75491
G1 X109.741 Y100.235 E.01475
G1 X91.937 Y118.04 E.73405
G1 X91.937 Y117.534 E.01475
G1 X109.236 Y100.235 E.71319
G1 X108.73 Y100.235 E.01475
G1 X91.937 Y117.028 E.69233
G1 X91.937 Y116.522 E.01475
G1 X108.224 Y100.235 E.67147
G1 X107.718 Y100.235 E.01475
G1 X91.937 Y116.016 E.65061
G1 X91.937 Y115.51 E.01475
M73 P11 R27
G1 X107.212 Y100.235 E.62976
G1 X106.706 Y100.235 E.01475
G1 X91.937 Y115.004 E.6089
G1 X91.937 Y114.498 E.01475
G1 X106.2 Y100.235 E.58804
G1 X105.694 Y100.235 E.01475
G1 X91.937 Y113.992 E.56718
G1 X91.937 Y113.486 E.01475
G1 X105.188 Y100.235 E.54632
G1 X104.682 Y100.235 E.01475
G1 X91.937 Y112.98 E.52546
G1 X91.937 Y112.474 E.01475
G1 X104.176 Y100.235 E.5046
G1 X103.67 Y100.235 E.01475
G1 X91.937 Y111.968 E.48375
G1 X91.937 Y111.462 E.01475
G1 X103.164 Y100.235 E.46289
G1 X102.658 Y100.235 E.01475
G1 X91.937 Y110.957 E.44203
G1 X91.937 Y110.451 E.01475
G1 X102.152 Y100.235 E.42117
G1 X101.646 Y100.235 E.01475
G1 X91.937 Y109.945 E.40031
G1 X91.937 Y109.439 E.01475
G1 X101.141 Y100.235 E.37945
G1 X100.635 Y100.235 E.01475
G1 X91.937 Y108.933 E.35859
G1 X91.937 Y108.427 E.01475
G1 X100.129 Y100.235 E.33774
G1 X99.623 Y100.235 E.01475
G1 X91.937 Y107.921 E.31688
G1 X91.937 Y107.415 E.01475
G1 X99.117 Y100.235 E.29602
G1 X98.611 Y100.235 E.01475
G1 X91.937 Y106.909 E.27516
G1 X91.937 Y106.403 E.01475
G1 X98.105 Y100.235 E.2543
G1 X97.599 Y100.235 E.01475
G1 X91.937 Y105.897 E.23344
G1 X91.937 Y105.391 E.01475
G1 X97.093 Y100.235 E.21258
G1 X96.587 Y100.235 E.01475
G1 X91.937 Y104.885 E.19173
G1 X91.937 Y104.379 E.01475
G1 X96.081 Y100.235 E.17087
G1 X95.575 Y100.235 E.01475
G1 X91.937 Y103.873 E.15001
G1 X91.937 Y103.367 E.01475
G1 X95.069 Y100.235 E.12915
G1 X94.563 Y100.235 E.01475
G1 X91.937 Y102.862 E.10829
G1 X91.937 Y102.356 E.01475
G1 X94.057 Y100.235 E.08743
G1 X93.551 Y100.235 E.01475
G1 X91.937 Y101.85 E.06657
G1 X91.937 Y101.344 E.01475
G1 X93.046 Y100.235 E.04572
G1 X92.54 Y100.235 E.01475
G1 X91.776 Y100.998 E.03148
; stop printing object Base-Body.stl id:720576387062527073 copy 0
;LAYER_CHANGE
;Z:0.6
;HEIGHT:0.2
;BEFORE_LAYER_CHANGE
;0.6
G92 E0

G1 E-3.5 F3600
;WIPE_START
G1 F2400
G1 X92.483 Y100.291 E-1.5
;WIPE_END
;_SET_FAN_SPEED_CHANGING_LAYER
; printing object Base-Body.stl id:720576387062527073 copy 0
M204 S700
G1 Z1 F9000
G1 X128.352 Y120.054 Z1
G1 Z.6
G1 E5 F2400
M204 S500
;TYPE:Inner wall
;WIDTH:0.449999
G1 X91.648 Y120.054 E1.21752
G1 X91.648 Y99.946 E.66699
G1 X128.352 Y99.946 E1.21752
G1 X128.352 Y120.014 E.66566
M204 S700
G1 X128.759 Y120.461 F9000
M204 S500
G1 F2400
G1 X91.241 Y120.461 E1.24453
G1 X91.241 Y99.539 E.694
G1 X128.759 Y99.539 E1.24453
G1 X128.759 Y120.421 E.69267
G1 X129.162 Y120.864 F9000
;TYPE:Outer wall
;WIDTH:0.399999
G1 F1500
G1 X90.838 Y120.864 E1.11515
G1 X90.838 Y99.136 E.63224
M73 P12 R27
G1 X129.162 Y99.136 E1.11515
G1 X129.162 Y120.824 E.63108
M204 S700
G1 E-3.5 F3600
