; HEADER_BLOCK_START
; generated by OrcaSlicer 2.3.2 on 2026-06-02 at 14:34:53
; total layer number: 44
; filament_density: 1.24
; filament_diameter: 1.75
; max_z_height: 9.95
; filament: 1
; HEADER_BLOCK_END

; THUMBNAIL_BLOCK_START

;
; THUMBNAIL_BLOCK_END

; THUMBNAIL_BLOCK_START

;
; THUMBNAIL_BLOCK_END

; external perimeters extrusion width = 0.40mm
; perimeters extrusion width = 0.45mm
; infill extrusion width = 0.45mm
; solid infill extrusion width = 0.40mm
; top infill extrusion width = 0.45mm
; first layer extrusion width = 0.50mm

; EXECUTABLE_BLOCK_START
M73 P0 R28
M201 X500 Y500 Z500 E5000
M203 X500 Y500 Z10 E60
M204 P500 R1000 T500
M205 X8.00 Y8.00 Z0.40 E5.00 ; sets the jerk limits, mm/sec
;TYPE:Custom
G90 ; use absolute coordinates
M83 ; extruder relative mode
M140 S60 ; set final bed temp
M104 S150 ; set temporary nozzle temp to prevent oozing during homing
G4 S10 ; allow partial nozzle warmup
G28 ; home all axis
G1 Z50 F240
G1 X2 Y10 F3000
M73 P0 R27
M104 S220 ; set final nozzle temp
M190 S60 ; wait for bed temp to stabilize
M109 S220 ; wait for nozzle temp to stabilize
G1 Z0.28 F240
G92 E0
G1 Y140 E10 F1500 ; prime the nozzle
M73 P1 R27
G1 X2.3 F5000
G92 E0
G1 Y10 E10 F1200 ; prime the nozzle
G92 E0
G90
G21
M83 ; use relative distances for extrusion
; filament start gcode
M106 S0
;LAYER_CHANGE
;Z:0.2
;HEIGHT:0.2
;BEFORE_LAYER_CHANGE
;0.2
G92 E0

G1 E-5 F3600
M73 P2 R27
;_SET_FAN_SPEED_CHANGING_LAYER
M204 S500
G1 Z.6 F9000
G1 X93.392 Y93.557
G1 Z.6
G1 Z.2
G1 E5 F2400
;TYPE:Skirt
;WIDTH:0.5
G1 F3000
G1 X94.198 Y92.921 E.03826
G1 X95 Y92.771 E.03037
G1 X125 Y92.771 E1.11739
G1 X126.261 Y93.162 E.04917
G1 X127.079 Y94.198 E.04917
G1 X127.229 Y95 E.03037
G1 X127.229 Y125 E1.11739
G1 X126.838 Y126.261 E.04917
G1 X125.802 Y127.079 E.04917
G1 X125 Y127.229 E.03037
G1 X95 Y127.229 E1.11739
G1 X93.739 Y126.838 E.04917
G1 X92.921 Y125.802 E.04917
G1 X92.771 Y125 E.03037
G1 X92.771 Y95 E1.11739
G1 X93.162 Y93.739 E.04917
G1 X93.361 Y93.582 E.00943
; printing object Base_Body.stl id:720576387062527073 copy 0
G1 E-3.8 F3600
;WIPE_START
G1 F3000
G1 X94.146 Y92.962 E-1.2
;WIPE_END
G1 Z.6 F9000
G1 X123.814 Y123.814 Z.6
G1 Z.2
G1 E5 F2400
;TYPE:Inner wall
;WIDTH:0.499999
G1 F900
G1 X96.186 Y123.814 E1.02907
G1 X96.186 Y96.186 E1.02907
G1 X123.814 Y96.186 E1.02907
G1 X123.814 Y123.774 E1.02758
G1 X124.271 Y124.271 F9000
G1 F900
G1 X95.729 Y124.271 E1.06311
G1 X95.729 Y95.729 E1.06311
M73 P3 R27
G1 X124.271 Y95.729 E1.06311
G1 X124.271 Y124.231 E1.06162
G1 X124.75 Y124.75 F9000
;TYPE:Outer wall
G1 F900
G1 X95.25 Y124.75 E1.09876
G1 X95.25 Y95.25 E1.09876
G1 X124.75 Y95.25 E1.09876
G1 X124.75 Y124.71 E1.09727
M73 P3 R26
G1 E-3.5 F3600
;WIPE_START
G1 F900
G1 X123.75 Y124.711 E-1.5
;WIPE_END
G1 Z.6 F9000
G1 X107.335 Y109.952 Z.6
G1 Z.2
G1 E5 F2400
;TYPE:Inner wall
G1 F900
G1 X107.367 Y109.493 E.01715
G1 X107.565 Y108.878 E.02407
G1 X107.904 Y108.328 E.02407
G1 X108.366 Y107.875 E.02407
G1 X108.922 Y107.545 E.02407
G1 X109.541 Y107.359 E.02407
G1 X110.186 Y107.325 E.02407
G1 X110.821 Y107.448 E.02407
G1 X111.408 Y107.718 E.02407
G1 X111.913 Y108.121 E.02407
G1 X112.307 Y108.634 E.02407
G1 X112.567 Y109.225 E.02407
G1 X112.678 Y109.862 E.02407
G1 X112.633 Y110.507 E.02407
G1 X112.435 Y111.122 E.02407
G1 X112.096 Y111.672 E.02407
G1 X111.634 Y112.125 E.02407
M73 P4 R26
G1 X111.078 Y112.455 E.02407
G1 X110.459 Y112.641 E.02407
G1 X109.814 Y112.675 E.02407
G1 X109.179 Y112.552 E.02407
G1 X108.592 Y112.282 E.02407
G1 X108.087 Y111.879 E.02407
G1 X107.693 Y111.366 E.02407
G1 X107.433 Y110.775 E.02407
G1 X107.322 Y110.138 E.02407
G1 X107.333 Y109.992 E.00543
G1 X107.785 Y109.976 F9000
G1 F900
G1 X107.821 Y109.548 E.01601
G1 X107.992 Y109.04 E.01998
G1 X108.281 Y108.587 E.01998
G1 X108.669 Y108.217 E.01998
G1 X109.134 Y107.95 E.01998
G1 X109.65 Y107.802 E.01998
G1 X110.186 Y107.782 E.01998
G1 X110.711 Y107.891 E.01998
G1 X111.195 Y108.123 E.01998
G1 X111.61 Y108.463 E.01998
G1 X111.931 Y108.893 E.01998
G1 X112.139 Y109.388 E.01998
G1 X112.224 Y109.917 E.01998
G1 X112.179 Y110.452 E.01998
G1 X112.008 Y110.96 E.01998
G1 X111.719 Y111.413 E.01998
G1 X111.331 Y111.783 E.01998
G1 X110.866 Y112.05 E.01998
G1 X110.35 Y112.198 E.01998
G1 X109.814 Y112.218 E.01998
G1 X109.289 Y112.109 E.01998
G1 X108.805 Y111.877 E.01998
G1 X108.39 Y111.537 E.01998
G1 X108.069 Y111.107 E.01998
G1 X107.861 Y110.612 E.01998
G1 X107.776 Y110.083 E.01998
G1 X107.782 Y110.016 E.00248
G1 X108.252 Y110.014 F9000
;TYPE:Outer wall
G1 F900
G1 X108.308 Y109.557 E.01715
G1 X108.463 Y109.165 E.0157
G1 X108.708 Y108.822 E.0157
G1 X109.027 Y108.547 E.0157
G1 X109.403 Y108.356 E.0157
G1 X109.814 Y108.261 E.0157
G1 X110.236 Y108.267 E.0157
G1 X110.643 Y108.374 E.0157
G1 X111.014 Y108.575 E.0157
G1 X111.326 Y108.859 E.0157
G1 X111.56 Y109.209 E.0157
G1 X111.704 Y109.606 E.0157
G1 X111.749 Y110.025 E.0157
G1 X111.692 Y110.443 E.0157
G1 X111.537 Y110.835 E.0157
G1 X111.292 Y111.178 E.0157
G1 X110.973 Y111.453 E.0157
G1 X110.597 Y111.644 E.0157
G1 X110.186 Y111.739 E.0157
G1 X109.764 Y111.733 E.0157
G1 X109.357 Y111.626 E.0157
G1 X108.986 Y111.425 E.0157
G1 X108.674 Y111.141 E.0157
G1 X108.44 Y110.791 E.0157
G1 X108.296 Y110.394 E.0157
G1 X108.255 Y110.054 E.01277
G1 E-3.5 F3600
;WIPE_START
G1 F900
G1 X108.308 Y109.557 E-.74931
G1 X108.463 Y109.165 E-.63246
G1 X108.509 Y109.101 E-.11824
;WIPE_END
G1 Z.6 F9000
G1 X122.744 Y96.323 Z.6
G1 Z.2
G1 E5 F2400
;TYPE:Bottom surface
;WIDTH:0.504226
G1 F1200
G1 X123.472 Y97.05 E.03866
G1 X123.472 Y97.702 E.02452
G1 X122.298 Y96.528 E.06241
G1 X121.645 Y96.528 E.02452
G1 X123.472 Y98.355 E.09709
G1 X123.472 Y99.007 E.02452
G1 X120.993 Y96.528 E.13177
G1 X120.34 Y96.528 E.02452
G1 X123.472 Y99.66 E.16645
G1 X123.472 Y100.312 E.02452
G1 X119.688 Y96.528 E.20113
G1 X119.036 Y96.528 E.02452
G1 X123.472 Y100.964 E.23582
G1 X123.472 Y101.617 E.02452
G1 X118.383 Y96.528 E.2705
G1 X117.731 Y96.528 E.02452
G1 X123.472 Y102.269 E.30518
G1 X123.472 Y102.921 E.02452
G1 X117.079 Y96.528 E.33986
G1 X116.426 Y96.528 E.02452
G1 X123.472 Y103.574 E.37454
G1 X123.472 Y104.226 E.02452
G1 X115.774 Y96.528 E.40922
G1 X115.121 Y96.528 E.02452
G1 X123.472 Y104.879 E.44391
G1 X123.472 Y105.531 E.02452
G1 X114.469 Y96.528 E.47859
G1 X113.817 Y96.528 E.02452
G1 X123.472 Y106.183 E.51327
G1 X123.472 Y106.836 E.02452
G1 X113.164 Y96.528 E.54795
G1 X112.512 Y96.528 E.02452
G1 X123.472 Y107.488 E.58263
G1 X123.472 Y108.141 E.02452
G1 X111.859 Y96.528 E.61731
G1 X111.207 Y96.528 E.02452
G1 X123.472 Y108.793 E.65199
G1 X123.472 Y109.445 E.02452
G1 X110.555 Y96.528 E.68668
G1 X109.902 Y96.528 E.02452
G1 X123.472 Y110.098 E.72136
G1 X123.472 Y110.75 E.02452
G1 X109.25 Y96.528 E.75604
G1 X108.598 Y96.528 E.02452
G1 X123.472 Y111.402 E.79072
G1 X123.472 Y112.055 E.02452
G1 X107.945 Y96.528 E.8254
M73 P5 R26
G1 X107.293 Y96.528 E.02452
G1 X123.472 Y112.707 E.86008
G1 X123.472 Y113.36 E.02452
G1 X106.64 Y96.528 E.89477
G1 X105.988 Y96.528 E.02452
G1 X123.472 Y114.012 E.92945
G1 X123.472 Y114.664 E.02452
G1 X105.336 Y96.528 E.96413
G1 X104.683 Y96.528 E.02452
G1 X123.472 Y115.317 E.99881
G1 X123.472 Y115.969 E.02452
G1 X104.031 Y96.528 E1.03349
G1 X103.378 Y96.528 E.02452
G1 X123.472 Y116.622 E1.06817
G1 X123.472 Y117.274 E.02452
G1 X102.726 Y96.528 E1.10285
G1 X102.074 Y96.528 E.02452
G1 X123.472 Y117.926 E1.13754
G1 X123.472 Y118.579 E.02452
G1 X101.421 Y96.528 E1.17222
G1 X100.769 Y96.528 E.02452
G1 X123.472 Y119.231 E1.2069
G1 X123.472 Y119.883 E.02452
M73 P6 R26
G1 X112.954 Y109.366 E.55913
G1 X113.019 Y109.827 E.01749
G1 X113.019 Y110.083 E.00963
G1 X123.472 Y120.536 E.55568
G1 X123.472 Y121.188 E.02452
G1 X112.946 Y110.662 E.55956
G1 X112.89 Y110.891 E.00883
G1 X112.784 Y111.153 E.01064
G1 X123.472 Y121.841 E.56815
G1 X123.472 Y122.493 E.02452
G1 X112.563 Y111.584 E.57994
G1 X112.298 Y111.972 E.01764
G1 X123.472 Y123.145 E.59402
G1 X123.472 Y123.472 E.01226
G1 X123.145 Y123.472 E.01226
G1 X111.962 Y112.288 E.59451
G1 X111.858 Y112.386 E.00537
G1 X111.591 Y112.57 E.01218
G1 X122.493 Y123.472 E.57955
G1 X121.841 Y123.472 E.02452
G1 X111.159 Y112.79 E.56784
G1 X111.075 Y112.832 E.00354
G1 X110.653 Y112.936 E.01634
G1 X121.188 Y123.472 E.56006
G1 X120.536 Y123.472 E.02452
G1 X110.072 Y113.007 E.55629
G1 X109.635 Y113.007 E.0164
G1 X109.356 Y112.944 E.01077
G1 X120.089 Y123.677 E.57059
G1 E-3.5 F3600
;WIPE_START
G1 F1200
G1 X119.382 Y122.97 E-1.5
;WIPE_END
G1 Z.6 F9000
G1 X110.934 Y107.345 Z.6
G1 Z.2
G1 E5 F2400
G1 F1200
G1 X100.117 Y96.528 E.57505
G1 X99.464 Y96.528 E.02452
G1 X109.92 Y106.984 E.55586
G1 X109.559 Y107.004 E.01361
G1 X109.34 Y107.057 E.00845
G1 X98.812 Y96.528 E.55969
G1 X98.159 Y96.528 E.02452
G1 X108.842 Y107.211 E.56788
G1 X108.413 Y107.434 E.01818
G1 X97.507 Y96.528 E.57975
G1 X96.855 Y96.528 E.02452
G1 X108.038 Y107.712 E.59454
G1 X107.702 Y108.029 E.01735
G1 X96.528 Y96.855 E.59402
G1 X96.528 Y97.507 E.02452
G1 X107.437 Y108.416 E.57994
G1 X107.319 Y108.589 E.00788
M73 P7 R26
G1 X107.216 Y108.847 E.01043
G1 X96.528 Y98.159 E.56815
G1 X96.528 Y98.812 E.02452
G1 X107.054 Y109.338 E.55956
G1 X107.028 Y109.445 E.00415
G1 X106.981 Y109.917 E.01784
G1 X96.528 Y99.464 E.55568
G1 X96.528 Y100.117 E.02452
G1 X107.365 Y110.953 E.57608
G1 E-3.5 F3600
;WIPE_START
G1 F1200
G1 X106.658 Y110.246 E-1.5
;WIPE_END
G1 Z.6 F9000
G1 X96.323 Y100.563 Z.6
G1 Z.2
G1 E5 F2400
G1 F1200
G1 X119.231 Y123.472 E1.21783
G1 X118.579 Y123.472 E.02452
M73 P7 R25
G1 X96.528 Y101.421 E1.17222
G1 X96.528 Y102.074 E.02452
G1 X117.926 Y123.472 E1.13753
G1 X117.274 Y123.472 E.02452
G1 X96.528 Y102.726 E1.10285
G1 X96.528 Y103.378 E.02452
G1 X116.622 Y123.472 E1.06817
G1 X115.969 Y123.472 E.02452
G1 X96.528 Y104.031 E1.03349
G1 X96.528 Y104.683 E.02452
G1 X115.317 Y123.472 E.99881
G1 X114.664 Y123.472 E.02452
G1 X96.528 Y105.336 E.96413
G1 X96.528 Y105.988 E.02452
G1 X114.012 Y123.472 E.92944
G1 X113.36 Y123.472 E.02452
M73 P8 R25
G1 X96.528 Y106.64 E.89476
G1 X96.528 Y107.293 E.02452
G1 X112.707 Y123.472 E.86008
G1 X112.055 Y123.472 E.02452
G1 X96.528 Y107.945 E.8254
G1 X96.528 Y108.598 E.02452
G1 X111.402 Y123.472 E.79072
G1 X110.75 Y123.472 E.02452
G1 X96.528 Y109.25 E.75604
G1 X96.528 Y109.902 E.02452
G1 X110.098 Y123.472 E.72136
G1 X109.445 Y123.472 E.02452
G1 X96.528 Y110.555 E.68667
G1 X96.528 Y111.207 E.02452
G1 X108.793 Y123.472 E.65199
G1 X108.14 Y123.472 E.02452
G1 X96.528 Y111.86 E.61731
G1 X96.528 Y112.512 E.02452
G1 X107.488 Y123.472 E.58263
G1 X106.836 Y123.472 E.02452
G1 X96.528 Y113.164 E.54795
G1 X96.528 Y113.817 E.02452
G1 X106.183 Y123.472 E.51327
G1 X105.531 Y123.472 E.02452
G1 X96.528 Y114.469 E.47858
G1 X96.528 Y115.121 E.02452
G1 X104.879 Y123.472 E.4439
G1 X104.226 Y123.472 E.02452
G1 X96.528 Y115.774 E.40922
G1 X96.528 Y116.426 E.02452
G1 X103.574 Y123.472 E.37454
G1 X102.921 Y123.472 E.02452
G1 X96.528 Y117.079 E.33986
G1 X96.528 Y117.731 E.02452
G1 X102.269 Y123.472 E.30518
G1 X101.617 Y123.472 E.02452
G1 X96.528 Y118.383 E.2705
G1 X96.528 Y119.036 E.02452
G1 X100.964 Y123.472 E.23581
G1 X100.312 Y123.472 E.02452
M73 P9 R25
G1 X96.528 Y119.688 E.20113
G1 X96.528 Y120.341 E.02452
G1 X99.659 Y123.472 E.16645
G1 X99.007 Y123.472 E.02452
G1 X96.528 Y120.993 E.13177
G1 X96.528 Y121.645 E.02452
G1 X98.355 Y123.472 E.09709
G1 X97.702 Y123.472 E.02452
G1 X96.528 Y122.298 E.06241
G1 X96.528 Y122.95 E.02452
G1 X97.256 Y123.677 E.03866
; stop printing object Base_Body.stl id:720576387062527073 copy 0
M106 S255
;LAYER_CHANGE
;Z:0.44
;HEIGHT:0.24
;BEFORE_LAYER_CHANGE
;0.44
G92 E0

G1 E-3.5 F3600
;WIPE_START
G1 F1200
G1 X96.549 Y122.97 E-1.5
;WIPE_END
;_SET_FAN_SPEED_CHANGING_LAYER
; printing object Base_Body.stl id:720576387062527073 copy 0
M204 S700
G1 Z.84 F9000
G1 X124.002 Y124.002 Z.84
G1 Z.44
G1 E5 F2400
M204 S500
;TYPE:Inner wall
;WIDTH:0.449999
G1 X95.998 Y124.002 E1.09124
G1 X95.998 Y95.998 E1.09124
G1 X124.002 Y95.998 E1.09125
G1 X124.002 Y123.962 E1.08969
M204 S700
G1 X124.401 Y124.401 F9000
M204 S500
G1 F2400
G1 X95.599 Y124.401 E1.1223
G1 X95.599 Y95.599 E1.1223
G1 X124.401 Y95.599 E1.1223
G1 X124.401 Y124.361 E1.12074
G1 X124.8 Y124.8 F9000
;TYPE:Outer wall
;WIDTH:0.399999
G1 F1500
G1 X95.2 Y124.8 E1.00869
G1 X95.2 Y95.2 E1.00869
G1 X124.8 Y95.2 E1.00869
G1 X124.8 Y124.76 E1.00733
M204 S700
G1 E-3.5 F3600
;WIPE_START
G1 F1500
G1 X123.8 Y124.761 E-1.5
;WIPE_END
G1 Z.84 F9000
G1 X107.52 Y109.96 Z.84
G1 Z.44
G1 E5 F2400
M204 S500
;TYPE:Inner wall
;WIDTH:0.449999
G1 X107.554 Y109.515 E.01742
G1 X107.741 Y108.943 E.02343
G1 X108.06 Y108.433 E.02343
G1 X108.491 Y108.015 E.02343
G1 X109.01 Y107.711 E.02343
G1 X109.587 Y107.541 E.02344
G1 X110.208 Y107.516 E.02421
G1 X110.777 Y107.63 E.02262
G1 X111.321 Y107.885 E.02343
G1 X111.789 Y108.263 E.02343
G1 X112.153 Y108.741 E.02343
G1 X112.392 Y109.293 E.02343
G1 X112.491 Y109.886 E.02343
G1 X112.446 Y110.485 E.02343
G1 X112.259 Y111.057 E.02343
G1 X111.94 Y111.567 E.02343
G1 X111.509 Y111.985 E.02343
G1 X110.99 Y112.289 E.02343
G1 X110.414 Y112.459 E.02343
G1 X109.813 Y112.487 E.02343
G1 X109.223 Y112.37 E.02343
G1 X108.679 Y112.115 E.02343
G1 X108.211 Y111.737 E.02343
G1 X107.847 Y111.259 E.02343
G1 X107.608 Y110.707 E.02343
G1 X107.509 Y110.114 E.02343
G1 X107.517 Y110 E.00445
M204 S700
G1 X107.912 Y109.984 F9000
M204 S500
G1 F2400
G1 X107.949 Y109.563 E.0165
G1 X108.114 Y109.085 E.0197
G1 X108.388 Y108.66 E.0197
G1 X108.755 Y108.313 E.0197
G1 X109.195 Y108.064 E.0197
G1 X109.682 Y107.928 E.0197
G1 X110.204 Y107.915 E.02035
G1 X110.745 Y108.037 E.02161
G1 X111.194 Y108.273 E.01974
G1 X111.58 Y108.617 E.02016
G1 X111.886 Y109.085 E.02178
G1 X112.051 Y109.563 E.0197
G1 X112.096 Y110.066 E.0197
G1 X112.019 Y110.566 E.0197
G1 X111.825 Y111.032 E.0197
G1 X111.525 Y111.439 E.0197
G1 X111.136 Y111.762 E.0197
G1 X110.681 Y111.983 E.0197
G1 X110.187 Y112.088 E.0197
G1 X109.682 Y112.072 E.0197
G1 X109.195 Y111.936 E.0197
G1 X108.755 Y111.687 E.0197
G1 X108.388 Y111.34 E.0197
G1 X108.114 Y110.915 E.0197
G1 X107.949 Y110.437 E.0197
G1 X107.904 Y110.066 E.01458
G1 X107.908 Y110.024 E.00164
G1 X108.301 Y110.018 F9000
;TYPE:Outer wall
;WIDTH:0.399999
G1 F1500
G1 X108.354 Y109.576 E.01517
G1 X108.504 Y109.194 E.01396
G1 X108.74 Y108.86 E.01396
G1 X109.049 Y108.591 E.01396
G1 X109.414 Y108.405 E.01396
G1 X109.814 Y108.311 E.01401
G1 X110.235 Y108.318 E.01435
G1 X110.619 Y108.417 E.01352
G1 X110.98 Y108.612 E.01396
G1 X111.284 Y108.887 E.01396
G1 X111.513 Y109.226 E.01396
G1 X111.654 Y109.611 E.01396
G1 X111.699 Y110.018 E.01396
G1 X111.646 Y110.424 E.01396
G1 X111.496 Y110.806 E.01396
G1 X111.26 Y111.14 E.01396
G1 X110.951 Y111.409 E.01396
G1 X110.586 Y111.595 E.01396
G1 X110.187 Y111.689 E.01396
G1 X109.777 Y111.685 E.01396
G1 X109.381 Y111.583 E.01396
G1 X109.02 Y111.388 E.01396
G1 X108.716 Y111.113 E.01396
G1 X108.487 Y110.774 E.01396
G1 X108.346 Y110.389 E.01396
G1 X108.306 Y110.058 E.01139
M204 S700
G1 E-3.5 F3600
;WIPE_START
G1 F1500
G1 X108.354 Y109.576 E-.72618
G1 X108.504 Y109.194 E-.61452
G1 X108.565 Y109.108 E-.1593
;WIPE_END
G1 Z.84 F9000
G1 X121.61 Y123.877 Z.84
G1 Z.44
G1 E5 F2400
M204 S500
;TYPE:Internal solid infill
;WIDTH:0.40065
G1 X123.72 Y121.766 E.10192
G1 X123.72 Y121.273 E.01686
G1 X121.273 Y123.72 E.11818
G1 X120.779 Y123.72 E.01686
G1 X123.72 Y120.779 E.14203
G1 X123.72 Y120.285 E.01686
G1 X120.285 Y123.72 E.16587
G1 X119.791 Y123.72 E.01686
M73 P10 R25
G1 X123.72 Y119.791 E.18971
G1 X123.72 Y119.298 E.01686
G1 X119.298 Y123.72 E.21355
G1 X118.804 Y123.72 E.01686
G1 X123.72 Y118.804 E.23739
G1 X123.72 Y118.31 E.01686
G1 X118.31 Y123.72 E.26123
G1 X117.816 Y123.72 E.01686
G1 X123.72 Y117.816 E.28507
G1 X123.72 Y117.323 E.01686
G1 X117.323 Y123.72 E.30891
G1 X116.829 Y123.72 E.01686
G1 X123.72 Y116.829 E.33275
G1 X123.72 Y116.335 E.01686
G1 X116.335 Y123.72 E.35659
G1 X115.841 Y123.72 E.01686
G1 X123.72 Y115.841 E.38043
G1 X123.72 Y115.347 E.01686
G1 X115.347 Y123.72 E.40427
G1 X114.854 Y123.72 E.01686
G1 X123.72 Y114.854 E.42811
G1 X123.72 Y114.36 E.01686
G1 X114.36 Y123.72 E.45195
G1 X113.866 Y123.72 E.01686
G1 X123.72 Y113.866 E.47579
G1 X123.72 Y113.372 E.01686
G1 X113.372 Y123.72 E.49963
