; HEADER_BLOCK_START
; generated by OrcaSlicer 2.3.2 on 2026-06-05 at 20:49:02
; total layer number: 83
; filament_density: 1.24
; filament_diameter: 1.75
; max_z_height: 10.04
; filament: 1
; HEADER_BLOCK_END

; THUMBNAIL_BLOCK_START

;
; THUMBNAIL_BLOCK_END

; THUMBNAIL_BLOCK_START

;
; THUMBNAIL_BLOCK_END

; external perimeters extrusion width = 0.40mm
; perimeters extrusion width = 0.45mm
; infill extrusion width = 0.45mm
; solid infill extrusion width = 0.40mm
; top infill extrusion width = 0.40mm
; first layer extrusion width = 0.50mm

; EXECUTABLE_BLOCK_START
M73 P0 R68
M201 X500 Y500 Z500 E5000
M203 X500 Y500 Z10 E60
M204 P500 R1000 T500
M205 X8.00 Y8.00 Z0.40 E5.00 ; sets the jerk limits, mm/sec
;TYPE:Custom
G90 ; use absolute coordinates
M83 ; extruder relative mode
M140 S60 ; set final bed temp
M104 S150 ; set temporary nozzle temp to prevent oozing during homing
G4 S10 ; allow partial nozzle warmup
G28 ; home all axis
G1 Z50 F240
G1 X2 Y10 F3000
M73 P0 R67
M104 S220 ; set final nozzle temp
M190 S60 ; wait for bed temp to stabilize
M109 S220 ; wait for nozzle temp to stabilize
G1 Z0.28 F240
G92 E0
G1 Y140 E10 F1500 ; prime the nozzle
G1 X2.3 F5000
G92 E0
G1 Y10 E10 F1200 ; prime the nozzle
G92 E0
G90
G21
M83 ; use relative distances for extrusion
; filament start gcode
M106 S0
;LAYER_CHANGE
;Z:0.2
;HEIGHT:0.2
;BEFORE_LAYER_CHANGE
;0.2
G92 E0

G1 E-5 F3600
;_SET_FAN_SPEED_CHANGING_LAYER
M204 S500
G1 Z.6 F9000
G1 X88.221 Y93.344
G1 Z.6
G1 Z.2
G1 E5 F2400
;TYPE:Skirt
;WIDTH:0.5
G1 F3000
G1 X133.251 Y93.353 E1.67718
G1 X134.267 Y93.549 E.03853
G1 X135.211 Y94.246 E.04374
G1 X135.781 Y95.207 E.04162
G1 X135.905 Y95.945 E.02785
G1 X135.897 Y124.001 E1.04497
G1 X135.749 Y124.839 E.0317
G1 X135.034 Y125.937 E.0488
G1 X134.089 Y126.499 E.04096
G1 X133.251 Y126.647 E.0317
G1 X86.318 Y126.656 E1.74805
G1 X85.058 Y126.262 E.04917
M73 P1 R67
G1 X84.242 Y125.225 E.04917
G1 X84.094 Y124.432 E.03005
G1 X84.094 Y95.568 E1.07506
G1 X84.488 Y94.308 E.04917
G1 X85.525 Y93.492 E.04917
G1 X86.318 Y93.344 E.03005
G1 X88.181 Y93.344 E.06938
; printing object BasePlate.stl id:720576387062527073 copy 0
G1 E-3.8 F3600
;WIPE_START
G1 F3000
G1 X89.181 Y93.345 E-1.2
;WIPE_END
G1 Z.6 F9000
G1 X87.508 Y123.242 Z.6
G1 Z.2
G1 E5 F2400
;TYPE:Inner wall
;WIDTH:0.499999
G1 F900
G1 X87.508 Y96.759 E.98639
G1 X132.491 Y96.767 E1.67542
G1 X132.483 Y123.233 E.98572
G1 X87.548 Y123.241 E1.67363
G1 X87.051 Y123.699 F9000
G1 F900
G1 X87.051 Y96.301 E1.02044
G1 X132.948 Y96.311 E1.70947
G1 X132.94 Y123.689 E1.01976
G1 X87.091 Y123.699 E1.70767
G1 X86.573 Y124.177 F9000
M73 P1 R66
;TYPE:Outer wall
G1 F900
G1 X86.573 Y95.823 E1.0561
G1 X133.301 Y95.832 E1.74045
G1 X133.38 Y95.947 E.0052
G1 X133.426 Y96.097 E.00585
G1 X133.418 Y123.935 E1.03687
G1 X133.387 Y124.079 E.00545
G1 X133.217 Y124.168 E.00718
G1 X86.613 Y124.177 E1.73582
G1 E-3.5 F3600
;WIPE_START
G1 F900
G1 X86.611 Y123.177 E-1.5
;WIPE_END
G1 Z.6 F9000
G1 X131.422 Y96.904 Z.6
G1 Z.2
G1 E5 F2400
;TYPE:Bottom surface
;WIDTH:0.503507
G1 F1200
G1 X132.148 Y97.63 E.03852
G1 X132.147 Y98.281 E.02444
G1 X130.976 Y97.11 E.06217
G1 X130.325 Y97.11 E.02445
G1 X132.147 Y98.932 E.09674
G1 X132.147 Y99.584 E.02444
G1 X129.673 Y97.11 E.13131
G1 X129.022 Y97.11 E.02445
G1 X132.147 Y100.235 E.16588
G1 X132.147 Y100.886 E.02444
G1 X128.37 Y97.109 E.20045
G1 X127.719 Y97.109 E.02445
G1 X132.146 Y101.537 E.23502
G1 X132.146 Y102.188 E.02444
G1 X127.067 Y97.109 E.26959
G1 X126.416 Y97.109 E.02445
G1 X132.146 Y102.839 E.30416
G1 X132.146 Y103.491 E.02444
G1 X125.764 Y97.109 E.33873
G1 X125.113 Y97.109 E.02445
G1 X132.146 Y104.142 E.3733
G1 X132.145 Y104.793 E.02444
G1 X124.461 Y97.109 E.40787
G1 X123.81 Y97.109 E.02445
G1 X132.145 Y105.444 E.44244
G1 X132.145 Y106.095 E.02444
G1 X123.158 Y97.108 E.47701
G1 X122.507 Y97.108 E.02445
G1 X132.145 Y106.746 E.51158
G1 X132.145 Y107.398 E.02444
G1 X121.855 Y97.108 E.54615
G1 X121.204 Y97.108 E.02445
G1 X132.144 Y108.049 E.58072
G1 X132.144 Y108.7 E.02444
G1 X120.552 Y97.108 E.61529
G1 X119.901 Y97.108 E.02445
M73 P2 R66
G1 X132.144 Y109.351 E.64986
G1 X132.144 Y110.002 E.02444
G1 X119.249 Y97.108 E.68443
G1 X118.598 Y97.108 E.02445
G1 X132.144 Y110.654 E.719
G1 X132.143 Y111.305 E.02444
G1 X117.946 Y97.107 E.75357
G1 X117.295 Y97.107 E.02445
G1 X132.143 Y111.956 E.78814
G1 X132.143 Y112.607 E.02444
G1 X116.643 Y97.107 E.82271
G1 X115.992 Y97.107 E.02445
G1 X132.143 Y113.258 E.85728
G1 X132.143 Y113.909 E.02444
G1 X115.34 Y97.107 E.89185
G1 X114.689 Y97.107 E.02445
G1 X132.142 Y114.561 E.92642
G1 X132.142 Y115.212 E.02444
G1 X114.037 Y97.107 E.96099
G1 X113.386 Y97.107 E.02445
G1 X132.142 Y115.863 E.99556
G1 X132.142 Y116.514 E.02444
G1 X112.734 Y97.106 E1.03012
G1 X112.083 Y97.106 E.02445
G1 X132.142 Y117.165 E1.06469
G1 X132.141 Y117.816 E.02444
G1 X111.431 Y97.106 E1.09926
G1 X110.78 Y97.106 E.02445
G1 X132.141 Y118.468 E1.13383
G1 X132.141 Y119.119 E.02444
G1 X110.128 Y97.106 E1.1684
G1 X109.477 Y97.106 E.02445
G1 X132.141 Y119.77 E1.20297
G1 X132.141 Y120.421 E.02444
G1 X108.825 Y97.106 E1.23754
G1 X108.174 Y97.105 E.02445
G1 X132.14 Y121.072 E1.27211
G1 X132.14 Y121.723 E.02444
G1 X107.522 Y97.105 E1.30668
G1 X106.871 Y97.105 E.02445
G1 X132.14 Y122.375 E1.34125
G1 X132.14 Y122.89 E.01934
G1 X132.004 Y122.89 E.0051
G1 X106.219 Y97.105 E1.36861
G1 X105.568 Y97.105 E.02445
G1 X131.353 Y122.89 E1.36862
G1 X130.701 Y122.89 E.02444
G1 X104.916 Y97.105 E1.36864
G1 X104.265 Y97.105 E.02445
G1 X130.05 Y122.89 E1.36865
G1 X129.399 Y122.89 E.02444
G1 X103.613 Y97.105 E1.36866
G1 X102.962 Y97.104 E.02445
G1 X128.748 Y122.89 E1.36868
G1 X128.096 Y122.891 E.02444
M73 P3 R65
G1 X102.31 Y97.104 E1.36869
G1 X101.659 Y97.104 E.02445
G1 X127.445 Y122.891 E1.3687
G1 X126.794 Y122.891 E.02444
G1 X101.007 Y97.104 E1.36872
G1 X100.356 Y97.104 E.02445
G1 X126.143 Y122.891 E1.36873
G1 X125.492 Y122.891 E.02444
G1 X99.704 Y97.104 E1.36875
G1 X99.053 Y97.104 E.02445
G1 X124.84 Y122.891 E1.36876
G1 X124.189 Y122.891 E.02444
G1 X98.401 Y97.104 E1.36877
G1 X97.75 Y97.103 E.02445
G1 X123.538 Y122.891 E1.36879
G1 X122.887 Y122.892 E.02444
G1 X97.098 Y97.103 E1.3688
G1 X96.447 Y97.103 E.02445
G1 X122.235 Y122.892 E1.36881
G1 X121.584 Y122.892 E.02444
G1 X95.795 Y97.103 E1.36883
G1 X95.144 Y97.103 E.02445
G1 X120.933 Y122.892 E1.36884
G1 X120.282 Y122.892 E.02444
G1 X94.492 Y97.103 E1.36886
G1 X93.841 Y97.103 E.02445
G1 X119.63 Y122.892 E1.36887
G1 X118.979 Y122.892 E.02444
G1 X93.189 Y97.103 E1.36888
G1 X92.538 Y97.102 E.02445
G1 X118.328 Y122.893 E1.3689
G1 X117.677 Y122.893 E.02444
G1 X91.886 Y97.102 E1.36891
G1 X91.235 Y97.102 E.02445
G1 X117.025 Y122.893 E1.36892
G1 X116.374 Y122.893 E.02444
G1 X90.583 Y97.102 E1.36894
G1 X89.932 Y97.102 E.02445
G1 X115.723 Y122.893 E1.36895
G1 X115.072 Y122.893 E.02444
G1 X89.28 Y97.102 E1.36897
G1 X88.629 Y97.102 E.02445
G1 X114.42 Y122.893 E1.36898
G1 X113.769 Y122.893 E.02444
M73 P4 R65
G1 X87.977 Y97.101 E1.36899
G1 X87.851 Y97.101 E.00474
G1 X87.851 Y97.627 E.01971
G1 X113.118 Y122.894 E1.34112
G1 X112.467 Y122.894 E.02444
G1 X87.851 Y98.278 E1.30656
G1 X87.851 Y98.929 E.02445
G1 X111.816 Y122.894 E1.27199
G1 X111.164 Y122.894 E.02444
G1 X87.851 Y99.581 E1.23742
G1 X87.851 Y100.232 E.02445
G1 X110.513 Y122.894 E1.20286
G1 X109.862 Y122.894 E.02444
G1 X87.851 Y100.883 E1.16829
G1 X87.851 Y101.535 E.02445
G1 X109.211 Y122.894 E1.13373
G1 X108.559 Y122.894 E.02444
G1 X87.851 Y102.186 E1.09916
G1 X87.851 Y102.838 E.02445
G1 X107.908 Y122.895 E1.06459
G1 X107.257 Y122.895 E.02444
G1 X87.851 Y103.489 E1.03003
G1 X87.851 Y104.14 E.02445
M73 P4 R64
G1 X106.606 Y122.895 E.99546
G1 X105.954 Y122.895 E.02444
G1 X87.851 Y104.792 E.96089
G1 X87.851 Y105.443 E.02445
G1 X105.303 Y122.895 E.92633
G1 X104.652 Y122.895 E.02444
G1 X87.851 Y106.094 E.89176
G1 X87.851 Y106.746 E.02445
G1 X104.001 Y122.895 E.85719
G1 X103.349 Y122.896 E.02444
G1 X87.851 Y107.397 E.82263
G1 X87.851 Y108.049 E.02445
G1 X102.698 Y122.896 E.78806
G1 X102.047 Y122.896 E.02444
G1 X87.851 Y108.7 E.75349
G1 X87.851 Y109.351 E.02445
G1 X101.396 Y122.896 E.71893
G1 X100.744 Y122.896 E.02444
G1 X87.851 Y110.003 E.68436
G1 X87.851 Y110.654 E.02445
G1 X100.093 Y122.896 E.64979
G1 X99.442 Y122.896 E.02444
G1 X87.851 Y111.305 E.61523
G1 X87.851 Y111.957 E.02445
G1 X98.791 Y122.896 E.58066
G1 X98.14 Y122.897 E.02444
G1 X87.851 Y112.608 E.54609
G1 X87.851 Y113.259 E.02445
G1 X97.488 Y122.897 E.51153
G1 X96.837 Y122.897 E.02444
G1 X87.851 Y113.911 E.47696
G1 X87.851 Y114.562 E.02445
G1 X96.186 Y122.897 E.44239
G1 X95.535 Y122.897 E.02444
G1 X87.851 Y115.214 E.40783
G1 X87.851 Y115.865 E.02445
G1 X94.883 Y122.897 E.37326
G1 X94.232 Y122.897 E.02444
G1 X87.851 Y116.516 E.33869
G1 X87.851 Y117.168 E.02445
G1 X93.581 Y122.897 E.30413
G1 X92.93 Y122.898 E.02444
G1 X87.851 Y117.819 E.26956
G1 X87.851 Y118.47 E.02445
G1 X92.278 Y122.898 E.23499
G1 X91.627 Y122.898 E.02444
G1 X87.851 Y119.122 E.20043
G1 X87.851 Y119.773 E.02445
G1 X90.976 Y122.898 E.16586
G1 X90.325 Y122.898 E.02444
G1 X87.851 Y120.425 E.13129
G1 X87.851 Y121.076 E.02445
G1 X89.673 Y122.898 E.09673
G1 X89.022 Y122.898 E.02444
G1 X87.851 Y121.727 E.06216
G1 X87.851 Y122.379 E.02445
G1 X88.577 Y123.104 E.03851
; stop printing object BasePlate.stl id:720576387062527073 copy 0
M106 S255
;LAYER_CHANGE
;Z:0.32
;HEIGHT:0.12
;BEFORE_LAYER_CHANGE
;0.32
G92 E0

G1 E-3.5 F3600
;WIPE_START
G1 F1200
G1 X87.869 Y122.397 E-1.5
;WIPE_END
;_SET_FAN_SPEED_CHANGING_LAYER
; printing object BasePlate.stl id:720576387062527073 copy 0
M204 S700
G1 Z.72 F9000
G1 X87.119 Y123.631 Z.72
G1 Z.32
G1 E5 F2400
M204 S500
;TYPE:Inner wall
;WIDTH:0.449999
G1 X87.119 Y96.369 E.56546
G1 X132.878 Y96.372 E.94914
M73 P5 R64
G1 X132.879 Y123.629 E.56538
G1 X87.159 Y123.631 E.94835
M204 S700
G1 X86.695 Y124.055 F9000
M204 S500
G1 F2400
G1 X86.695 Y95.945 E.58306
G1 X133.146 Y95.948 E.9635
G1 X133.267 Y95.976 E.00259
G1 X133.302 Y96.06 E.00189
G1 X133.304 Y123.898 E.57742
G1 X133.271 Y124.021 E.00264
G1 X133.173 Y124.054 E.00214
G1 X86.735 Y124.055 E.96324
G1 X86.283 Y124.467 F9000
;TYPE:Outer wall
;WIDTH:0.399999
G1 F1020
G1 X86.283 Y95.533 E.52943
G1 X132.377 Y95.536 E.84342
G1 X133.224 Y95.536 E.0155
G1 X133.54 Y95.649 E.00614
G1 X133.686 Y95.85 E.00455
G1 X133.714 Y96.06 E.00388
G1 X133.714 Y96.906 E.01548
G1 X133.716 Y123.05 E.47838
G1 X133.716 Y123.898 E.01552
G1 X133.648 Y124.194 E.00556
G1 X133.516 Y124.373 E.00407
G1 X133.24 Y124.466 E.00533
G1 X132.393 Y124.466 E.0155
G1 X86.323 Y124.467 E.84298
M204 S700
G1 E-3.5 F3600
;WIPE_START
G1 F1020
G1 X86.322 Y123.467 E-1.5
;WIPE_END
G1 Z.72 F9000
G1 X130.666 Y123.496 Z.72
G1 Z.32
G1 E5 F2400
M204 S500
;TYPE:Internal solid infill
;WIDTH:0.400566
M106 S255
G1 X132.578 Y121.585 E.04953
G1 X132.578 Y121.055 E.00971
G1 X130.305 Y123.328 E.0589
G1 X129.775 Y123.328 E.00971
G1 X132.578 Y120.525 E.07264
G1 X132.577 Y119.995 E.00971
G1 X129.245 Y123.328 E.08638
G1 X128.715 Y123.328 E.00971
G1 X132.577 Y119.465 E.10011
G1 X132.577 Y118.935 E.00971
G1 X128.184 Y123.328 E.11385
G1 X127.654 Y123.328 E.00971
G1 X132.577 Y118.405 E.12759
G1 X132.577 Y117.875 E.00971
G1 X127.124 Y123.328 E.14132
G1 X126.594 Y123.328 E.00971
G1 X132.577 Y117.345 E.15506
G1 X132.577 Y116.815 E.00971
G1 X126.064 Y123.328 E.1688
G1 X125.534 Y123.328 E.00971
G1 X132.577 Y116.285 E.18254
G1 X132.577 Y115.755 E.00971
G1 X125.004 Y123.328 E.19627
G1 X124.474 Y123.328 E.00971
G1 X132.577 Y115.225 E.21001
G1 X132.577 Y114.695 E.00971
G1 X123.944 Y123.328 E.22375
G1 X123.414 Y123.328 E.00971
G1 X132.577 Y114.164 E.23748
G1 X132.577 Y113.634 E.00971
G1 X122.884 Y123.328 E.25122
G1 X122.354 Y123.328 E.00971
G1 X132.577 Y113.104 E.26496
G1 X132.577 Y112.574 E.00971
G1 X121.823 Y123.328 E.27869
G1 X121.293 Y123.328 E.00971
G1 X132.577 Y112.044 E.29243
G1 X132.577 Y111.514 E.00971
G1 X120.763 Y123.328 E.30617
G1 X120.233 Y123.328 E.00971
G1 X132.577 Y110.984 E.31991
G1 X132.577 Y110.454 E.00971
G1 X119.703 Y123.328 E.33364
G1 X119.173 Y123.328 E.00971
G1 X132.577 Y109.924 E.34738
G1 X132.577 Y109.394 E.00971
G1 X118.643 Y123.328 E.36112
G1 X118.113 Y123.328 E.00971
G1 X132.577 Y108.864 E.37485
G1 X132.577 Y108.334 E.00971
G1 X117.583 Y123.328 E.38859
G1 X117.053 Y123.328 E.00971
G1 X132.577 Y107.804 E.40233
G1 X132.577 Y107.274 E.00971
G1 X116.523 Y123.328 E.41606
G1 X115.993 Y123.328 E.00971
G1 X132.577 Y106.744 E.4298
G1 X132.577 Y106.214 E.00971
G1 X115.462 Y123.328 E.44354
G1 X114.932 Y123.328 E.00971
G1 X132.577 Y105.684 E.45727
G1 X132.577 Y105.154 E.00971
G1 X114.402 Y123.328 E.47101
G1 X113.872 Y123.328 E.00971
G1 X132.577 Y104.624 E.48475
G1 X132.577 Y104.094 E.00971
G1 X113.342 Y123.328 E.49849
G1 X112.812 Y123.328 E.00971
G1 X132.577 Y103.564 E.51222
G1 X132.577 Y103.034 E.00971
G1 X112.282 Y123.328 E.52596
G1 X111.752 Y123.328 E.00971
G1 X132.577 Y102.504 E.5397
G1 X132.577 Y101.974 E.00971
G1 X111.222 Y123.328 E.55343
G1 X110.692 Y123.328 E.00971
G1 X132.576 Y101.444 E.56717
G1 X132.576 Y100.914 E.00971
G1 X110.162 Y123.328 E.58091
G1 X109.632 Y123.328 E.00971
M73 P5 R63
G1 X132.576 Y100.383 E.59464
G1 X132.576 Y99.853 E.00971
G1 X109.101 Y123.328 E.60838
G1 X108.571 Y123.328 E.00971
G1 X132.576 Y99.323 E.62212
G1 X132.576 Y98.793 E.00971
M73 P6 R63
G1 X108.041 Y123.328 E.63586
G1 X107.511 Y123.328 E.00971
G1 X132.576 Y98.263 E.64959
G1 X132.576 Y97.733 E.00971
G1 X106.981 Y123.328 E.66333
G1 X106.451 Y123.328 E.00971
G1 X132.576 Y97.203 E.67707
G1 X132.576 Y96.674 E.0097
G1 X105.921 Y123.328 E.6908
G1 X105.391 Y123.328 E.00971
G1 X132.046 Y96.674 E.69079
G1 X131.516 Y96.674 E.00971
G1 X104.861 Y123.328 E.69079
G1 X104.331 Y123.328 E.00971
G1 X130.986 Y96.674 E.69079
G1 X130.456 Y96.674 E.00971
G1 X103.801 Y123.329 E.69079
G1 X103.271 Y123.329 E.00971
G1 X129.926 Y96.674 E.6908
G1 X129.395 Y96.674 E.00971
G1 X102.741 Y123.329 E.6908
G1 X102.21 Y123.329 E.00971
G1 X128.865 Y96.674 E.6908
G1 X128.335 Y96.674 E.00971
G1 X101.68 Y123.329 E.6908
G1 X101.15 Y123.329 E.00971
G1 X127.805 Y96.673 E.6908
G1 X127.275 Y96.673 E.00971
G1 X100.62 Y123.329 E.6908
G1 X100.09 Y123.329 E.00971
G1 X126.745 Y96.673 E.6908
G1 X126.215 Y96.673 E.00971
G1 X99.56 Y123.329 E.6908
G1 X99.03 Y123.329 E.00971
G1 X125.685 Y96.673 E.6908
G1 X125.155 Y96.673 E.00971
G1 X98.5 Y123.329 E.69081
G1 X97.97 Y123.329 E.00971
G1 X124.625 Y96.673 E.69081
G1 X124.095 Y96.673 E.00971
G1 X97.44 Y123.329 E.69081
G1 X96.91 Y123.329 E.00971
G1 X123.565 Y96.673 E.69081
G1 X123.035 Y96.673 E.00971
G1 X96.38 Y123.329 E.69081
G1 X95.849 Y123.329 E.00971
G1 X122.505 Y96.673 E.69081
G1 X121.975 Y96.673 E.00971
G1 X95.319 Y123.329 E.69081
G1 X94.789 Y123.329 E.00971
G1 X121.445 Y96.673 E.69081
G1 X120.915 Y96.673 E.00971
G1 X94.259 Y123.329 E.69082
G1 X93.729 Y123.329 E.00971
G1 X120.385 Y96.673 E.69082
G1 X119.855 Y96.673 E.00971
G1 X93.199 Y123.329 E.69082
G1 X92.669 Y123.329 E.00971
G1 X119.325 Y96.673 E.69082
G1 X118.795 Y96.673 E.00971
G1 X92.139 Y123.329 E.69082
G1 X91.609 Y123.329 E.00971
G1 X118.265 Y96.673 E.69082
G1 X117.735 Y96.673 E.00971
G1 X91.079 Y123.329 E.69082
G1 X90.549 Y123.329 E.00971
G1 X117.205 Y96.673 E.69082
G1 X116.675 Y96.673 E.00971
G1 X90.019 Y123.329 E.69083
G1 X89.488 Y123.329 E.00971
G1 X116.145 Y96.673 E.69083
G1 X115.615 Y96.673 E.00971
G1 X88.958 Y123.329 E.69083
G1 X88.428 Y123.329 E.00971
G1 X115.085 Y96.673 E.69083
G1 X114.554 Y96.673 E.00971
G1 X87.898 Y123.329 E.69083
G1 X87.421 Y123.329 E.00875
G1 X87.421 Y123.276 E.00097
G1 X114.024 Y96.673 E.68946
G1 X113.494 Y96.673 E.00971
M73 P7 R63
G1 X87.421 Y122.746 E.67572
G1 X87.421 Y122.216 E.00971
G1 X112.964 Y96.673 E.66199
G1 X112.434 Y96.673 E.00971
G1 X87.421 Y121.686 E.64825
G1 X87.421 Y121.156 E.00971
G1 X111.904 Y96.673 E.63451
G1 X111.374 Y96.673 E.00971
G1 X87.421 Y120.626 E.62078
G1 X87.421 Y120.096 E.00971
G1 X110.844 Y96.672 E.60704
G1 X110.314 Y96.672 E.00971
G1 X87.421 Y119.566 E.59331
G1 X87.421 Y119.036 E.00971
G1 X109.784 Y96.672 E.57957
G1 X109.254 Y96.672 E.00971
G1 X87.421 Y118.505 E.56583
G1 X87.421 Y117.975 E.00971
G1 X108.724 Y96.672 E.5521
G1 X108.194 Y96.672 E.00971
