; HEADER_BLOCK_START
; generated by OrcaSlicer 2.3.2 on 2026-06-02 at 15:12:59
; total layer number: 47
; filament_density: 1.24
; filament_diameter: 1.75
; max_z_height: 10.02
; filament: 1
; HEADER_BLOCK_END

; THUMBNAIL_BLOCK_START

;
; THUMBNAIL_BLOCK_END

; THUMBNAIL_BLOCK_START

;
; THUMBNAIL_BLOCK_END

; external perimeters extrusion width = 0.40mm
; perimeters extrusion width = 0.45mm
; infill extrusion width = 0.45mm
; solid infill extrusion width = 0.40mm
; top infill extrusion width = 0.45mm
; first layer extrusion width = 0.50mm

; EXECUTABLE_BLOCK_START
M73 P0 R32
M201 X500 Y500 Z500 E5000
M203 X500 Y500 Z10 E60
M204 P500 R1000 T500
M205 X8.00 Y8.00 Z0.40 E5.00 ; sets the jerk limits, mm/sec
;TYPE:Custom
G90 ; use absolute coordinates
M83 ; extruder relative mode
M140 S60 ; set final bed temp
M104 S150 ; set temporary nozzle temp to prevent oozing during homing
G4 S10 ; allow partial nozzle warmup
G28 ; home all axis
G1 Z50 F240
G1 X2 Y10 F3000
M104 S220 ; set final nozzle temp
M190 S60 ; wait for bed temp to stabilize
M109 S220 ; wait for nozzle temp to stabilize
G1 Z0.28 F240
G92 E0
G1 Y140 E10 F1500 ; prime the nozzle
M73 P1 R32
G1 X2.3 F5000
G92 E0
G1 Y10 E10 F1200 ; prime the nozzle
G92 E0
G90
G21
M83 ; use relative distances for extrusion
; filament start gcode
M106 S0
;LAYER_CHANGE
;Z:0.2
;HEIGHT:0.2
;BEFORE_LAYER_CHANGE
;0.2
G92 E0

G1 E-5 F3600
M73 P1 R31
;_SET_FAN_SPEED_CHANGING_LAYER
M204 S500
G1 Z.6 F9000
G1 X93.392 Y93.557
G1 Z.6
G1 Z.2
G1 E5 F2400
;TYPE:Skirt
;WIDTH:0.5
G1 F3000
G1 X94.198 Y92.921 E.03826
G1 X95 Y92.771 E.03037
G1 X125 Y92.771 E1.11739
G1 X126.261 Y93.162 E.04917
M73 P2 R31
G1 X127.079 Y94.198 E.04917
G1 X127.229 Y95 E.03037
G1 X127.229 Y125 E1.11739
G1 X126.838 Y126.261 E.04917
G1 X125.802 Y127.079 E.04917
G1 X125 Y127.229 E.03037
G1 X95 Y127.229 E1.11739
G1 X93.739 Y126.838 E.04917
G1 X92.921 Y125.802 E.04917
G1 X92.771 Y125 E.03037
G1 X92.771 Y95 E1.11739
G1 X93.162 Y93.739 E.04917
G1 X93.361 Y93.582 E.00943
; printing object Base_Body.stl id:720576387062527073 copy 0
G1 E-3.8 F3600
;WIPE_START
G1 F3000
G1 X94.146 Y92.962 E-1.2
;WIPE_END
G1 Z.6 F9000
G1 X123.814 Y123.814 Z.6
G1 Z.2
G1 E5 F2400
;TYPE:Inner wall
;WIDTH:0.499999
G1 F900
G1 X96.186 Y123.814 E1.02907
G1 X96.186 Y96.186 E1.02907
G1 X123.814 Y96.186 E1.02907
G1 X123.814 Y123.774 E1.02758
G1 X124.271 Y124.271 F9000
G1 F900
G1 X95.729 Y124.271 E1.06311
G1 X95.729 Y95.729 E1.06311
G1 X124.271 Y95.729 E1.06311
G1 X124.271 Y124.231 E1.06162
G1 X124.75 Y124.75 F9000
;TYPE:Outer wall
G1 F900
G1 X95.25 Y124.75 E1.09876
G1 X95.25 Y95.25 E1.09876
M73 P3 R31
G1 X124.75 Y95.25 E1.09876
G1 X124.75 Y124.71 E1.09727
G1 E-3.5 F3600
;WIPE_START
G1 F900
G1 X123.75 Y124.711 E-1.5
;WIPE_END
G1 Z.6 F9000
G1 X108.463 Y105.069 Z.6
G1 Z.2
G1 E5 F2400
;TYPE:Inner wall
G1 F900
G1 X109.34 Y104.861 E.03357
G1 X110.423 Y104.836 E.04034
G1 X111.487 Y105.037 E.04034
G1 X112.486 Y105.455 E.04034
G1 X113.377 Y106.071 E.04034
G1 X114.12 Y106.859 E.04034
G1 X114.683 Y107.784 E.04034
G1 X115.042 Y108.806 E.04034
G1 X115.18 Y109.881 E.04034
G1 X115.091 Y110.96 E.04034
G1 X114.78 Y111.998 E.04034
G1 X114.261 Y112.948 E.04034
G1 X113.555 Y113.769 E.04034
G1 X112.693 Y114.426 E.04034
G1 X111.714 Y114.889 E.04034
G1 X110.66 Y115.139 E.04034
G1 X109.577 Y115.164 E.04034
G1 X108.513 Y114.963 E.04034
G1 X107.514 Y114.545 E.04034
G1 X106.623 Y113.929 E.04034
G1 X105.88 Y113.141 E.04034
G1 X105.317 Y112.216 E.04034
G1 X104.958 Y111.194 E.04034
G1 X104.821 Y110.129 E.03999
G1 X104.908 Y109.043 E.04058
G1 X105.22 Y108.002 E.04044
G1 X105.739 Y107.052 E.04034
G1 X106.445 Y106.231 E.04034
G1 X107.307 Y105.574 E.04034
G1 X108.286 Y105.111 E.04034
G1 X108.424 Y105.078 E.00528
G1 X108.57 Y105.506 F9000
G1 F900
G1 X109.435 Y105.308 E.03303
G1 X110.423 Y105.293 E.0368
G1 X111.392 Y105.484 E.0368
G1 X112.3 Y105.872 E.0368
G1 X113.108 Y106.441 E.0368
G1 X113.781 Y107.165 E.0368
G1 X114.287 Y108.013 E.0368
G1 X114.607 Y108.948 E.0368
G1 X114.725 Y109.928 E.0368
G1 X114.637 Y110.912 E.0368
G1 X114.346 Y111.856 E.0368
G1 X113.865 Y112.719 E.0368
G1 X113.215 Y113.463 E.0368
G1 X112.425 Y114.056 E.0368
G1 X111.528 Y114.472 E.0368
G1 X110.565 Y114.692 E.0368
G1 X109.577 Y114.707 E.0368
G1 X108.608 Y114.516 E.0368
G1 X107.7 Y114.128 E.0368
G1 X106.892 Y113.559 E.0368
G1 X106.22 Y112.835 E.0368
G1 X105.713 Y111.987 E.0368
G1 X105.393 Y111.052 E.0368
G1 X105.276 Y110.081 E.03645
G1 X105.363 Y109.089 E.03708
G1 X105.654 Y108.144 E.03686
G1 X106.135 Y107.281 E.0368
G1 X106.785 Y106.537 E.0368
G1 X107.575 Y105.944 E.0368
G1 X108.472 Y105.528 E.0368
G1 X108.531 Y105.515 E.00227
G1 X108.675 Y105.964 F9000
;TYPE:Outer wall
G1 F900
G1 X109.534 Y105.776 E.03275
G1 X110.423 Y105.772 E.03309
G1 X111.292 Y105.952 E.03309
G1 X112.106 Y106.309 E.03309
G1 X112.827 Y106.828 E.03309
G1 X113.425 Y107.485 E.03309
G1 X113.873 Y108.252 E.03309
G1 X114.152 Y109.095 E.03309
G1 X114.249 Y109.978 E.03309
G1 X114.161 Y110.862 E.03309
G1 X113.891 Y111.708 E.03309
G1 X113.45 Y112.48 E.03309
G1 X112.859 Y113.143 E.03309
G1 X112.143 Y113.669 E.03309
G1 X111.334 Y114.034 E.03309
G1 X110.466 Y114.224 E.03309
G1 X109.577 Y114.228 E.03309
G1 X108.708 Y114.048 E.03309
G1 X107.894 Y113.691 E.03309
G1 X107.173 Y113.172 E.03309
G1 X106.575 Y112.515 E.03309
G1 X106.127 Y111.748 E.03309
G1 X105.848 Y110.905 E.03309
G1 X105.752 Y110.031 E.03274
G1 X105.839 Y109.138 E.03341
G1 X106.109 Y108.292 E.03311
G1 X106.55 Y107.52 E.03309
G1 X107.141 Y106.857 E.03309
G1 X107.857 Y106.331 E.03309
G1 X108.638 Y105.978 E.03193
G1 E-3.5 F3600
;WIPE_START
G1 F900
G1 X109.534 Y105.776 E-1.37787
G1 X109.616 Y105.776 E-.12213
;WIPE_END
G1 Z.6 F9000
G1 X122.744 Y96.323 Z.6
G1 Z.2
G1 E5 F2400
;TYPE:Bottom surface
;WIDTH:0.504226
G1 F1200
G1 X123.472 Y97.05 E.03866
G1 X123.472 Y97.702 E.02452
G1 X122.298 Y96.528 E.06241
G1 X121.645 Y96.528 E.02452
G1 X123.472 Y98.355 E.09709
G1 X123.472 Y99.007 E.02452
G1 X120.993 Y96.528 E.13177
G1 X120.34 Y96.528 E.02452
G1 X123.472 Y99.66 E.16645
G1 X123.472 Y100.312 E.02452
G1 X119.688 Y96.528 E.20113
G1 X119.036 Y96.528 E.02452
G1 X123.472 Y100.964 E.23582
G1 X123.472 Y101.617 E.02452
G1 X118.383 Y96.528 E.2705
G1 X117.731 Y96.528 E.02452
G1 X123.472 Y102.269 E.30518
G1 X123.472 Y102.921 E.02452
G1 X117.079 Y96.528 E.33986
G1 X116.426 Y96.528 E.02452
G1 X123.472 Y103.574 E.37454
G1 X123.472 Y104.226 E.02452
G1 X115.774 Y96.528 E.40922
G1 X115.121 Y96.528 E.02452
G1 X123.472 Y104.879 E.44391
G1 X123.472 Y105.531 E.02452
M73 P4 R31
G1 X114.469 Y96.528 E.47859
G1 X113.817 Y96.528 E.02452
G1 X123.472 Y106.183 E.51327
G1 X123.472 Y106.836 E.02452
G1 X113.164 Y96.528 E.54795
G1 X112.512 Y96.528 E.02452
G1 X123.472 Y107.488 E.58263
G1 X123.472 Y108.141 E.02452
G1 X111.859 Y96.528 E.61731
G1 X111.207 Y96.528 E.02452
G1 X123.472 Y108.793 E.65199
G1 X123.472 Y109.445 E.02452
G1 X110.555 Y96.528 E.68668
G1 X109.902 Y96.528 E.02452
G1 X123.472 Y110.098 E.72136
G1 X123.472 Y110.75 E.02452
G1 X109.25 Y96.528 E.75604
G1 X108.598 Y96.528 E.02452
G1 X123.472 Y111.402 E.79072
G1 X123.472 Y112.055 E.02452
G1 X107.945 Y96.528 E.8254
G1 X107.293 Y96.528 E.02452
G1 X123.472 Y112.707 E.86008
G1 X123.472 Y113.36 E.02452
G1 X106.64 Y96.528 E.89477
G1 X105.988 Y96.528 E.02452
G1 X123.472 Y114.012 E.92945
G1 X123.472 Y114.664 E.02452
G1 X105.336 Y96.528 E.96413
G1 X104.683 Y96.528 E.02452
G1 X123.472 Y115.317 E.99881
G1 X123.472 Y115.969 E.02452
G1 X114.775 Y107.273 E.46232
G1 X114.472 Y106.748 E.02278
M73 P4 R30
G1 X113.69 Y105.882 E.04386
G1 X112.767 Y105.213 E.04286
G1 X112.672 Y105.17 E.0039
G1 X104.031 Y96.528 E.45938
G1 X103.378 Y96.528 E.02452
G1 X111.55 Y104.7 E.43441
G1 X110.722 Y104.524 E.03182
G1 X102.726 Y96.528 E.42507
G1 X102.074 Y96.528 E.02452
G1 X110.039 Y104.493 E.42343
G1 X109.401 Y104.508 E.02397
M73 P5 R30
G1 X101.421 Y96.528 E.42422
G1 X100.769 Y96.528 E.02452
G1 X108.855 Y104.614 E.42985
G1 X108.327 Y104.738 E.0204
G1 X100.117 Y96.528 E.43645
G1 X99.464 Y96.528 E.02452
G1 X107.862 Y104.927 E.44646
G1 X107.414 Y105.131 E.01852
G1 X98.812 Y96.528 E.4573
G1 X98.159 Y96.528 E.02452
G1 X107.007 Y105.376 E.47037
G1 X106.629 Y105.651 E.01756
G1 X97.507 Y96.528 E.48495
G1 X96.855 Y96.528 E.02452
G1 X106.261 Y105.935 E.50008
G1 X105.949 Y106.276 E.01736
G1 X96.528 Y96.855 E.50083
G1 X96.528 Y97.507 E.02452
G1 X105.637 Y106.616 E.48424
G1 X105.445 Y106.876 E.01215
G1 X105.373 Y107.004 E.00552
G1 X96.528 Y98.159 E.47017
G1 X96.528 Y98.812 E.02452
G1 X105.137 Y107.42 E.45762
G1 X104.949 Y107.75 E.01425
G1 X104.916 Y107.851 E.00403
G1 X96.528 Y99.464 E.44587
G1 X96.528 Y100.117 E.02452
G1 X104.752 Y108.341 E.4372
G1 X104.602 Y108.842 E.01969
G1 X96.528 Y100.769 E.42919
G1 X96.528 Y101.421 E.02452
G1 X104.525 Y109.418 E.42512
G1 X104.479 Y109.863 E.01682
G1 X104.48 Y110.025 E.00608
G1 X96.528 Y102.074 E.4227
G1 X96.528 Y102.726 E.02452
G1 X104.543 Y110.741 E.42607
G1 X104.582 Y111.098 E.01349
G1 X104.724 Y111.574 E.01868
G1 X96.323 Y103.173 E.44661
G1 E-3.5 F3600
;WIPE_START
G1 F1200
G1 X97.03 Y103.88 E-1.5
;WIPE_END
G1 Z.6 F9000
G1 X114.951 Y108.101 Z.6
G1 Z.2
G1 E5 F2400
G1 F1200
G1 X123.472 Y116.622 E.45297
G1 X123.472 Y117.274 E.02452
G1 X115.459 Y109.262 E.42594
G1 X115.521 Y109.976 E.02695
G1 X123.472 Y117.926 E.42265
G1 X123.472 Y118.579 E.02452
G1 X115.476 Y110.583 E.42508
G1 X115.432 Y111.002 E.01584
G1 X115.398 Y111.158 E.006
G1 X123.472 Y119.231 E.42918
G1 X123.472 Y119.883 E.02452
G1 X115.248 Y111.66 E.4372
G1 X115.084 Y112.149 E.01939
G1 X123.472 Y120.536 E.44587
G1 X123.472 Y121.188 E.02452
G1 X114.863 Y112.58 E.45762
G1 X114.627 Y112.996 E.01799
G1 X123.472 Y121.841 E.47017
G1 X123.472 Y122.493 E.02452
G1 X114.363 Y113.384 E.48425
G1 X114.051 Y113.724 E.01736
M73 P6 R30
G1 X123.472 Y123.145 E.50083
G1 X123.472 Y123.472 E.01226
G1 X123.145 Y123.472 E.01226
G1 X113.739 Y114.065 E.50008
G1 X113.69 Y114.118 E.00272
G1 X113.371 Y114.349 E.0148
G1 X122.493 Y123.472 E.48495
G1 X121.841 Y123.472 E.02452
G1 X112.993 Y114.624 E.47037
G1 X112.767 Y114.787 E.01049
G1 X112.586 Y114.869 E.00746
G1 X121.188 Y123.472 E.4573
G1 X120.536 Y123.472 E.02452
G1 X112.138 Y115.073 E.44646
G1 X111.849 Y115.205 E.01193
G1 X111.673 Y115.262 E.00692
G1 X119.883 Y123.472 E.43645
G1 X119.231 Y123.472 E.02452
G1 X111.145 Y115.386 E.42985
G1 X110.599 Y115.492 E.02092
G1 X118.579 Y123.472 E.42422
G1 X117.926 Y123.472 E.02452
G1 X109.961 Y115.507 E.42343
G1 X109.571 Y115.507 E.01465
G1 X109.278 Y115.476 E.01109
G1 X117.274 Y123.472 E.42507
G1 X116.622 Y123.472 E.02452
G1 X108.11 Y114.96 E.4525
G1 E-3.5 F3600
;WIPE_START
G1 F1200
G1 X108.817 Y115.667 E-1.5
;WIPE_END
G1 Z.6 F9000
G1 X116.175 Y123.677 Z.6
G1 Z.2
G1 E5 F2400
G1 F1200
G1 X107.328 Y114.83 E.47032
G1 X107.233 Y114.787 E.0039
G1 X106.31 Y114.118 E.04286
G1 X105.528 Y113.252 E.04385
G1 X105.225 Y112.728 E.02277
G1 X96.528 Y104.031 E.46232
G1 X96.528 Y104.683 E.02452
G1 X115.317 Y123.472 E.99881
G1 X114.664 Y123.472 E.02452
G1 X96.528 Y105.336 E.96413
G1 X96.528 Y105.988 E.02452
G1 X114.012 Y123.472 E.92944
G1 X113.36 Y123.472 E.02452
G1 X96.528 Y106.64 E.89476
G1 X96.528 Y107.293 E.02452
G1 X112.707 Y123.472 E.86008
G1 X112.055 Y123.472 E.02452
G1 X96.528 Y107.945 E.8254
G1 X96.528 Y108.598 E.02452
G1 X111.402 Y123.472 E.79072
G1 X110.75 Y123.472 E.02452
G1 X96.528 Y109.25 E.75604
G1 X96.528 Y109.902 E.02452
M73 P7 R30
G1 X110.098 Y123.472 E.72136
G1 X109.445 Y123.472 E.02452
G1 X96.528 Y110.555 E.68667
G1 X96.528 Y111.207 E.02452
G1 X108.793 Y123.472 E.65199
G1 X108.14 Y123.472 E.02452
G1 X96.528 Y111.86 E.61731
G1 X96.528 Y112.512 E.02452
G1 X107.488 Y123.472 E.58263
G1 X106.836 Y123.472 E.02452
G1 X96.528 Y113.164 E.54795
G1 X96.528 Y113.817 E.02452
G1 X106.183 Y123.472 E.51327
G1 X105.531 Y123.472 E.02452
G1 X96.528 Y114.469 E.47858
G1 X96.528 Y115.121 E.02452
G1 X104.879 Y123.472 E.4439
G1 X104.226 Y123.472 E.02452
G1 X96.528 Y115.774 E.40922
G1 X96.528 Y116.426 E.02452
G1 X103.574 Y123.472 E.37454
G1 X102.921 Y123.472 E.02452
G1 X96.528 Y117.079 E.33986
G1 X96.528 Y117.731 E.02452
G1 X102.269 Y123.472 E.30518
G1 X101.617 Y123.472 E.02452
G1 X96.528 Y118.383 E.2705
G1 X96.528 Y119.036 E.02452
G1 X100.964 Y123.472 E.23581
G1 X100.312 Y123.472 E.02452
G1 X96.528 Y119.688 E.20113
G1 X96.528 Y120.341 E.02452
G1 X99.659 Y123.472 E.16645
G1 X99.007 Y123.472 E.02452
G1 X96.528 Y120.993 E.13177
G1 X96.528 Y121.645 E.02452
G1 X98.355 Y123.472 E.09709
G1 X97.702 Y123.472 E.02452
G1 X96.528 Y122.298 E.06241
G1 X96.528 Y122.95 E.02452
G1 X97.256 Y123.677 E.03866
; stop printing object Base_Body.stl id:720576387062527073 copy 0
M106 S255
;LAYER_CHANGE
;Z:0.44
;HEIGHT:0.24
;BEFORE_LAYER_CHANGE
;0.44
G92 E0

G1 E-3.5 F3600
;WIPE_START
G1 F1200
G1 X96.549 Y122.97 E-1.5
;WIPE_END
;_SET_FAN_SPEED_CHANGING_LAYER
; printing object Base_Body.stl id:720576387062527073 copy 0
M204 S700
G1 Z.84 F9000
G1 X124.002 Y124.002 Z.84
G1 Z.44
G1 E5 F2400
M204 S500
;TYPE:Inner wall
;WIDTH:0.449999
G1 X95.998 Y124.002 E1.09124
G1 X95.998 Y95.998 E1.09124
G1 X124.002 Y95.998 E1.09125
G1 X124.002 Y123.962 E1.08969
M204 S700
G1 X124.401 Y124.401 F9000
M204 S500
G1 F2400
G1 X95.599 Y124.401 E1.1223
G1 X95.599 Y95.599 E1.1223
G1 X124.401 Y95.599 E1.1223
G1 X124.401 Y124.361 E1.12074
M73 P7 R29
G1 X124.8 Y124.8 F9000
;TYPE:Outer wall
;WIDTH:0.399999
G1 F1500
G1 X95.2 Y124.8 E1.00869
G1 X95.2 Y95.2 E1.00869
M73 P8 R29
G1 X124.8 Y95.2 E1.00869
G1 X124.8 Y124.76 E1.00733
M204 S700
G1 E-3.5 F3600
;WIPE_START
G1 F1500
G1 X123.8 Y124.761 E-1.5
;WIPE_END
G1 Z.84 F9000
G1 X108.508 Y105.248 Z.84
G1 Z.44
G1 E5 F2400
M204 S500
;TYPE:Inner wall
;WIDTH:0.449999
G1 X109.38 Y105.045 E.03488
G1 X110.424 Y105.024 E.04068
G1 X111.449 Y105.221 E.04068
G1 X112.411 Y105.627 E.04068
G1 X113.267 Y106.223 E.04068
G1 X113.981 Y106.985 E.04068
G1 X114.521 Y107.879 E.04068
G1 X114.863 Y108.865 E.04068
G1 X114.993 Y109.901 E.04068
G1 X114.904 Y110.941 E.04068
G1 X114.601 Y111.941 E.04069
G1 X114.074 Y112.883 E.04207
G1 X113.414 Y113.644 E.03926
G1 X112.582 Y114.274 E.04068
G1 X111.637 Y114.718 E.04068
G1 X110.62 Y114.955 E.04068
G1 X109.576 Y114.976 E.04068
G1 X108.551 Y114.779 E.04068
G1 X107.589 Y114.373 E.04068
G1 X106.733 Y113.777 E.04068
G1 X106.019 Y113.015 E.04068
G1 X105.479 Y112.121 E.04068
G1 X105.137 Y111.135 E.04068
G1 X105.007 Y110.099 E.04069
G1 X105.106 Y109.024 E.04207
G1 X105.399 Y108.06 E.03926
G1 X105.903 Y107.145 E.04068
G1 X106.586 Y106.356 E.04068
G1 X107.418 Y105.726 E.04068
G1 X108.363 Y105.282 E.04068
G1 X108.469 Y105.257 E.00424
M204 S700
G1 X108.6 Y105.629 F9000
M204 S500
G1 F2400
G1 X109.463 Y105.435 E.03447
G1 X110.424 Y105.423 E.03745
G1 X111.366 Y105.611 E.03745
G1 X112.249 Y105.991 E.03745
G1 X113.033 Y106.546 E.03745
G1 X113.685 Y107.252 E.03745
G1 X114.176 Y108.078 E.03745
G1 X114.484 Y108.988 E.03745
G1 X114.597 Y109.943 E.03745
G1 X114.508 Y110.9 E.03745
G1 X114.222 Y111.817 E.03746
G1 X113.73 Y112.681 E.03873
G1 X113.118 Y113.378 E.03613
G1 X112.348 Y113.952 E.03745
G1 X111.475 Y114.354 E.03745
G1 X110.537 Y114.565 E.03745
G1 X109.576 Y114.577 E.03745
G1 X108.634 Y114.389 E.03745
G1 X107.751 Y114.009 E.03745
G1 X106.967 Y113.454 E.03745
G1 X106.315 Y112.748 E.03745
G1 X105.824 Y111.922 E.03745
G1 X105.516 Y111.012 E.03745
G1 X105.403 Y110.057 E.03745
G1 X105.502 Y109.068 E.03873
G1 X105.778 Y108.183 E.03613
G1 X106.248 Y107.345 E.03745
G1 X106.882 Y106.622 E.03745
G1 X107.652 Y106.048 E.03745
G1 X108.525 Y105.646 E.03745
G1 X108.561 Y105.638 E.00142
G1 X108.687 Y106.011 F9000
;TYPE:Outer wall
;WIDTH:0.399999
G1 F1500
G1 X108.688 Y106.011 E0
G1 X109.546 Y105.825 E.02992
G1 X110.424 Y105.822 E.02992
G1 X111.283 Y106.001 E.02992
G1 X112.086 Y106.355 E.02992
G1 X112.798 Y106.869 E.02992
G1 X113.388 Y107.519 E.02992
G1 X113.83 Y108.278 E.02992
G1 X114.104 Y109.112 E.02992
G1 X114.199 Y109.984 E.02992
G1 X114.111 Y110.858 E.02992
G1 X113.843 Y111.694 E.02992
G1 X113.386 Y112.479 E.03094
G1 X112.822 Y113.11 E.02886
G1 X112.113 Y113.629 E.02992
G1 X111.312 Y113.989 E.02992
G1 X110.454 Y114.175 E.02992
G1 X109.576 Y114.178 E.02992
G1 X108.717 Y113.999 E.02992
