; HEADER_BLOCK_START
; generated by OrcaSlicer 2.3.2 on 2026-06-06 at 20:10:20
; total layer number: 49
; filament_density: 1.24
; filament_diameter: 1.75
; max_z_height: 5.96
; filament: 1
; HEADER_BLOCK_END

; THUMBNAIL_BLOCK_START

;
; THUMBNAIL_BLOCK_END

; THUMBNAIL_BLOCK_START

;
; THUMBNAIL_BLOCK_END

; external perimeters extrusion width = 0.40mm
; perimeters extrusion width = 0.45mm
; infill extrusion width = 0.45mm
; solid infill extrusion width = 0.40mm
; top infill extrusion width = 0.40mm
; first layer extrusion width = 0.50mm

; EXECUTABLE_BLOCK_START
M73 P0 R41
M201 X500 Y500 Z500 E5000
M203 X500 Y500 Z10 E60
M204 P500 R1000 T500
M205 X8.00 Y8.00 Z0.40 E5.00 ; sets the jerk limits, mm/sec
;TYPE:Custom
G90 ; use absolute coordinates
M83 ; extruder relative mode
M140 S60 ; set final bed temp
M104 S150 ; set temporary nozzle temp to prevent oozing during homing
G4 S10 ; allow partial nozzle warmup
G28 ; home all axis
G1 Z50 F240
G1 X2 Y10 F3000
M104 S220 ; set final nozzle temp
M190 S60 ; wait for bed temp to stabilize
M109 S220 ; wait for nozzle temp to stabilize
G1 Z0.28 F240
G92 E0
G1 Y140 E10 F1500 ; prime the nozzle
M73 P1 R41
G1 X2.3 F5000
G92 E0
G1 Y10 E10 F1200 ; prime the nozzle
G92 E0
G90
G21
M83 ; use relative distances for extrusion
; filament start gcode
M106 S0
;LAYER_CHANGE
;Z:0.2
;HEIGHT:0.2
;BEFORE_LAYER_CHANGE
;0.2
G92 E0

G1 E-5 F3600
;_SET_FAN_SPEED_CHANGING_LAYER
M204 S500
G1 Z.6 F9000
G1 X92.07 Y93.686
G1 Z.6
G1 Z.2
G1 E5 F2400
;TYPE:Skirt
;WIDTH:0.5
G1 F3000
G1 X92.15 Y93.671 E.00304
G1 X127.85 Y93.671 E1.32969
G1 X129.111 Y94.062 E.04917
G1 X129.929 Y95.098 E.04917
G1 X130.079 Y95.9 E.03037
G1 X130.079 Y124.1 E1.05034
G1 X129.688 Y125.361 E.04917
G1 X128.652 Y126.179 E.04917
G1 X127.85 Y126.329 E.03037
G1 X92.15 Y126.329 E1.32969
G1 X90.889 Y125.938 E.04917
G1 X90.071 Y124.902 E.04917
G1 X89.921 Y124.1 E.03037
G1 X89.921 Y95.9 E1.05034
G1 X90.312 Y94.639 E.04917
G1 X91.348 Y93.821 E.04917
G1 X92.03 Y93.694 E.02584
; printing object BasePlate.stl id:720576387062527073 copy 0
G1 E-3.8 F3600
;WIPE_START
G1 F3000
G1 X92.15 Y93.671 E-.14593
G1 X93.028 Y93.671 E-1.05407
;WIPE_END
G1 Z.6 F9000
G1 X126.664 Y122.914 Z.6
G1 Z.2
M73 P1 R40
G1 E5 F2400
;TYPE:Inner wall
;WIDTH:0.499999
G1 F900
G1 X93.336 Y122.914 E1.24137
G1 X93.336 Y97.086 E.96202
G1 X126.664 Y97.086 E1.24137
G1 X126.664 Y122.874 E.96053
G1 X127.121 Y123.371 F9000
M73 P2 R40
G1 F900
G1 X92.879 Y123.371 E1.27542
G1 X92.879 Y96.629 E.99607
G1 X127.121 Y96.629 E1.27542
G1 X127.121 Y123.331 E.99458
G1 X127.6 Y123.85 F9000
;TYPE:Outer wall
G1 F900
G1 X92.4 Y123.85 E1.31106
G1 X92.4 Y96.15 E1.03172
G1 X127.6 Y96.15 E1.31106
G1 X127.6 Y123.81 E1.03023
G1 E-3.5 F3600
;WIPE_START
G1 F900
G1 X126.6 Y123.811 E-1.5
;WIPE_END
G1 Z.6 F9000
G1 X115.749 Y109.079 Z.6
G1 Z.2
G1 E5 F2400
;TYPE:Inner wall
G1 F900
G1 X115.881 Y109.341 E.01093
G1 X115.988 Y109.851 E.01938
G1 X115.959 Y110.37 E.01938
G1 X115.796 Y110.865 E.01938
G1 X115.511 Y111.3 E.01938
G1 X115.123 Y111.647 E.01938
G1 X114.659 Y111.881 E.01938
G1 X114.149 Y111.988 E.01938
G1 X113.63 Y111.959 E.01938
G1 X113.135 Y111.796 E.01938
G1 X112.7 Y111.511 E.01938
G1 X112.353 Y111.123 E.01938
G1 X112.119 Y110.659 E.01938
G1 X112.012 Y110.149 E.01938
G1 X112.041 Y109.63 E.01938
G1 X112.204 Y109.135 E.01938
G1 X112.489 Y108.7 E.01938
G1 X112.877 Y108.353 E.01938
G1 X113.341 Y108.119 E.01938
G1 X113.844 Y108.013 E.01911
G1 X114.361 Y108.04 E.01928
G1 X114.865 Y108.204 E.01974
G1 X115.3 Y108.489 E.01938
G1 X115.647 Y108.877 E.01938
G1 X115.731 Y109.044 E.00696
G1 X115.316 Y109.226 F9000
G1 F900
G1 X115.374 Y109.31 E.00381
G1 X115.505 Y109.689 E.01495
G1 X115.535 Y110.089 E.01495
G1 X115.459 Y110.484 E.01495
G1 X115.284 Y110.845 E.01495
G1 X115.022 Y111.148 E.01495
G1 X114.69 Y111.374 E.01495
G1 X114.311 Y111.505 E.01495
G1 X113.911 Y111.535 E.01495
G1 X113.516 Y111.459 E.01495
G1 X113.155 Y111.284 E.01495
G1 X112.852 Y111.022 E.01495
G1 X112.626 Y110.69 E.01495
G1 X112.495 Y110.311 E.01495
G1 X112.462 Y110.06 E.00942
G1 X112.513 Y109.598 E.01729
G1 X112.716 Y109.155 E.01815
G1 X112.978 Y108.852 E.01495
G1 X113.31 Y108.626 E.01495
G1 X113.689 Y108.495 E.01495
G1 X114.077 Y108.466 E.01447
G1 X114.483 Y108.541 E.01541
G1 X114.845 Y108.716 E.01495
G1 X115.148 Y108.978 E.01495
G1 X115.294 Y109.192 E.00964
G1 X114.928 Y109.488 F9000
;TYPE:Outer wall
G1 F900
G1 X114.932 Y109.493 E.00025
G1 X115.031 Y109.752 E.01031
G1 X115.06 Y110.027 E.01031
G1 X115.017 Y110.3 E.01031
G1 X114.905 Y110.553 E.01031
G1 X114.73 Y110.769 E.01031
G1 X114.507 Y110.932 E.01031
G1 X114.248 Y111.031 E.01031
G1 X113.973 Y111.06 E.01031
G1 X113.7 Y111.017 E.01031
G1 X113.447 Y110.905 E.01031
G1 X113.231 Y110.73 E.01031
G1 X113.068 Y110.507 E.01031
G1 X112.969 Y110.248 E.01031
G1 X112.939 Y110.018 E.00864
G1 X112.983 Y109.699 E.01198
G1 X113.095 Y109.447 E.01031
G1 X113.27 Y109.231 E.01031
G1 X113.493 Y109.068 E.01031
G1 X113.752 Y108.969 E.01031
G1 X114.018 Y108.941 E.00998
G1 X114.3 Y108.983 E.01063
G1 X114.553 Y109.095 E.01032
G1 X114.769 Y109.27 E.01031
G1 X114.904 Y109.456 E.00857
G1 E-3.5 F3600
;WIPE_START
G1 F900
G1 X114.932 Y109.493 E-.07013
G1 X115.031 Y109.752 E-.41522
G1 X115.06 Y110.027 E-.41523
G1 X115.017 Y110.3 E-.41525
G1 X114.967 Y110.413 E-.18416
;WIPE_END
G1 Z.6 F9000
G1 X107.486 Y108.698 Z.6
G1 Z.2
G1 E5 F2400
;TYPE:Inner wall
G1 F900
G1 X107.647 Y108.877 E.00896
G1 X107.881 Y109.341 E.01938
G1 X107.988 Y109.851 E.01938
G1 X107.959 Y110.37 E.01938
G1 X107.796 Y110.865 E.01938
G1 X107.511 Y111.3 E.01938
G1 X107.123 Y111.647 E.01938
G1 X106.659 Y111.881 E.01938
G1 X106.149 Y111.988 E.01938
G1 X105.63 Y111.959 E.01938
G1 X105.135 Y111.796 E.01938
G1 X104.7 Y111.511 E.01938
G1 X104.353 Y111.123 E.01938
G1 X104.121 Y110.665 E.01911
G1 X104.014 Y110.159 E.01929
G1 X104.041 Y109.63 E.01974
G1 X104.204 Y109.135 E.01938
G1 X104.489 Y108.7 E.01938
G1 X104.877 Y108.353 E.01938
G1 X105.341 Y108.119 E.01938
G1 X105.844 Y108.013 E.01911
G1 X106.361 Y108.04 E.01929
G1 X106.865 Y108.204 E.01974
G1 X107.3 Y108.489 E.01938
G1 X107.46 Y108.668 E.00893
G1 X107.195 Y109.047 F9000
G1 F900
G1 X107.374 Y109.31 E.01186
G1 X107.505 Y109.689 E.01495
G1 X107.535 Y110.09 E.01494
G1 X107.459 Y110.484 E.01494
G1 X107.284 Y110.845 E.01494
G1 X107.022 Y111.148 E.01495
G1 X106.69 Y111.374 E.01495
G1 X106.311 Y111.505 E.01495
G1 X105.911 Y111.535 E.01495
G1 X105.516 Y111.459 E.01495
G1 X105.155 Y111.284 E.01495
G1 X104.852 Y111.022 E.01495
G1 X104.626 Y110.69 E.01495
G1 X104.498 Y110.323 E.01447
G1 X104.466 Y110.095 E.00857
G1 X104.512 Y109.601 E.01851
G1 X104.716 Y109.155 E.01824
G1 X104.978 Y108.852 E.01495
G1 X105.31 Y108.626 E.01495
G1 X105.689 Y108.495 E.01495
G1 X106.077 Y108.466 E.01447
G1 X106.483 Y108.541 E.01541
G1 X106.845 Y108.716 E.01495
G1 X107.148 Y108.978 E.01495
G1 X107.172 Y109.014 E.0016
G1 X106.801 Y109.313 F9000
;TYPE:Outer wall
G1 F900
G1 X106.932 Y109.493 E.00829
G1 X107.031 Y109.752 E.01032
G1 X107.06 Y110.027 E.01031
G1 X107.017 Y110.301 E.01031
G1 X106.905 Y110.553 E.01031
G1 X106.73 Y110.769 E.01031
G1 X106.507 Y110.932 E.01031
G1 X106.248 Y111.031 E.01031
G1 X105.973 Y111.06 E.01031
G1 X105.7 Y111.017 E.01031
G1 X105.447 Y110.905 E.01031
G1 X105.231 Y110.73 E.01031
G1 X105.068 Y110.507 E.01031
G1 X104.972 Y110.257 E.00998
G1 X104.94 Y110.029 E.00857
G1 X104.983 Y109.7 E.01237
G1 X105.095 Y109.447 E.01031
G1 X105.27 Y109.231 E.01031
G1 X105.493 Y109.068 E.01031
G1 X105.752 Y108.969 E.01031
G1 X106.018 Y108.941 E.00998
G1 X106.3 Y108.983 E.01063
G1 X106.553 Y109.095 E.01032
G1 X106.769 Y109.27 E.01031
G1 X106.777 Y109.281 E.00053
G1 E-3.5 F3600
;WIPE_START
G1 F900
G1 X106.932 Y109.493 E-.39375
G1 X107.031 Y109.752 E-.41544
G1 X107.06 Y110.027 E-.41518
G1 X107.031 Y110.209 E-.27563
;WIPE_END
G1 Z.6 F9000
G1 X126.527 Y98.155 Z.6
G1 Z.2
G1 E5 F2400
;TYPE:Bottom surface
;WIDTH:0.504114
G1 F1200
G1 X125.8 Y97.428 E.03864
G1 X125.148 Y97.428 E.02451
G1 X126.322 Y98.602 E.06237
G1 X126.322 Y99.254 E.02451
G1 X124.496 Y97.428 E.09704
G1 X123.844 Y97.428 E.02451
G1 X126.322 Y99.906 E.1317
G1 X126.322 Y100.559 E.02451
G1 X123.191 Y97.428 E.16637
G1 X122.539 Y97.428 E.02451
G1 X126.322 Y101.211 E.20103
G1 X126.322 Y101.863 E.02451
G1 X121.887 Y97.428 E.2357
M73 P3 R40
G1 X121.235 Y97.428 E.02451
G1 X126.322 Y102.515 E.27036
G1 X126.322 Y103.168 E.02451
G1 X120.582 Y97.428 E.30503
G1 X119.93 Y97.428 E.02451
G1 X126.322 Y103.82 E.33969
G1 X126.322 Y104.472 E.02451
G1 X119.278 Y97.428 E.37435
G1 X118.626 Y97.428 E.02451
G1 X126.322 Y105.124 E.40902
G1 X126.322 Y105.776 E.02451
G1 X117.974 Y97.428 E.44368
G1 X117.321 Y97.428 E.02451
G1 X126.322 Y106.429 E.47835
G1 X126.322 Y107.081 E.02451
G1 X116.669 Y97.428 E.51301
G1 X116.017 Y97.428 E.02451
G1 X126.322 Y107.733 E.54768
G1 X126.322 Y108.385 E.02451
G1 X115.365 Y97.428 E.58234
G1 X114.712 Y97.428 E.02451
G1 X126.322 Y109.038 E.61701
G1 X126.322 Y109.69 E.02451
G1 X114.06 Y97.428 E.65167
G1 X113.408 Y97.428 E.02451
G1 X126.322 Y110.342 E.68634
G1 X126.322 Y110.994 E.02451
G1 X112.756 Y97.428 E.721
G1 X112.103 Y97.428 E.02451
G1 X126.322 Y111.647 E.75567
G1 X126.322 Y112.299 E.02451
G1 X111.451 Y97.428 E.79033
G1 X110.799 Y97.428 E.02451
G1 X126.322 Y112.951 E.825
G1 X126.322 Y113.603 E.02451
G1 X110.147 Y97.428 E.85966
G1 X109.495 Y97.428 E.02451
G1 X126.322 Y114.255 E.89433
G1 X126.322 Y114.908 E.02451
G1 X108.842 Y97.428 E.92899
G1 X108.19 Y97.428 E.02451
G1 X126.322 Y115.56 E.96365
G1 X126.322 Y116.212 E.02451
G1 X107.538 Y97.428 E.99832
G1 X106.886 Y97.428 E.02451
G1 X126.322 Y116.864 E1.03298
G1 X126.322 Y117.517 E.02451
G1 X106.233 Y97.428 E1.06765
G1 X105.581 Y97.428 E.02451
G1 X126.322 Y118.169 E1.10231
G1 X126.322 Y118.821 E.02451
G1 X104.929 Y97.428 E1.13698
G1 X104.277 Y97.428 E.02451
M73 P4 R40
G1 X114.583 Y107.734 E.54774
G1 X114.788 Y107.801 E.0081
G1 X115.174 Y107.975 E.01594
G1 X115.631 Y108.321 E.02155
G1 X115.922 Y108.672 E.01714
G1 X116.111 Y108.999 E.01416
G1 X116.264 Y109.416 E.01671
G1 X126.322 Y119.473 E.53453
G1 X126.322 Y120.125 E.02451
M73 P4 R39
G1 X116.324 Y110.128 E.53133
G1 X116.261 Y110.606 E.0181
G1 X116.231 Y110.687 E.00325
G1 X126.322 Y120.778 E.53632
G1 X126.322 Y121.43 E.02451
G1 X116.031 Y111.139 E.54693
G1 X115.922 Y111.328 E.00817
G1 X115.761 Y111.522 E.00948
G1 X126.322 Y122.082 E.56126
G1 X126.322 Y122.572 E.01839
G1 X126.159 Y122.572 E.00612
G1 X115.424 Y111.836 E.57056
G1 X115.174 Y112.025 E.01175
G1 X115.027 Y112.092 E.00609
G1 X125.507 Y122.572 E.55699
G1 X124.854 Y122.572 E.02451
G1 X114.551 Y112.268 E.5476
G1 X114.48 Y112.289 E.00276
G1 X113.968 Y112.338 E.01934
G1 X124.408 Y122.777 E.55485
G1 E-3.5 F3600
;WIPE_START
G1 F1200
G1 X123.701 Y122.07 E-1.5
;WIPE_END
G1 Z.6 F9000
G1 X114.071 Y107.875 Z.6
G1 Z.2
G1 E5 F2400
G1 F1200
G1 X103.625 Y97.428 E.5552
G1 X102.972 Y97.428 E.02451
G1 X113.315 Y107.771 E.54968
G1 X113.213 Y107.8 E.00397
G1 X112.86 Y107.968 E.0147
G1 X102.32 Y97.428 E.56018
G1 X101.668 Y97.428 E.02451
G1 X112.477 Y108.237 E.57448
G1 X112.363 Y108.327 E.00546
G1 X112.16 Y108.573 E.01197
G1 X101.016 Y97.428 E.5923
G1 X100.363 Y97.428 E.02451
G1 X111.906 Y108.971 E.61344
G1 X111.729 Y109.446 E.01907
G1 X99.711 Y97.428 E.63873
G1 X99.059 Y97.428 E.02451
G1 X111.893 Y110.262 E.68209
G1 E-3.5 F3600
;WIPE_START
G1 F1200
G1 X111.186 Y109.555 E-1.5
;WIPE_END
G1 Z.6 F9000
G1 X123.756 Y122.777 Z.6
G1 Z.2
G1 E5 F2400
G1 F1200
G1 X98.407 Y97.428 E1.34725
G1 X97.754 Y97.428 E.02451
G1 X122.898 Y122.572 E1.33631
G1 X122.245 Y122.572 E.02451
G1 X97.102 Y97.428 E1.33631
G1 X96.45 Y97.428 E.02451
G1 X121.593 Y122.572 E1.33631
G1 X120.941 Y122.572 E.02451
G1 X108.338 Y109.968 E.66984
G1 X108.271 Y110.554 E.02214
M73 P5 R39
G1 X120.289 Y122.572 E.63873
G1 X119.636 Y122.572 E.02451
G1 X108.094 Y111.029 E.61344
G1 X107.922 Y111.328 E.01293
G1 X107.84 Y111.427 E.00486
G1 X118.984 Y122.572 E.5923
G1 X118.332 Y122.572 E.02451
G1 X107.523 Y111.763 E.57447
G1 X107.243 Y111.983 E.01339
G1 X107.14 Y112.032 E.00428
G1 X117.68 Y122.572 E.56018
G1 X117.028 Y122.572 E.02451
G1 X106.685 Y112.229 E.54968
G1 X106.48 Y112.289 E.00801
G1 X106.131 Y112.327 E.01323
G1 X116.581 Y122.777 E.55542
G1 E-3.5 F3600
;WIPE_START
G1 F1200
G1 X115.874 Y122.07 E-1.5
;WIPE_END
G1 Z.6 F9000
G1 X106.262 Y107.893 Z.6
G1 Z.2
G1 E5 F2400
G1 F1200
G1 X95.798 Y97.428 E.55618
G1 X95.146 Y97.428 E.02451
G1 X105.449 Y107.732 E.5476
G1 X105.214 Y107.8 E.00918
G1 X104.973 Y107.908 E.00993
G1 X94.493 Y97.428 E.55699
G1 X93.841 Y97.428 E.02451
G1 X104.576 Y108.164 E.57056
G1 X104.369 Y108.321 E.0098
G1 X104.239 Y108.478 E.00766
G1 X93.678 Y97.918 E.56125
G1 X93.678 Y98.57 E.02451
G1 X103.969 Y108.861 E.54692
G1 X103.889 Y108.999 E.00599
G1 X103.769 Y109.313 E.01266
G1 X93.678 Y99.222 E.53632
G1 X93.678 Y99.875 E.02451
G1 X103.87 Y110.066 E.54166
G1 E-3.5 F3600
;WIPE_START
G1 F1200
G1 X103.163 Y109.359 E-1.5
;WIPE_END
G1 Z.6 F9000
G1 X93.473 Y100.321 Z.6
G1 Z.2
G1 E5 F2400
G1 F1200
G1 X103.738 Y110.586 E.54558
G1 X103.889 Y111.001 E.0166
G1 X104.078 Y111.328 E.01416
G1 X104.369 Y111.679 E.01714
G1 X104.826 Y112.025 E.02155
G1 X105.216 Y112.201 E.01607
G1 X105.402 Y112.25 E.00726
G1 X115.723 Y122.572 E.54855
G1 X115.071 Y122.572 E.02451
G1 X93.678 Y101.179 E1.13697
G1 X93.678 Y101.831 E.02451
G1 X114.419 Y122.572 E1.10231
G1 X113.766 Y122.572 E.02451
G1 X93.678 Y102.484 E1.06764
G1 X93.678 Y103.136 E.02451
G1 X113.114 Y122.572 E1.03298
G1 X112.462 Y122.572 E.02451
G1 X93.678 Y103.788 E.99831
G1 X93.678 Y104.44 E.02451
G1 X111.81 Y122.572 E.96365
G1 X111.158 Y122.572 E.02451
G1 X93.678 Y105.092 E.92898
G1 X93.678 Y105.745 E.02451
M73 P6 R39
G1 X110.505 Y122.572 E.89432
G1 X109.853 Y122.572 E.02451
G1 X93.678 Y106.397 E.85965
G1 X93.678 Y107.049 E.02451
G1 X109.201 Y122.572 E.82499
G1 X108.549 Y122.572 E.02451
G1 X93.678 Y107.701 E.79033
G1 X93.678 Y108.354 E.02451
G1 X107.896 Y122.572 E.75566
G1 X107.244 Y122.572 E.02451
G1 X93.678 Y109.006 E.721
G1 X93.678 Y109.658 E.02451
G1 X106.592 Y122.572 E.68633
G1 X105.94 Y122.572 E.02451
G1 X93.678 Y110.31 E.65167
G1 X93.678 Y110.962 E.02451
G1 X105.288 Y122.572 E.617
G1 X104.635 Y122.572 E.02451
G1 X93.678 Y111.615 E.58234
G1 X93.678 Y112.267 E.02451
G1 X103.983 Y122.572 E.54767
G1 X103.331 Y122.572 E.02451
G1 X93.678 Y112.919 E.51301
M73 P6 R38
G1 X93.678 Y113.571 E.02451
G1 X102.679 Y122.572 E.47834
G1 X102.026 Y122.572 E.02451
G1 X93.678 Y114.224 E.44368
G1 X93.678 Y114.876 E.02451
G1 X101.374 Y122.572 E.40901
G1 X100.722 Y122.572 E.02451
G1 X93.678 Y115.528 E.37435
G1 X93.678 Y116.18 E.02451
G1 X100.07 Y122.572 E.33968
G1 X99.417 Y122.572 E.02451
G1 X93.678 Y116.833 E.30502
G1 X93.678 Y117.485 E.02451
G1 X98.765 Y122.572 E.27035
G1 X98.113 Y122.572 E.02451
G1 X93.678 Y118.137 E.23569
G1 X93.678 Y118.789 E.02451
G1 X97.461 Y122.572 E.20103
G1 X96.809 Y122.572 E.02451
G1 X93.678 Y119.441 E.16636
G1 X93.678 Y120.094 E.02451
G1 X96.156 Y122.572 E.1317
G1 X95.504 Y122.572 E.02451
G1 X93.678 Y120.746 E.09703
G1 X93.678 Y121.398 E.02451
G1 X94.852 Y122.572 E.06237
G1 X94.2 Y122.572 E.02451
G1 X93.473 Y121.845 E.03863
; stop printing object BasePlate.stl id:720576387062527073 copy 0
M106 S255
;LAYER_CHANGE
;Z:0.32
;HEIGHT:0.12
;BEFORE_LAYER_CHANGE
;0.32
G92 E0

G1 E-3.5 F3600
;WIPE_START
G1 F1200
G1 X94.18 Y122.552 E-1.5
;WIPE_END
;_SET_FAN_SPEED_CHANGING_LAYER
; printing object BasePlate.stl id:720576387062527073 copy 0
M204 S700
G1 Z.72 F9000
G1 X126.974 Y123.224 Z.72
G1 Z.32
G1 E5 F2400
M204 S500
;TYPE:Inner wall
;WIDTH:0.449999
G1 X93.026 Y123.224 E.70415
G1 X93.026 Y96.776 E.54858
G1 X126.974 Y96.776 E.70415
G1 X126.974 Y123.184 E.54775
M204 S700
G1 X127.398 Y123.648 F9000
M204 S500
G1 F2400
G1 X92.602 Y123.648 E.72175
G1 X92.602 Y96.352 E.56618
G1 X127.398 Y96.352 E.72175
G1 X127.398 Y123.608 E.56535
M73 P7 R38
G1 X127.81 Y124.06 F9000
;TYPE:Outer wall
;WIDTH:0.399999
G1 F1320
G1 X92.95 Y124.06 E.63786
G1 X92.19 Y124.06 E.01391
G1 X92.19 Y123.3 E.01391
G1 X92.19 Y95.94 E.50063
G1 X127.81 Y95.94 E.65177
G1 X127.81 Y124.02 E.5138
M204 S700
G1 E-3.5 F3600
;WIPE_START
G1 F1320
G1 X126.81 Y124.021 E-1.5
;WIPE_END
