; HEADER_BLOCK_START
; generated by OrcaSlicer 2.3.2 on 2026-06-01 at 21:17:33
; total layer number: 26
; filament_density: 1.24
; filament_diameter: 1.75
; max_z_height: 6.20
; filament: 1
; HEADER_BLOCK_END

; THUMBNAIL_BLOCK_START

;
; THUMBNAIL_BLOCK_END

; THUMBNAIL_BLOCK_START

;
; THUMBNAIL_BLOCK_END

; external perimeters extrusion width = 0.40mm
; perimeters extrusion width = 0.45mm
; infill extrusion width = 0.45mm
; solid infill extrusion width = 0.40mm
; top infill extrusion width = 0.45mm
; first layer extrusion width = 0.50mm

; EXECUTABLE_BLOCK_START
M73 P0 R23
M201 X500 Y500 Z500 E5000
M203 X500 Y500 Z10 E60
M204 P500 R1000 T500
M205 X8.00 Y8.00 Z0.40 E5.00 ; sets the jerk limits, mm/sec
;TYPE:Custom
G90 ; use absolute coordinates
M83 ; extruder relative mode
M140 S60 ; set final bed temp
M104 S150 ; set temporary nozzle temp to prevent oozing during homing
G4 S10 ; allow partial nozzle warmup
G28 ; home all axis
G1 Z50 F240
G1 X2 Y10 F3000
M104 S220 ; set final nozzle temp
M190 S60 ; wait for bed temp to stabilize
M109 S220 ; wait for nozzle temp to stabilize
G1 Z0.28 F240
G92 E0
G1 Y140 E10 F1500 ; prime the nozzle
M73 P1 R22
G1 X2.3 F5000
M73 P2 R22
G92 E0
G1 Y10 E10 F1200 ; prime the nozzle
G92 E0
G90
G21
M83 ; use relative distances for extrusion
; filament start gcode
M106 S0
;LAYER_CHANGE
;Z:0.2
;HEIGHT:0.2
;BEFORE_LAYER_CHANGE
;0.2
G92 E0

G1 E-5 F3600
;_SET_FAN_SPEED_CHANGING_LAYER
M204 S500
G1 Z.6 F9000
G1 X90.32 Y95.478
G1 Z.6
G1 Z.2
G1 E5 F2400
;TYPE:Skirt
;WIDTH:0.5
G1 F3000
G1 X131.514 Y95.478 E1.5343
G1 X132.775 Y95.869 E.04917
G1 X133.593 Y96.905 E.04917
G1 X133.742 Y97.706 E.03037
G1 X133.742 Y122.294 E.91578
G1 X133.351 Y123.555 E.04917
G1 X132.315 Y124.373 E.04917
G1 X131.514 Y124.522 E.03037
G1 X88.486 Y124.522 E1.60261
G1 X87.225 Y124.131 E.04917
G1 X86.407 Y123.095 E.04917
G1 X86.258 Y122.294 E.03037
G1 X86.258 Y97.706 E.91578
G1 X86.649 Y96.445 E.04917
G1 X87.685 Y95.627 E.04917
G1 X88.486 Y95.478 E.03037
G1 X90.28 Y95.478 E.06682
; printing object Base_Body.stl id:4571311616448004096 copy 0
G1 E-3.8 F3600
;WIPE_START
G1 F3000
G1 X91.28 Y95.478 E-1.2
;WIPE_END
G1 Z.6 F9000
M73 P3 R22
G1 X130.328 Y121.108 Z.6
G1 Z.2
G1 E5 F2400
;TYPE:Inner wall
;WIDTH:0.499999
G1 F900
G1 X89.672 Y121.108 E1.51429
G1 X89.672 Y98.892 E.82746
G1 X130.328 Y98.892 E1.51429
G1 X130.328 Y121.068 E.82597
G1 X130.785 Y121.565 F9000
G1 F900
G1 X89.215 Y121.565 E1.54834
G1 X89.215 Y98.435 E.86151
G1 X130.785 Y98.435 E1.54834
G1 X130.785 Y121.525 E.86002
M73 P4 R22
G1 X131.264 Y122.044 F9000
;TYPE:Outer wall
G1 F900
G1 X88.736 Y122.044 E1.58399
G1 X88.736 Y97.956 E.89715
G1 X131.264 Y97.956 E1.58399
G1 X131.264 Y122.004 E.89566
G1 E-3.5 F3600
;WIPE_START
G1 F900
G1 X130.264 Y122.005 E-1.5
;WIPE_END
G1 Z.6 F9000
G1 X129.261 Y99.029 Z.6
G1 Z.2
G1 E5 F2400
;TYPE:Bottom surface
;WIDTH:0.50265
G1 F1200
G1 X129.985 Y99.753 E.03835
G1 X129.985 Y100.403 E.02436
G1 X128.817 Y99.235 E.0619
G1 X128.167 Y99.235 E.02436
M73 P5 R22
G1 X129.985 Y101.053 E.09635
G1 X129.985 Y101.704 E.02436
G1 X127.517 Y99.235 E.13079
G1 X126.866 Y99.235 E.02436
G1 X129.985 Y102.354 E.16524
G1 X129.985 Y103.004 E.02436
G1 X126.216 Y99.235 E.19968
G1 X125.566 Y99.235 E.02436
G1 X129.985 Y103.654 E.23413
G1 X129.985 Y104.304 E.02436
G1 X124.916 Y99.235 E.26857
G1 X124.266 Y99.235 E.02436
G1 X129.985 Y104.954 E.30302
G1 X129.985 Y105.604 E.02436
G1 X123.616 Y99.235 E.33746
G1 X122.966 Y99.235 E.02436
G1 X129.985 Y106.255 E.37191
G1 X129.985 Y106.905 E.02436
G1 X122.315 Y99.235 E.40635
G1 X121.665 Y99.235 E.02436
G1 X129.985 Y107.555 E.4408
G1 X129.985 Y108.205 E.02436
G1 X121.015 Y99.235 E.47524
G1 X120.365 Y99.235 E.02436
G1 X129.985 Y108.855 E.50969
G1 X129.985 Y109.505 E.02436
G1 X119.715 Y99.235 E.54413
G1 X119.065 Y99.235 E.02436
G1 X129.985 Y110.156 E.57857
G1 X129.985 Y110.806 E.02436
G1 X118.414 Y99.235 E.61302
G1 X117.764 Y99.235 E.02436
G1 X129.985 Y111.456 E.64746
G1 X129.985 Y112.106 E.02436
G1 X117.114 Y99.235 E.68191
G1 X116.464 Y99.235 E.02436
G1 X129.985 Y112.756 E.71635
G1 X129.985 Y113.406 E.02436
G1 X115.814 Y99.235 E.7508
G1 X115.164 Y99.235 E.02436
G1 X129.985 Y114.057 E.78524
G1 X129.985 Y114.707 E.02436
G1 X114.514 Y99.235 E.81969
G1 X113.863 Y99.235 E.02436
M73 P6 R21
G1 X129.985 Y115.357 E.85413
G1 X129.985 Y116.007 E.02436
G1 X113.213 Y99.235 E.88858
G1 X112.563 Y99.235 E.02436
G1 X129.985 Y116.657 E.92302
G1 X129.985 Y117.307 E.02436
G1 X111.913 Y99.235 E.95747
G1 X111.263 Y99.235 E.02436
G1 X129.985 Y117.957 E.99191
G1 X129.985 Y118.608 E.02436
G1 X110.613 Y99.235 E1.02636
G1 X109.962 Y99.235 E.02436
G1 X129.985 Y119.258 E1.0608
G1 X129.985 Y119.908 E.02436
G1 X109.312 Y99.235 E1.09525
G1 X108.662 Y99.235 E.02436
G1 X129.985 Y120.558 E1.12969
G1 X129.985 Y120.765 E.00776
G1 X129.542 Y120.765 E.0166
G1 X108.012 Y99.235 E1.14066
G1 X107.362 Y99.235 E.02436
M73 P7 R21
G1 X128.892 Y120.765 E1.14066
G1 X128.242 Y120.765 E.02436
G1 X106.712 Y99.235 E1.14066
G1 X106.061 Y99.235 E.02436
G1 X127.592 Y120.765 E1.14066
G1 X126.942 Y120.765 E.02436
G1 X105.411 Y99.235 E1.14066
G1 X104.761 Y99.235 E.02436
G1 X126.291 Y120.765 E1.14066
G1 X125.641 Y120.765 E.02436
G1 X104.111 Y99.235 E1.14066
G1 X103.461 Y99.235 E.02436
G1 X124.991 Y120.765 E1.14066
G1 X124.341 Y120.765 E.02436
G1 X102.811 Y99.235 E1.14066
G1 X102.161 Y99.235 E.02436
G1 X123.691 Y120.765 E1.14066
G1 X123.041 Y120.765 E.02436
M73 P8 R21
G1 X101.51 Y99.235 E1.14066
G1 X100.86 Y99.235 E.02436
G1 X122.391 Y120.765 E1.14066
G1 X121.74 Y120.765 E.02436
G1 X100.21 Y99.235 E1.14066
G1 X99.56 Y99.235 E.02436
G1 X121.09 Y120.765 E1.14066
G1 X120.44 Y120.765 E.02436
G1 X98.91 Y99.235 E1.14066
G1 X98.26 Y99.235 E.02436
G1 X119.79 Y120.765 E1.14066
G1 X119.14 Y120.765 E.02436
G1 X97.609 Y99.235 E1.14066
G1 X96.959 Y99.235 E.02436
G1 X118.49 Y120.765 E1.14066
G1 X117.839 Y120.765 E.02436
G1 X96.309 Y99.235 E1.14066
G1 X95.659 Y99.235 E.02436
M73 P9 R21
G1 X117.189 Y120.765 E1.14066
G1 X116.539 Y120.765 E.02436
G1 X95.009 Y99.235 E1.14066
G1 X94.359 Y99.235 E.02436
G1 X115.889 Y120.765 E1.14066
G1 X115.239 Y120.765 E.02436
G1 X93.709 Y99.235 E1.14066
G1 X93.058 Y99.235 E.02436
G1 X114.589 Y120.765 E1.14066
G1 X113.938 Y120.765 E.02436
G1 X92.408 Y99.235 E1.14066
G1 X91.758 Y99.235 E.02436
G1 X113.288 Y120.765 E1.14066
G1 X112.638 Y120.765 E.02436
G1 X91.108 Y99.235 E1.14066
G1 X90.458 Y99.235 E.02436
G1 X111.988 Y120.765 E1.14066
G1 X111.338 Y120.765 E.02436
M73 P10 R21
G1 X90.015 Y99.442 E1.12969
G1 X90.015 Y100.092 E.02436
G1 X110.688 Y120.765 E1.09525
G1 X110.038 Y120.765 E.02436
M73 P10 R20
G1 X90.015 Y100.742 E1.0608
G1 X90.015 Y101.392 E.02436
G1 X109.387 Y120.765 E1.02636
G1 X108.737 Y120.765 E.02436
G1 X90.015 Y102.043 E.99191
G1 X90.015 Y102.693 E.02436
G1 X108.087 Y120.765 E.95747
G1 X107.437 Y120.765 E.02436
G1 X90.015 Y103.343 E.92302
G1 X90.015 Y103.993 E.02436
G1 X106.787 Y120.765 E.88858
G1 X106.137 Y120.765 E.02436
G1 X90.015 Y104.643 E.85413
G1 X90.015 Y105.293 E.02436
G1 X105.486 Y120.765 E.81969
G1 X104.836 Y120.765 E.02436
M73 P11 R20
G1 X90.015 Y105.944 E.78524
G1 X90.015 Y106.594 E.02436
G1 X104.186 Y120.765 E.7508
G1 X103.536 Y120.765 E.02436
G1 X90.015 Y107.244 E.71635
G1 X90.015 Y107.894 E.02436
G1 X102.886 Y120.765 E.68191
G1 X102.236 Y120.765 E.02436
G1 X90.015 Y108.544 E.64746
G1 X90.015 Y109.194 E.02436
G1 X101.586 Y120.765 E.61302
G1 X100.935 Y120.765 E.02436
G1 X90.015 Y109.844 E.57857
G1 X90.015 Y110.495 E.02436
G1 X100.285 Y120.765 E.54413
G1 X99.635 Y120.765 E.02436
G1 X90.015 Y111.145 E.50968
G1 X90.015 Y111.795 E.02436
G1 X98.985 Y120.765 E.47524
G1 X98.335 Y120.765 E.02436
G1 X90.015 Y112.445 E.44079
G1 X90.015 Y113.095 E.02436
G1 X97.685 Y120.765 E.40635
G1 X97.034 Y120.765 E.02436
G1 X90.015 Y113.745 E.3719
G1 X90.015 Y114.396 E.02436
G1 X96.384 Y120.765 E.33746
G1 X95.734 Y120.765 E.02436
G1 X90.015 Y115.046 E.30301
G1 X90.015 Y115.696 E.02436
G1 X95.084 Y120.765 E.26857
G1 X94.434 Y120.765 E.02436
G1 X90.015 Y116.346 E.23412
G1 X90.015 Y116.996 E.02436
G1 X93.784 Y120.765 E.19968
G1 X93.133 Y120.765 E.02436
G1 X90.015 Y117.646 E.16523
G1 X90.015 Y118.296 E.02436
G1 X92.483 Y120.765 E.13079
G1 X91.833 Y120.765 E.02436
G1 X90.015 Y118.947 E.09634
G1 X90.015 Y119.597 E.02436
M73 P12 R20
G1 X91.183 Y120.765 E.0619
G1 X90.533 Y120.765 E.02436
G1 X89.809 Y120.041 E.03835
; stop printing object Base_Body.stl id:4571311616448004096 copy 0
M106 S255
;LAYER_CHANGE
;Z:0.44
;HEIGHT:0.24
;BEFORE_LAYER_CHANGE
;0.44
G92 E0

G1 E-3.5 F3600
;WIPE_START
G1 F1200
G1 X90.516 Y120.748 E-1.5
;WIPE_END
;_SET_FAN_SPEED_CHANGING_LAYER
; printing object Base_Body.stl id:4571311616448004096 copy 0
M204 S700
G1 Z.84 F9000
G1 X130.516 Y121.296 Z.84
G1 Z.44
G1 E5 F2400
M204 S500
;TYPE:Inner wall
;WIDTH:0.449999
G1 X89.484 Y121.296 E1.59889
G1 X89.484 Y98.704 E.88032
G1 X130.516 Y98.704 E1.59889
G1 X130.516 Y121.256 E.87877
M204 S700
G1 X130.915 Y121.694 F9000
M204 S500
G1 F2400
G1 X89.085 Y121.694 E1.62994
G1 X89.085 Y98.306 E.91138
G1 X130.915 Y98.306 E1.62994
G1 X130.915 Y121.654 E.90982
G1 X131.314 Y122.094 F9000
;TYPE:Outer wall
;WIDTH:0.399999
G1 F1500
G1 X88.686 Y122.094 E1.45264
G1 X88.686 Y97.906 E.82424
G1 X131.314 Y97.906 E1.45264
G1 X131.314 Y122.054 E.82288
M204 S700
G1 E-3.5 F3600
;WIPE_START
G1 F1500
G1 X130.314 Y122.055 E-1.5
;WIPE_END
G1 Z.84 F9000
G1 X128.594 Y120.922 Z.84
G1 Z.44
M73 P13 R20
G1 E5 F2400
M204 S500
;TYPE:Internal solid infill
G1 X130.143 Y120.922 E.05277
G1 X130.143 Y119.374 E.05277
G1 X128.622 Y120.894 E.07327
M204 S700
G1 X130.391 Y118.681 F9000
M204 S500
;WIDTH:0.40057
G1 F2400
G1 X128.058 Y121.014 E.11261
G1 X127.565 Y121.014 E.01685
G1 X130.234 Y118.344 E.12886
G1 X130.234 Y117.851 E.01685
G1 X127.071 Y121.014 E.15269
G1 X126.577 Y121.014 E.01685
G1 X130.234 Y117.357 E.17652
G1 X130.234 Y116.863 E.01685
G1 X126.084 Y121.014 E.20035
G1 X125.59 Y121.014 E.01685
G1 X130.234 Y116.37 E.22418
G1 X130.234 Y115.876 E.01685
G1 X125.096 Y121.014 E.24801
G1 X124.603 Y121.014 E.01685
G1 X130.234 Y115.383 E.27184
G1 X130.234 Y114.889 E.01685
G1 X124.109 Y121.014 E.29567
G1 X123.615 Y121.014 E.01685
G1 X130.234 Y114.395 E.3195
G1 X130.234 Y113.902 E.01685
G1 X123.122 Y121.014 E.34333
G1 X122.628 Y121.014 E.01685
G1 X130.234 Y113.408 E.36716
G1 X130.234 Y112.914 E.01685
G1 X122.134 Y121.014 E.39099
G1 X121.641 Y121.014 E.01685
G1 X130.234 Y112.421 E.41482
G1 X130.234 Y111.927 E.01685
G1 X121.147 Y121.014 E.43865
G1 X120.653 Y121.014 E.01685
G1 X130.234 Y111.433 E.46248
G1 X130.234 Y110.94 E.01685
G1 X120.16 Y121.014 E.48631
G1 X119.666 Y121.014 E.01685
G1 X130.234 Y110.446 E.51014
G1 X130.234 Y109.952 E.01685
G1 X119.172 Y121.014 E.53397
G1 X118.679 Y121.014 E.01685
G1 X130.234 Y109.459 E.5578
G1 X130.234 Y108.965 E.01685
G1 X118.185 Y121.014 E.58163
G1 X117.692 Y121.014 E.01685
G1 X130.234 Y108.471 E.60546
G1 X130.234 Y107.978 E.01685
G1 X117.198 Y121.014 E.62929
G1 X116.704 Y121.014 E.01685
G1 X130.234 Y107.484 E.65312
G1 X130.234 Y106.99 E.01685
G1 X116.211 Y121.014 E.67695
G1 X115.717 Y121.014 E.01685
G1 X130.234 Y106.497 E.70077
G1 X130.234 Y106.003 E.01685
G1 X115.223 Y121.014 E.7246
G1 X114.73 Y121.014 E.01685
G1 X130.234 Y105.509 E.74843
G1 X130.234 Y105.016 E.01685
G1 X114.236 Y121.014 E.77226
G1 X113.742 Y121.014 E.01685
G1 X130.234 Y104.522 E.79609
G1 X130.234 Y104.028 E.01685
G1 X113.249 Y121.014 E.81992
G1 X112.755 Y121.014 E.01685
G1 X130.234 Y103.535 E.84375
G1 X130.234 Y103.041 E.01685
M73 P14 R20
G1 X112.261 Y121.014 E.86758
G1 X111.768 Y121.014 E.01685
G1 X130.234 Y102.548 E.89141
G1 X130.234 Y102.054 E.01685
G1 X111.274 Y121.014 E.91524
G1 X110.78 Y121.014 E.01685
G1 X130.234 Y101.56 E.93907
G1 X130.234 Y101.067 E.01685
G1 X110.287 Y121.014 E.9629
G1 X109.793 Y121.014 E.01685
G1 X130.234 Y100.573 E.98673
G1 X130.234 Y100.079 E.01685
G1 X109.299 Y121.014 E1.01056
G1 X108.806 Y121.014 E.01685
G1 X130.234 Y99.586 E1.03439
G1 X130.234 Y99.092 E.01685
G1 X108.312 Y121.014 E1.05822
G1 X107.818 Y121.014 E.01685
G1 X129.846 Y98.986 E1.06333
M73 P14 R19
G1 X129.353 Y98.986 E.01685
G1 X107.325 Y121.014 E1.06333
G1 X106.831 Y121.014 E.01685
G1 X128.859 Y98.986 E1.06333
G1 X128.365 Y98.986 E.01685
G1 X106.337 Y121.014 E1.06333
G1 X105.844 Y121.014 E.01685
G1 X127.872 Y98.986 E1.06333
G1 X127.378 Y98.986 E.01685
G1 X105.35 Y121.014 E1.06333
G1 X104.857 Y121.014 E.01685
G1 X126.885 Y98.986 E1.06333
G1 X126.391 Y98.986 E.01685
G1 X104.363 Y121.014 E1.06333
G1 X103.869 Y121.014 E.01685
M73 P15 R19
G1 X125.897 Y98.986 E1.06333
G1 X125.404 Y98.986 E.01685
G1 X103.376 Y121.014 E1.06333
G1 X102.882 Y121.014 E.01685
G1 X124.91 Y98.986 E1.06333
G1 X124.416 Y98.986 E.01685
G1 X102.388 Y121.014 E1.06333
G1 X101.895 Y121.014 E.01685
G1 X123.923 Y98.986 E1.06333
G1 X123.429 Y98.986 E.01685
G1 X101.401 Y121.014 E1.06333
G1 X100.907 Y121.014 E.01685
G1 X122.935 Y98.986 E1.06333
G1 X122.442 Y98.986 E.01685
G1 X100.414 Y121.014 E1.06333
G1 X99.92 Y121.014 E.01685
G1 X121.948 Y98.986 E1.06333
G1 X121.454 Y98.986 E.01685
G1 X99.426 Y121.014 E1.06333
G1 X98.933 Y121.014 E.01685
G1 X120.961 Y98.986 E1.06333
G1 X120.467 Y98.986 E.01685
G1 X98.439 Y121.014 E1.06333
G1 X97.945 Y121.014 E.01685
G1 X119.973 Y98.986 E1.06333
G1 X119.48 Y98.986 E.01685
G1 X97.452 Y121.014 E1.06333
G1 X96.958 Y121.014 E.01685
G1 X118.986 Y98.986 E1.06333
G1 X118.492 Y98.986 E.01685
G1 X96.464 Y121.014 E1.06333
G1 X95.971 Y121.014 E.01685
G1 X117.999 Y98.986 E1.06333
G1 X117.505 Y98.986 E.01685
M73 P16 R19
G1 X95.477 Y121.014 E1.06333
G1 X94.983 Y121.014 E.01685
G1 X117.011 Y98.986 E1.06333
G1 X116.518 Y98.986 E.01685
G1 X94.49 Y121.014 E1.06333
G1 X93.996 Y121.014 E.01685
G1 X116.024 Y98.986 E1.06333
G1 X115.53 Y98.986 E.01685
G1 X93.502 Y121.014 E1.06333
G1 X93.009 Y121.014 E.01685
G1 X115.037 Y98.986 E1.06333
G1 X114.543 Y98.986 E.01685
G1 X92.515 Y121.014 E1.06333
G1 X92.022 Y121.014 E.01685
G1 X114.05 Y98.986 E1.06333
G1 X113.556 Y98.986 E.01685
G1 X91.528 Y121.014 E1.06333
G1 X91.034 Y121.014 E.01685
G1 X113.062 Y98.986 E1.06333
G1 X112.569 Y98.986 E.01685
G1 X90.541 Y121.014 E1.06333
G1 X90.047 Y121.014 E.01685
G1 X112.075 Y98.986 E1.06333
G1 X111.581 Y98.986 E.01685
G1 X89.766 Y120.801 E1.05307
G1 X89.766 Y120.308 E.01685
G1 X111.088 Y98.986 E1.02924
G1 X110.594 Y98.986 E.01685
G1 X89.766 Y119.814 E1.00541
G1 X89.766 Y119.32 E.01685
G1 X110.1 Y98.986 E.98158
G1 X109.607 Y98.986 E.01685
M73 P17 R19
G1 X89.766 Y118.827 E.95775
G1 X89.766 Y118.333 E.01685
G1 X109.113 Y98.986 E.93392
G1 X108.619 Y98.986 E.01685
G1 X89.766 Y117.84 E.91009
G1 X89.766 Y117.346 E.01685
G1 X108.126 Y98.986 E.88626
G1 X107.632 Y98.986 E.01685
G1 X89.766 Y116.852 E.86243
G1 X89.766 Y116.359 E.01685
G1 X107.138 Y98.986 E.8386
G1 X106.645 Y98.986 E.01685
G1 X89.766 Y115.865 E.81477
G1 X89.766 Y115.371 E.01685
G1 X106.151 Y98.986 E.79095
G1 X105.657 Y98.986 E.01685
G1 X89.766 Y114.878 E.76712
G1 X89.766 Y114.384 E.01685
G1 X105.164 Y98.986 E.74329
G1 X104.67 Y98.986 E.01685
G1 X89.766 Y113.89 E.71946
G1 X89.766 Y113.397 E.01685
G1 X104.176 Y98.986 E.69563
G1 X103.683 Y98.986 E.01685
G1 X89.766 Y112.903 E.6718
G1 X89.766 Y112.409 E.01685
G1 X103.189 Y98.986 E.64797
G1 X102.695 Y98.986 E.01685
G1 X89.766 Y111.916 E.62414
G1 X89.766 Y111.422 E.01685
G1 X102.202 Y98.986 E.60031
G1 X101.708 Y98.986 E.01685
G1 X89.766 Y110.928 E.57648
G1 X89.766 Y110.435 E.01685
G1 X101.215 Y98.986 E.55265
G1 X100.721 Y98.986 E.01685
G1 X89.766 Y109.941 E.52882
G1 X89.766 Y109.447 E.01685
G1 X100.227 Y98.986 E.50499
G1 X99.734 Y98.986 E.01685
G1 X89.766 Y108.954 E.48116
G1 X89.766 Y108.46 E.01685
G1 X99.24 Y98.986 E.45733
G1 X98.746 Y98.986 E.01685
G1 X89.766 Y107.966 E.4335
G1 X89.766 Y107.473 E.01685
G1 X98.253 Y98.986 E.40967
G1 X97.759 Y98.986 E.01685
M73 P18 R19
G1 X89.766 Y106.979 E.38584
G1 X89.766 Y106.485 E.01685
G1 X97.265 Y98.986 E.36201
G1 X96.772 Y98.986 E.01685
G1 X89.766 Y105.992 E.33818
G1 X89.766 Y105.498 E.01685
G1 X96.278 Y98.986 E.31435
G1 X95.784 Y98.986 E.01685
G1 X89.766 Y105.005 E.29052
G1 X89.766 Y104.511 E.01685
G1 X95.291 Y98.986 E.26669
G1 X94.797 Y98.986 E.01685
