; HEADER_BLOCK_START
; generated by OrcaSlicer 2.3.2 on 2026-06-01 at 11:46:32
; total layer number: 26
; filament_density: 1.24
; filament_diameter: 1.75
; max_z_height: 6.20
; filament: 1
; HEADER_BLOCK_END

; THUMBNAIL_BLOCK_START

;
; THUMBNAIL_BLOCK_END

; THUMBNAIL_BLOCK_START

;
; THUMBNAIL_BLOCK_END

; external perimeters extrusion width = 0.40mm
; perimeters extrusion width = 0.45mm
; infill extrusion width = 0.45mm
; solid infill extrusion width = 0.40mm
; top infill extrusion width = 0.45mm
; first layer extrusion width = 0.50mm

; EXECUTABLE_BLOCK_START
M73 P0 R19
M201 X500 Y500 Z500 E5000
M203 X500 Y500 Z10 E60
M204 P500 R1000 T500
M205 X8.00 Y8.00 Z0.40 E5.00 ; sets the jerk limits, mm/sec
;TYPE:Custom
G90 ; use absolute coordinates
M83 ; extruder relative mode
M140 S60 ; set final bed temp
M104 S150 ; set temporary nozzle temp to prevent oozing during homing
G4 S10 ; allow partial nozzle warmup
G28 ; home all axis
G1 Z50 F240
G1 X2 Y10 F3000
M73 P1 R19
M104 S220 ; set final nozzle temp
M190 S60 ; wait for bed temp to stabilize
M109 S220 ; wait for nozzle temp to stabilize
G1 Z0.28 F240
G92 E0
G1 Y140 E10 F1500 ; prime the nozzle
M73 P2 R19
G1 X2.3 F5000
G92 E0
G1 Y10 E10 F1200 ; prime the nozzle
G92 E0
G90
G21
M83 ; use relative distances for extrusion
; filament start gcode
M106 S0
;LAYER_CHANGE
;Z:0.2
;HEIGHT:0.2
;BEFORE_LAYER_CHANGE
;0.2
G92 E0

G1 E-5 F3600
M73 P3 R19
;_SET_FAN_SPEED_CHANGING_LAYER
M204 S500
G1 Z.6 F9000
G1 X92.071 Y96.707
G1 Z.6
G1 Z.2
G1 E5 F2400
;TYPE:Skirt
;WIDTH:0.5
G1 F3000
G1 X129.362 Y96.707 E1.38895
G1 X130.623 Y97.098 E.04917
G1 X131.442 Y98.134 E.04917
G1 X131.591 Y98.936 E.03037
G1 X131.591 Y121.064 E.8242
G1 X131.2 Y122.325 E.04917
G1 X130.164 Y123.144 E.04917
G1 X129.362 Y123.293 E.03037
G1 X90.638 Y123.293 E1.44235
G1 X89.377 Y122.902 E.04917
G1 X88.558 Y121.866 E.04917
G1 X88.409 Y121.064 E.03037
G1 X88.409 Y98.936 E.8242
G1 X88.8 Y97.675 E.04917
G1 X89.836 Y96.856 E.04917
G1 X90.638 Y96.707 E.03037
G1 X92.031 Y96.707 E.05192
; printing object Base-Body.stl id:720576387062527073 copy 0
G1 E-3.8 F3600
;WIPE_START
G1 F3000
G1 X93.031 Y96.707 E-1.2
;WIPE_END
G1 Z.6 F9000
G1 X128.177 Y119.879 Z.6
G1 Z.2
G1 E5 F2400
;TYPE:Inner wall
;WIDTH:0.499999
G1 F900
G1 X91.823 Y119.879 E1.35403
G1 X91.823 Y100.121 E.73588
G1 X128.177 Y100.121 E1.35403
G1 X128.177 Y119.839 E.73439
M73 P4 R19
G1 X128.634 Y120.336 F9000
G1 F900
G1 X91.366 Y120.336 E1.38808
G1 X91.366 Y99.664 E.76993
G1 X128.634 Y99.664 E1.38808
G1 X128.634 Y120.296 E.76844
G1 X129.112 Y120.814 F9000
M73 P4 R18
;TYPE:Outer wall
G1 F900
G1 X90.888 Y120.814 E1.42373
G1 X90.888 Y99.186 E.80558
M73 P5 R18
G1 X129.112 Y99.186 E1.42373
G1 X129.112 Y120.774 E.80409
G1 E-3.5 F3600
;WIPE_START
G1 F900
G1 X128.112 Y120.775 E-1.5
;WIPE_END
G1 Z.6 F9000
G1 X127.115 Y100.259 Z.6
G1 Z.2
G1 E5 F2400
;TYPE:Bottom surface
;WIDTH:0.500513
G1 F1200
G1 X127.834 Y100.978 E.03794
G1 X127.834 Y101.625 E.02413
G1 X126.673 Y100.464 E.06121
G1 X126.026 Y100.464 E.02413
G1 X127.834 Y102.272 E.09534
G1 X127.834 Y102.919 E.02413
G1 X125.379 Y100.464 E.12947
G1 X124.732 Y100.464 E.02413
G1 X127.834 Y103.566 E.16359
G1 X127.834 Y104.214 E.02413
G1 X124.085 Y100.464 E.19772
G1 X123.437 Y100.464 E.02413
G1 X127.834 Y104.861 E.23184
G1 X127.834 Y105.508 E.02413
G1 X122.79 Y100.464 E.26597
G1 X122.143 Y100.464 E.02413
G1 X127.834 Y106.155 E.30009
G1 X127.834 Y106.802 E.02413
G1 X121.496 Y100.464 E.33422
G1 X120.849 Y100.464 E.02413
G1 X127.834 Y107.449 E.36834
G1 X127.834 Y108.096 E.02413
G1 X120.202 Y100.464 E.40247
G1 X119.555 Y100.464 E.02413
G1 X127.834 Y108.744 E.43659
G1 X127.834 Y109.391 E.02413
G1 X118.908 Y100.464 E.47072
G1 X118.26 Y100.464 E.02413
M73 P6 R18
G1 X127.834 Y110.038 E.50485
G1 X127.834 Y110.685 E.02413
G1 X117.613 Y100.464 E.53897
G1 X116.966 Y100.464 E.02413
G1 X127.834 Y111.332 E.5731
G1 X127.834 Y111.979 E.02413
G1 X116.319 Y100.464 E.60722
G1 X115.672 Y100.464 E.02413
G1 X127.834 Y112.626 E.64135
G1 X127.834 Y113.273 E.02413
G1 X115.025 Y100.464 E.67547
G1 X114.378 Y100.464 E.02413
G1 X127.834 Y113.921 E.7096
G1 X127.834 Y114.568 E.02413
G1 X113.73 Y100.464 E.74372
G1 X113.083 Y100.464 E.02413
G1 X127.834 Y115.215 E.77785
G1 X127.834 Y115.862 E.02413
G1 X112.436 Y100.464 E.81197
G1 X111.789 Y100.464 E.02413
G1 X127.834 Y116.509 E.8461
G1 X127.834 Y117.156 E.02413
G1 X111.142 Y100.464 E.88023
G1 X110.495 Y100.464 E.02413
M73 P7 R18
G1 X127.834 Y117.803 E.91435
G1 X127.834 Y118.451 E.02413
G1 X109.848 Y100.464 E.94848
G1 X109.201 Y100.464 E.02413
G1 X127.834 Y119.098 E.9826
G1 X127.834 Y119.536 E.01634
G1 X127.625 Y119.536 E.00779
G1 X108.553 Y100.464 E1.00571
G1 X107.906 Y100.464 E.02413
G1 X126.978 Y119.536 E1.00571
G1 X126.331 Y119.536 E.02413
G1 X107.259 Y100.464 E1.00571
G1 X106.612 Y100.464 E.02413
G1 X125.684 Y119.536 E1.00571
G1 X125.036 Y119.536 E.02413
G1 X105.965 Y100.464 E1.00571
G1 X105.318 Y100.464 E.02413
G1 X124.389 Y119.536 E1.00571
G1 X123.742 Y119.536 E.02413
M73 P8 R18
G1 X104.671 Y100.464 E1.00571
G1 X104.023 Y100.464 E.02413
G1 X123.095 Y119.536 E1.00571
G1 X122.448 Y119.536 E.02413
G1 X103.376 Y100.464 E1.00571
G1 X102.729 Y100.464 E.02413
G1 X121.801 Y119.536 E1.00571
G1 X121.154 Y119.536 E.02413
G1 X102.082 Y100.464 E1.00571
G1 X101.435 Y100.464 E.02413
G1 X120.506 Y119.536 E1.00571
G1 X119.859 Y119.536 E.02413
G1 X100.788 Y100.464 E1.00571
G1 X100.141 Y100.464 E.02413
G1 X119.212 Y119.536 E1.00571
G1 X118.565 Y119.536 E.02413
M73 P9 R18
G1 X99.493 Y100.464 E1.00571
G1 X98.846 Y100.464 E.02413
G1 X117.918 Y119.536 E1.00571
G1 X117.271 Y119.536 E.02413
G1 X98.199 Y100.464 E1.00571
G1 X97.552 Y100.464 E.02413
G1 X116.624 Y119.536 E1.00571
G1 X115.977 Y119.536 E.02413
G1 X96.905 Y100.464 E1.00571
G1 X96.258 Y100.464 E.02413
G1 X115.329 Y119.536 E1.00571
G1 X114.682 Y119.536 E.02413
G1 X95.611 Y100.464 E1.00571
G1 X94.964 Y100.464 E.02413
M73 P9 R17
G1 X114.035 Y119.536 E1.00571
G1 X113.388 Y119.536 E.02413
G1 X94.316 Y100.464 E1.00571
G1 X93.669 Y100.464 E.02413
M73 P10 R17
G1 X112.741 Y119.536 E1.00571
G1 X112.094 Y119.536 E.02413
G1 X93.022 Y100.464 E1.00571
G1 X92.375 Y100.464 E.02413
G1 X111.447 Y119.536 E1.00571
G1 X110.799 Y119.536 E.02413
G1 X92.166 Y100.902 E.9826
G1 X92.166 Y101.55 E.02413
G1 X110.152 Y119.536 E.94848
G1 X109.505 Y119.536 E.02413
G1 X92.166 Y102.197 E.91435
G1 X92.166 Y102.844 E.02413
G1 X108.858 Y119.536 E.88022
G1 X108.211 Y119.536 E.02413
G1 X92.166 Y103.491 E.8461
G1 X92.166 Y104.138 E.02413
G1 X107.564 Y119.536 E.81197
G1 X106.917 Y119.536 E.02413
M73 P11 R17
G1 X92.166 Y104.785 E.77785
G1 X92.166 Y105.432 E.02413
G1 X106.27 Y119.536 E.74372
G1 X105.622 Y119.536 E.02413
G1 X92.166 Y106.079 E.7096
G1 X92.166 Y106.727 E.02413
G1 X104.975 Y119.536 E.67547
G1 X104.328 Y119.536 E.02413
G1 X92.166 Y107.374 E.64135
G1 X92.166 Y108.021 E.02413
G1 X103.681 Y119.536 E.60722
G1 X103.034 Y119.536 E.02413
G1 X92.166 Y108.668 E.5731
G1 X92.166 Y109.315 E.02413
G1 X102.387 Y119.536 E.53897
G1 X101.74 Y119.536 E.02413
G1 X92.166 Y109.962 E.50484
G1 X92.166 Y110.609 E.02413
G1 X101.092 Y119.536 E.47072
G1 X100.445 Y119.536 E.02413
G1 X92.166 Y111.257 E.43659
G1 X92.166 Y111.904 E.02413
G1 X99.798 Y119.536 E.40247
G1 X99.151 Y119.536 E.02413
G1 X92.166 Y112.551 E.36834
G1 X92.166 Y113.198 E.02413
G1 X98.504 Y119.536 E.33422
G1 X97.857 Y119.536 E.02413
G1 X92.166 Y113.845 E.30009
G1 X92.166 Y114.492 E.02413
M73 P12 R17
G1 X97.21 Y119.536 E.26597
G1 X96.563 Y119.536 E.02413
G1 X92.166 Y115.139 E.23184
G1 X92.166 Y115.786 E.02413
G1 X95.915 Y119.536 E.19771
G1 X95.268 Y119.536 E.02413
G1 X92.166 Y116.434 E.16359
G1 X92.166 Y117.081 E.02413
G1 X94.621 Y119.536 E.12946
G1 X93.974 Y119.536 E.02413
G1 X92.166 Y117.728 E.09534
G1 X92.166 Y118.375 E.02413
G1 X93.327 Y119.536 E.06121
G1 X92.68 Y119.536 E.02413
G1 X91.96 Y118.816 E.03793
; stop printing object Base-Body.stl id:720576387062527073 copy 0
M106 S255
;LAYER_CHANGE
;Z:0.44
;HEIGHT:0.24
;BEFORE_LAYER_CHANGE
;0.44
G92 E0

G1 E-3.5 F3600
;WIPE_START
G1 F1200
G1 X92.667 Y119.524 E-1.5
;WIPE_END
;_SET_FAN_SPEED_CHANGING_LAYER
; printing object Base-Body.stl id:720576387062527073 copy 0
M204 S700
G1 Z.84 F9000
G1 X128.365 Y120.066 Z.84
G1 Z.44
G1 E5 F2400
M204 S500
;TYPE:Inner wall
;WIDTH:0.449999
G1 X91.635 Y120.066 E1.43122
G1 X91.635 Y99.934 E.78452
G1 X128.365 Y99.934 E1.43122
G1 X128.365 Y120.026 E.78296
M204 S700
G1 X128.763 Y120.465 F9000
M204 S500
G1 F2400
G1 X91.237 Y120.465 E1.46228
G1 X91.237 Y99.535 E.81557
G1 X128.763 Y99.535 E1.46228
G1 X128.763 Y120.425 E.81401
G1 X129.162 Y120.864 F9000
;TYPE:Outer wall
;WIDTH:0.399999
G1 F1500
G1 X90.838 Y120.864 E1.30601
G1 X90.838 Y99.136 E.74045
G1 X129.162 Y99.136 E1.30601
G1 X129.162 Y120.824 E.73909
M73 P13 R17
M204 S700
G1 E-3.5 F3600
;WIPE_START
G1 F1500
G1 X128.162 Y120.825 E-1.5
;WIPE_END
G1 Z.84 F9000
G1 X126.797 Y119.693 Z.84
G1 Z.44
G1 E5 F2400
M204 S500
;TYPE:Internal solid infill
G1 X127.991 Y119.693 E.04069
G1 X127.991 Y118.499 E.04069
G1 X126.825 Y119.665 E.05619
M204 S700
G1 X128.24 Y117.806 F9000
M204 S500
;WIDTH:0.400638
G1 F2400
G1 X126.261 Y119.785 E.09552
G1 X125.768 Y119.785 E.01686
G1 X128.083 Y117.469 E.11178
G1 X128.083 Y116.976 E.01686
G1 X125.274 Y119.785 E.13562
G1 X124.78 Y119.785 E.01686
G1 X128.083 Y116.482 E.15946
G1 X128.083 Y115.988 E.01686
G1 X124.286 Y119.785 E.1833
G1 X123.793 Y119.785 E.01686
G1 X128.083 Y115.494 E.20714
G1 X128.083 Y115.001 E.01686
G1 X123.299 Y119.785 E.23098
G1 X122.805 Y119.785 E.01686
G1 X128.083 Y114.507 E.25482
G1 X128.083 Y114.013 E.01686
G1 X122.311 Y119.785 E.27866
G1 X121.818 Y119.785 E.01686
G1 X128.083 Y113.519 E.30249
G1 X128.083 Y113.026 E.01686
G1 X121.324 Y119.785 E.32633
G1 X120.83 Y119.785 E.01686
G1 X128.083 Y112.532 E.35017
G1 X128.083 Y112.038 E.01686
G1 X120.336 Y119.785 E.37401
G1 X119.843 Y119.785 E.01686
G1 X128.083 Y111.544 E.39785
G1 X128.083 Y111.051 E.01686
G1 X119.349 Y119.785 E.42169
G1 X118.855 Y119.785 E.01686
G1 X128.083 Y110.557 E.44553
G1 X128.083 Y110.063 E.01686
G1 X118.361 Y119.785 E.46937
G1 X117.868 Y119.785 E.01686
G1 X128.083 Y109.569 E.4932
G1 X128.083 Y109.076 E.01686
G1 X117.374 Y119.785 E.51704
G1 X116.88 Y119.785 E.01686
G1 X128.083 Y108.582 E.54088
G1 X128.083 Y108.088 E.01686
G1 X116.386 Y119.785 E.56472
G1 X115.893 Y119.785 E.01686
G1 X128.083 Y107.594 E.58856
G1 X128.083 Y107.101 E.01686
G1 X115.399 Y119.785 E.6124
G1 X114.905 Y119.785 E.01686
G1 X128.083 Y106.607 E.63624
G1 X128.083 Y106.113 E.01686
G1 X114.411 Y119.785 E.66008
G1 X113.918 Y119.785 E.01686
M73 P14 R17
G1 X128.083 Y105.619 E.68392
G1 X128.083 Y105.126 E.01686
G1 X113.424 Y119.785 E.70775
G1 X112.93 Y119.785 E.01686
G1 X128.083 Y104.632 E.73159
G1 X128.083 Y104.138 E.01686
G1 X112.436 Y119.785 E.75543
G1 X111.943 Y119.785 E.01686
G1 X128.083 Y103.644 E.77927
G1 X128.083 Y103.151 E.01686
G1 X111.449 Y119.785 E.80311
G1 X110.955 Y119.785 E.01686
G1 X128.083 Y102.657 E.82695
G1 X128.083 Y102.163 E.01686
G1 X110.461 Y119.785 E.85079
G1 X109.968 Y119.785 E.01686
G1 X128.083 Y101.669 E.87463
G1 X128.083 Y101.176 E.01686
G1 X109.474 Y119.785 E.89847
G1 X108.98 Y119.785 E.01686
G1 X128.083 Y100.682 E.9223
G1 X128.083 Y100.215 E.01593
G1 X128.056 Y100.215 E.00093
G1 X108.486 Y119.785 E.94483
G1 X107.993 Y119.785 E.01686
G1 X127.562 Y100.215 E.94483
G1 X127.068 Y100.215 E.01686
G1 X107.499 Y119.785 E.94483
G1 X107.005 Y119.785 E.01686
M73 P14 R16
G1 X126.574 Y100.215 E.94483
G1 X126.081 Y100.215 E.01686
G1 X106.511 Y119.785 E.94483
G1 X106.018 Y119.785 E.01686
G1 X125.587 Y100.215 E.94483
G1 X125.093 Y100.215 E.01686
M73 P15 R16
G1 X105.524 Y119.785 E.94483
G1 X105.03 Y119.785 E.01686
G1 X124.599 Y100.215 E.94483
G1 X124.106 Y100.215 E.01686
G1 X104.536 Y119.785 E.94483
G1 X104.043 Y119.785 E.01686
G1 X123.612 Y100.215 E.94483
G1 X123.118 Y100.215 E.01686
G1 X103.549 Y119.785 E.94483
G1 X103.055 Y119.785 E.01686
G1 X122.624 Y100.215 E.94483
G1 X122.131 Y100.215 E.01686
G1 X102.561 Y119.785 E.94483
G1 X102.068 Y119.785 E.01686
G1 X121.637 Y100.215 E.94483
G1 X121.143 Y100.215 E.01686
G1 X101.574 Y119.785 E.94483
G1 X101.08 Y119.785 E.01686
G1 X120.649 Y100.215 E.94483
G1 X120.156 Y100.215 E.01686
G1 X100.586 Y119.785 E.94483
G1 X100.093 Y119.785 E.01686
G1 X119.662 Y100.215 E.94483
G1 X119.168 Y100.215 E.01686
G1 X99.599 Y119.785 E.94483
G1 X99.105 Y119.785 E.01686
G1 X118.674 Y100.215 E.94483
G1 X118.181 Y100.215 E.01686
G1 X98.611 Y119.785 E.94483
G1 X98.118 Y119.785 E.01686
G1 X117.687 Y100.215 E.94483
G1 X117.193 Y100.215 E.01686
M73 P16 R16
G1 X97.624 Y119.785 E.94483
G1 X97.13 Y119.785 E.01686
G1 X116.699 Y100.215 E.94483
G1 X116.206 Y100.215 E.01686
G1 X96.636 Y119.785 E.94483
G1 X96.143 Y119.785 E.01686
G1 X115.712 Y100.215 E.94483
G1 X115.218 Y100.215 E.01686
G1 X95.649 Y119.785 E.94483
G1 X95.155 Y119.785 E.01686
G1 X114.724 Y100.215 E.94483
G1 X114.231 Y100.215 E.01686
G1 X94.661 Y119.785 E.94483
G1 X94.168 Y119.785 E.01686
G1 X113.737 Y100.215 E.94483
G1 X113.243 Y100.215 E.01686
G1 X93.674 Y119.785 E.94483
G1 X93.18 Y119.785 E.01686
G1 X112.749 Y100.215 E.94483
G1 X112.256 Y100.215 E.01686
G1 X92.686 Y119.785 E.94483
G1 X92.193 Y119.785 E.01686
G1 X111.762 Y100.215 E.94483
G1 X111.268 Y100.215 E.01686
G1 X91.917 Y119.566 E.93428
G1 X91.917 Y119.072 E.01686
G1 X110.774 Y100.215 E.91045
G1 X110.281 Y100.215 E.01686
G1 X91.917 Y118.579 E.88661
G1 X91.917 Y118.085 E.01686
M73 P17 R16
G1 X109.787 Y100.215 E.86277
G1 X109.293 Y100.215 E.01686
G1 X91.917 Y117.591 E.83893
G1 X91.917 Y117.097 E.01686
G1 X108.799 Y100.215 E.81509
G1 X108.306 Y100.215 E.01686
G1 X91.917 Y116.604 E.79125
G1 X91.917 Y116.11 E.01686
G1 X107.812 Y100.215 E.76741
G1 X107.318 Y100.215 E.01686
G1 X91.917 Y115.616 E.74357
G1 X91.917 Y115.122 E.01686
G1 X106.824 Y100.215 E.71973
G1 X106.331 Y100.215 E.01686
G1 X91.917 Y114.629 E.6959
G1 X91.917 Y114.135 E.01686
G1 X105.837 Y100.215 E.67206
G1 X105.343 Y100.215 E.01686
G1 X91.917 Y113.641 E.64822
G1 X91.917 Y113.147 E.01686
G1 X104.849 Y100.215 E.62438
G1 X104.356 Y100.215 E.01686
G1 X91.917 Y112.654 E.60054
G1 X91.917 Y112.16 E.01686
G1 X103.862 Y100.215 E.5767
G1 X103.368 Y100.215 E.01686
G1 X91.917 Y111.666 E.55286
G1 X91.917 Y111.172 E.01686
G1 X102.874 Y100.215 E.52902
G1 X102.381 Y100.215 E.01686
G1 X91.917 Y110.679 E.50518
G1 X91.917 Y110.185 E.01686
G1 X101.887 Y100.215 E.48135
G1 X101.393 Y100.215 E.01686
G1 X91.917 Y109.691 E.45751
G1 X91.917 Y109.197 E.01686
G1 X100.899 Y100.215 E.43367
G1 X100.406 Y100.215 E.01686
G1 X91.917 Y108.704 E.40983
G1 X91.917 Y108.21 E.01686
G1 X99.912 Y100.215 E.38599
G1 X99.418 Y100.215 E.01686
G1 X91.917 Y107.716 E.36215
G1 X91.917 Y107.222 E.01686
G1 X98.924 Y100.215 E.33831
G1 X98.431 Y100.215 E.01686
M73 P18 R16
G1 X91.917 Y106.729 E.31447
G1 X91.917 Y106.235 E.01686
G1 X97.937 Y100.215 E.29063
G1 X97.443 Y100.215 E.01686
G1 X91.917 Y105.741 E.2668
G1 X91.917 Y105.247 E.01686
G1 X96.949 Y100.215 E.24296
G1 X96.456 Y100.215 E.01686
G1 X91.917 Y104.754 E.21912
G1 X91.917 Y104.26 E.01686
G1 X95.962 Y100.215 E.19528
G1 X95.468 Y100.215 E.01686
G1 X91.917 Y103.766 E.17144
G1 X91.917 Y103.272 E.01686
G1 X94.974 Y100.215 E.1476
G1 X94.481 Y100.215 E.01686
G1 X91.917 Y102.779 E.12376
G1 X91.917 Y102.285 E.01686
G1 X93.987 Y100.215 E.09992
G1 X93.493 Y100.215 E.01686
G1 X91.917 Y101.791 E.07609
G1 X91.917 Y101.297 E.01686
G1 X92.999 Y100.215 E.05225
G1 X92.506 Y100.215 E.01686
G1 X91.76 Y100.961 E.03598
; stop printing object Base-Body.stl id:720576387062527073 copy 0
;LAYER_CHANGE
;Z:0.68
;HEIGHT:0.24
;BEFORE_LAYER_CHANGE
;0.68
G92 E0

G1 E-3.5 F3600
;WIPE_START
G1 F2400
G1 X92.467 Y100.253 E-1.5
;WIPE_END
;_SET_FAN_SPEED_CHANGING_LAYER
; printing object Base-Body.stl id:720576387062527073 copy 0
M204 S700
G1 Z1.08 F9000
G1 X128.365 Y120.066 Z1.08
G1 Z.68
G1 E5 F2400
M204 S500
;TYPE:Inner wall
;WIDTH:0.449999
G1 X91.635 Y120.066 E1.43122
G1 X91.635 Y99.934 E.78452
G1 X128.365 Y99.934 E1.43122
G1 X128.365 Y120.026 E.78296
M204 S700
G1 X128.763 Y120.465 F9000
M204 S500
G1 F2400
G1 X91.237 Y120.465 E1.46228
G1 X91.237 Y99.535 E.81557
