; HEADER_BLOCK_START
; generated by OrcaSlicer 2.3.2 on 2026-06-05 at 22:38:25
; total layer number: 83
; filament_density: 1.24
; filament_diameter: 1.75
; max_z_height: 10.04
; filament: 1
; HEADER_BLOCK_END

; THUMBNAIL_BLOCK_START

;
; THUMBNAIL_BLOCK_END

; THUMBNAIL_BLOCK_START

;
; THUMBNAIL_BLOCK_END

; external perimeters extrusion width = 0.40mm
; perimeters extrusion width = 0.45mm
; infill extrusion width = 0.45mm
; solid infill extrusion width = 0.40mm
; top infill extrusion width = 0.40mm
; first layer extrusion width = 0.50mm

; EXECUTABLE_BLOCK_START
M73 P0 R56
M201 X500 Y500 Z500 E5000
M203 X500 Y500 Z10 E60
M204 P500 R1000 T500
M205 X8.00 Y8.00 Z0.40 E5.00 ; sets the jerk limits, mm/sec
;TYPE:Custom
G90 ; use absolute coordinates
M83 ; extruder relative mode
M140 S60 ; set final bed temp
M104 S150 ; set temporary nozzle temp to prevent oozing during homing
G4 S10 ; allow partial nozzle warmup
G28 ; home all axis
G1 Z50 F240
G1 X2 Y10 F3000
M104 S220 ; set final nozzle temp
M190 S60 ; wait for bed temp to stabilize
M109 S220 ; wait for nozzle temp to stabilize
G1 Z0.28 F240
G92 E0
G1 Y140 E10 F1500 ; prime the nozzle
G1 X2.3 F5000
G92 E0
G1 Y10 E10 F1200 ; prime the nozzle
G92 E0
G90
G21
M83 ; use relative distances for extrusion
; filament start gcode
M106 S0
;LAYER_CHANGE
;Z:0.2
;HEIGHT:0.2
;BEFORE_LAYER_CHANGE
;0.2
G92 E0

G1 E-5 F3600
M73 P1 R56
;_SET_FAN_SPEED_CHANGING_LAYER
M204 S500
G1 Z.6 F9000
G1 X91.743 Y93.358
G1 Z.6
G1 Z.2
G1 E5 F2400
;TYPE:Skirt
;WIDTH:0.5
G1 F3000
G1 X91.818 Y93.344 E.00286
G1 X127.75 Y93.336 E1.33833
G1 X128.31 Y93.407 E.02101
G1 X129.253 Y93.817 E.03831
G1 X129.773 Y94.293 E.02628
G1 X130.226 Y95.074 E.0336
G1 X130.414 Y96 E.0352
G1 X130.414 Y124 E1.04289
G1 X130.334 Y124.608 E.02283
G1 X130.082 Y125.26 E.02605
G1 X129.178 Y126.234 E.0495
G1 X128.358 Y126.584 E.03322
G1 X127.75 Y126.664 E.02283
G1 X91.818 Y126.656 E1.33833
G1 X90.558 Y126.262 E.04917
G1 X89.742 Y125.225 E.04917
G1 X89.594 Y124.432 E.03002
G1 X89.594 Y95.568 E1.0751
G1 X89.988 Y94.308 E.04917
G1 X91.026 Y93.491 E.04917
G1 X91.703 Y93.365 E.02567
; printing object BasePlate.stl id:720576387062527073 copy 0
G1 E-3.8 F3600
;WIPE_START
G1 F3000
G1 X91.818 Y93.344 E-.14008
G1 X92.701 Y93.344 E-1.05992
;WIPE_END
G1 Z.6 F9000
G1 X127 Y123.25 Z.6
G1 Z.2
G1 E5 F2400
;TYPE:Inner wall
;WIDTH:0.499999
G1 F900
G1 X93.008 Y123.242 E1.26605
G1 X93.008 Y96.758 E.98643
G1 X127 Y96.75 E1.26605
G1 X127 Y123.21 E.98551
G1 X127.457 Y123.707 F9000
G1 F900
G1 X92.551 Y123.699 E1.3001
G1 X92.551 Y96.301 E1.02047
G1 X127.457 Y96.293 E1.3001
M73 P1 R55
G1 X127.457 Y123.667 E1.01956
G1 X127.868 Y124.118 F9000
;TYPE:Outer wall
G1 F900
G1 X127.704 Y124.185 E.00659
G1 X92.073 Y124.177 E1.32714
G1 X92.073 Y95.823 E1.05611
G1 X127.646 Y95.815 E1.32496
G1 X127.871 Y95.884 E.00877
G1 X127.935 Y96.082 E.00776
G1 X127.935 Y123.897 E1.036
G1 X127.88 Y124.08 E.00711
G1 E-3.5 F3600
;WIPE_START
G1 F900
G1 X127.704 Y124.185 E-.30703
G1 X126.909 Y124.185 E-1.19297
;WIPE_END
G1 Z.6 F9000
G1 X126.863 Y97.821 Z.6
G1 Z.2
M73 P2 R55
G1 E5 F2400
;TYPE:Bottom surface
;WIDTH:0.504277
G1 F1200
G1 X126.135 Y97.093 E.03866
G1 X125.483 Y97.094 E.02452
G1 X126.657 Y98.267 E.06241
G1 X126.657 Y98.92 E.02453
G1 X124.831 Y97.094 E.09709
G1 X124.179 Y97.094 E.02452
G1 X126.657 Y99.572 E.13177
G1 X126.657 Y100.225 E.02453
G1 X123.526 Y97.094 E.16645
G1 X122.874 Y97.094 E.02452
G1 X126.657 Y100.877 E.20113
G1 X126.657 Y101.53 E.02453
G1 X122.222 Y97.094 E.23582
G1 X121.569 Y97.094 E.02452
G1 X126.657 Y102.182 E.2705
G1 X126.657 Y102.835 E.02453
G1 X120.917 Y97.095 E.30518
G1 X120.265 Y97.095 E.02452
G1 X126.657 Y103.487 E.33986
G1 X126.657 Y104.139 E.02453
G1 X119.612 Y97.095 E.37454
G1 X118.96 Y97.095 E.02452
G1 X126.657 Y104.792 E.40922
G1 X126.657 Y105.444 E.02453
G1 X118.308 Y97.095 E.4439
G1 X117.655 Y97.095 E.02452
G1 X126.657 Y106.097 E.47859
G1 X126.657 Y106.749 E.02453
G1 X117.003 Y97.095 E.51327
G1 X116.351 Y97.096 E.02452
G1 X126.657 Y107.402 E.54795
G1 X126.657 Y108.054 E.02453
G1 X115.699 Y97.096 E.58263
G1 X115.046 Y97.096 E.02452
G1 X126.657 Y108.707 E.61731
G1 X126.657 Y109.359 E.02453
G1 X114.394 Y97.096 E.65199
G1 X113.742 Y97.096 E.02452
G1 X126.657 Y110.012 E.68667
G1 X126.657 Y110.664 E.02453
G1 X113.089 Y97.096 E.72136
G1 X112.437 Y97.096 E.02452
G1 X126.657 Y111.316 E.75604
G1 X126.657 Y111.969 E.02453
G1 X111.785 Y97.097 E.79072
G1 X111.132 Y97.097 E.02452
G1 X126.657 Y112.621 E.8254
G1 X126.657 Y113.274 E.02453
G1 X110.48 Y97.097 E.86008
G1 X109.828 Y97.097 E.02452
G1 X126.657 Y113.926 E.89476
G1 X126.657 Y114.579 E.02453
G1 X109.175 Y97.097 E.92944
G1 X108.523 Y97.097 E.02452
G1 X126.657 Y115.231 E.96413
G1 X126.657 Y115.884 E.02453
G1 X107.871 Y97.097 E.99881
G1 X107.218 Y97.098 E.02452
G1 X126.657 Y116.536 E1.03349
G1 X126.657 Y117.189 E.02453
G1 X106.566 Y97.098 E1.06817
G1 X105.914 Y97.098 E.02452
G1 X126.657 Y117.841 E1.10285
G1 X126.657 Y118.494 E.02453
G1 X105.262 Y97.098 E1.13753
G1 X104.609 Y97.098 E.02452
G1 X126.657 Y119.146 E1.17221
G1 X126.657 Y119.798 E.02453
G1 X103.957 Y97.098 E1.2069
G1 X103.305 Y97.098 E.02452
G1 X126.657 Y120.451 E1.24158
G1 X126.657 Y121.103 E.02453
G1 X102.652 Y97.099 E1.27626
G1 X102 Y97.099 E.02452
M73 P3 R55
G1 X126.657 Y121.756 E1.31094
G1 X126.657 Y122.408 E.02453
G1 X101.348 Y97.099 E1.34562
G1 X100.695 Y97.099 E.02452
G1 X126.503 Y122.907 E1.37212
G1 X125.85 Y122.907 E.02453
G1 X100.043 Y97.099 E1.3721
G1 X99.391 Y97.099 E.02452
G1 X125.198 Y122.906 E1.37208
G1 X124.545 Y122.906 E.02453
G1 X98.738 Y97.1 E1.37207
G1 X98.086 Y97.1 E.02452
G1 X123.893 Y122.906 E1.37205
G1 X123.24 Y122.906 E.02453
M73 P3 R54
G1 X97.434 Y97.1 E1.37204
G1 X96.781 Y97.1 E.02452
G1 X122.587 Y122.906 E1.37202
G1 X121.935 Y122.906 E.02453
G1 X96.129 Y97.1 E1.37201
G1 X95.477 Y97.1 E.02452
G1 X121.282 Y122.906 E1.37199
G1 X120.63 Y122.905 E.02453
G1 X94.825 Y97.1 E1.37197
G1 X94.172 Y97.101 E.02452
G1 X119.977 Y122.905 E1.37196
G1 X119.324 Y122.905 E.02453
G1 X93.52 Y97.101 E1.37194
G1 X93.351 Y97.101 E.00635
G1 X93.351 Y97.584 E.01818
G1 X118.672 Y122.905 E1.34623
G1 X118.019 Y122.905 E.02453
G1 X93.351 Y98.237 E1.31153
G1 X93.351 Y98.889 E.02453
G1 X117.367 Y122.905 E1.27683
G1 X116.714 Y122.905 E.02453
G1 X93.351 Y99.542 E1.24213
G1 X93.351 Y100.194 E.02453
G1 X116.061 Y122.904 E1.20744
G1 X115.409 Y122.904 E.02453
M73 P4 R54
G1 X93.351 Y100.847 E1.17274
G1 X93.351 Y101.499 E.02453
G1 X114.756 Y122.904 E1.13804
G1 X114.104 Y122.904 E.02453
G1 X93.351 Y102.151 E1.10335
G1 X93.351 Y102.804 E.02453
G1 X113.451 Y122.904 E1.06865
G1 X112.798 Y122.904 E.02453
G1 X93.351 Y103.456 E1.03395
G1 X93.351 Y104.109 E.02453
G1 X112.146 Y122.903 E.99926
G1 X111.493 Y122.903 E.02453
G1 X93.351 Y104.761 E.96456
G1 X93.351 Y105.414 E.02453
G1 X110.841 Y122.903 E.92986
G1 X110.188 Y122.903 E.02453
G1 X93.351 Y106.066 E.89516
G1 X93.351 Y106.719 E.02453
G1 X109.535 Y122.903 E.86047
G1 X108.883 Y122.903 E.02453
G1 X93.351 Y107.371 E.82577
G1 X93.351 Y108.024 E.02453
G1 X108.23 Y122.903 E.79107
G1 X107.577 Y122.902 E.02453
G1 X93.351 Y108.676 E.75638
G1 X93.351 Y109.329 E.02453
G1 X106.925 Y122.902 E.72168
G1 X106.272 Y122.902 E.02453
G1 X93.351 Y109.981 E.68698
G1 X93.351 Y110.633 E.02453
G1 X105.62 Y122.902 E.65229
G1 X104.967 Y122.902 E.02453
G1 X93.351 Y111.286 E.61759
G1 X93.351 Y111.938 E.02453
G1 X104.314 Y122.902 E.58289
G1 X103.662 Y122.902 E.02453
G1 X93.351 Y112.591 E.54819
G1 X93.351 Y113.243 E.02453
G1 X103.009 Y122.901 E.5135
G1 X102.357 Y122.901 E.02453
G1 X93.351 Y113.896 E.4788
G1 X93.351 Y114.548 E.02453
G1 X101.704 Y122.901 E.4441
G1 X101.051 Y122.901 E.02453
G1 X93.351 Y115.201 E.40941
G1 X93.351 Y115.853 E.02453
G1 X100.399 Y122.901 E.37471
G1 X99.746 Y122.901 E.02453
G1 X93.351 Y116.506 E.34001
G1 X93.351 Y117.158 E.02453
G1 X99.094 Y122.901 E.30532
G1 X98.441 Y122.9 E.02453
G1 X93.351 Y117.81 E.27062
G1 X93.351 Y118.463 E.02453
G1 X97.788 Y122.9 E.23592
G1 X97.136 Y122.9 E.02453
G1 X93.351 Y119.115 E.20122
G1 X93.351 Y119.768 E.02453
G1 X96.483 Y122.9 E.16653
G1 X95.831 Y122.9 E.02453
G1 X93.351 Y120.42 E.13183
G1 X93.351 Y121.073 E.02453
G1 X95.178 Y122.9 E.09713
G1 X94.525 Y122.9 E.02453
G1 X93.351 Y121.725 E.06244
G1 X93.351 Y122.378 E.02453
G1 X94.079 Y123.105 E.03868
; stop printing object BasePlate.stl id:720576387062527073 copy 0
M106 S255
;LAYER_CHANGE
;Z:0.32
;HEIGHT:0.12
;BEFORE_LAYER_CHANGE
;0.32
G92 E0

G1 E-3.5 F3600
;WIPE_START
G1 F1200
G1 X93.371 Y122.398 E-1.5
;WIPE_END
;_SET_FAN_SPEED_CHANGING_LAYER
; printing object BasePlate.stl id:720576387062527073 copy 0
M204 S700
G1 Z.72 F9000
G1 X127.38 Y123.63 Z.72
G1 Z.32
G1 E5 F2400
M204 S500
;TYPE:Inner wall
;WIDTH:0.449999
G1 X92.619 Y123.631 E.72102
G1 X92.619 Y96.369 E.56546
G1 X127.38 Y96.371 E.72101
G1 X127.38 Y123.59 E.56459
M204 S700
G1 X127.732 Y124.054 F9000
M73 P5 R54
M204 S500
G1 F2400
G1 X92.195 Y124.055 E.73713
G1 X92.195 Y95.945 E.58307
G1 X127.755 Y95.947 E.7376
G1 X127.804 Y96.062 E.0026
G1 X127.804 Y123.982 E.57914
G1 X127.761 Y124.026 E.00128
G1 X128.018 Y124.37 F9000
;TYPE:Outer wall
;WIDTH:0.399999
G1 F1080
G1 X127.796 Y124.467 E.00443
G1 X91.783 Y124.467 E.65896
G1 X91.783 Y95.533 E.52943
M73 P5 R53
G1 X127.733 Y95.535 E.65781
G1 X127.968 Y95.601 E.00447
G1 X128.161 Y95.794 E.00499
G1 X128.216 Y96.062 E.00501
G1 X128.217 Y123.969 E.51064
G1 X128.166 Y124.205 E.00442
G1 X128.045 Y124.341 E.00333
M204 S700
G1 E-3.5 F3600
;WIPE_START
G1 F1080
G1 X127.796 Y124.467 E-.41896
G1 X127.075 Y124.467 E-1.08104
;WIPE_END
G1 Z.72 F9000
G1 X125.794 Y123.231 Z.72
G1 Z.32
G1 E5 F2400
M204 S500
;TYPE:Internal solid infill
M106 S255
G1 X126.981 Y123.231 E.02172
G1 X126.981 Y122.044 E.02172
G1 X125.822 Y123.203 E.02998
M204 S700
G1 X127.247 Y121.301 F9000
M204 S500
;WIDTH:0.400673
G1 F2400
G1 X125.219 Y123.329 E.05256
G1 X124.689 Y123.329 E.00972
G1 X127.078 Y120.939 E.06194
G1 X127.078 Y120.409 E.00972
G1 X124.159 Y123.329 E.07568
G1 X123.629 Y123.329 E.00972
G1 X127.078 Y119.879 E.08943
G1 X127.078 Y119.349 E.00972
G1 X123.099 Y123.329 E.10317
G1 X122.568 Y123.329 E.00972
G1 X127.078 Y118.818 E.11692
G1 X127.078 Y118.288 E.00972
G1 X122.038 Y123.329 E.13066
G1 X121.508 Y123.329 E.00972
G1 X127.078 Y117.758 E.14441
G1 X127.078 Y117.228 E.00972
G1 X120.978 Y123.329 E.15815
G1 X120.447 Y123.329 E.00972
G1 X127.078 Y116.698 E.1719
G1 X127.078 Y116.167 E.00972
G1 X119.917 Y123.329 E.18564
G1 X119.387 Y123.329 E.00972
G1 X127.078 Y115.637 E.19939
G1 X127.078 Y115.107 E.00972
G1 X118.857 Y123.329 E.21313
G1 X118.326 Y123.329 E.00972
G1 X127.078 Y114.577 E.22688
G1 X127.078 Y114.047 E.00972
G1 X117.796 Y123.329 E.24062
G1 X117.266 Y123.329 E.00972
G1 X127.078 Y113.516 E.25437
G1 X127.078 Y112.986 E.00972
G1 X116.736 Y123.329 E.26811
G1 X116.206 Y123.329 E.00972
G1 X127.078 Y112.456 E.28186
G1 X127.078 Y111.926 E.00972
G1 X115.675 Y123.329 E.2956
G1 X115.145 Y123.329 E.00972
G1 X127.078 Y111.396 E.30935
G1 X127.078 Y110.865 E.00972
G1 X114.615 Y123.329 E.32309
G1 X114.085 Y123.329 E.00972
G1 X127.078 Y110.335 E.33684
G1 X127.078 Y109.805 E.00972
G1 X113.554 Y123.329 E.35058
G1 X113.024 Y123.329 E.00972
G1 X127.078 Y109.275 E.36433
G1 X127.078 Y108.745 E.00972
G1 X112.494 Y123.329 E.37807
G1 X111.964 Y123.329 E.00972
G1 X127.078 Y108.214 E.39182
G1 X127.078 Y107.684 E.00972
G1 X111.434 Y123.329 E.40556
G1 X110.903 Y123.329 E.00972
G1 X127.078 Y107.154 E.41931
G1 X127.078 Y106.624 E.00972
G1 X110.373 Y123.329 E.43305
G1 X109.843 Y123.329 E.00972
G1 X127.078 Y106.094 E.4468
G1 X127.078 Y105.563 E.00972
G1 X109.313 Y123.329 E.46054
G1 X108.782 Y123.329 E.00972
G1 X127.078 Y105.033 E.47429
G1 X127.078 Y104.503 E.00972
G1 X108.252 Y123.329 E.48803
G1 X107.722 Y123.329 E.00972
G1 X127.078 Y103.973 E.50178
G1 X127.078 Y103.442 E.00972
G1 X107.192 Y123.329 E.51552
G1 X106.662 Y123.329 E.00972
G1 X127.078 Y102.912 E.52927
G1 X127.078 Y102.382 E.00972
G1 X106.131 Y123.329 E.54302
G1 X105.601 Y123.329 E.00972
G1 X127.078 Y101.852 E.55676
G1 X127.078 Y101.322 E.00972
G1 X105.071 Y123.329 E.57051
G1 X104.541 Y123.329 E.00972
G1 X127.078 Y100.791 E.58425
G1 X127.078 Y100.261 E.00972
G1 X104.01 Y123.329 E.598
G1 X103.48 Y123.329 E.00972
G1 X127.078 Y99.731 E.61174
G1 X127.078 Y99.201 E.00972
M73 P6 R53
G1 X102.95 Y123.329 E.62549
G1 X102.42 Y123.329 E.00972
G1 X127.078 Y98.671 E.63923
G1 X127.078 Y98.14 E.00972
G1 X101.889 Y123.329 E.65298
G1 X101.359 Y123.329 E.00972
G1 X127.078 Y97.61 E.66672
G1 X127.078 Y97.08 E.00972
G1 X100.829 Y123.329 E.68047
G1 X100.299 Y123.329 E.00972
G1 X126.955 Y96.673 E.69103
G1 X126.425 Y96.673 E.00972
G1 X99.769 Y123.329 E.69103
G1 X99.238 Y123.329 E.00972
G1 X125.895 Y96.673 E.69103
G1 X125.364 Y96.673 E.00972
G1 X98.708 Y123.329 E.69103
G1 X98.178 Y123.329 E.00972
G1 X124.834 Y96.673 E.69103
G1 X124.304 Y96.673 E.00972
G1 X97.648 Y123.329 E.69103
G1 X97.117 Y123.329 E.00972
G1 X123.774 Y96.673 E.69103
G1 X123.244 Y96.673 E.00972
G1 X96.587 Y123.329 E.69103
G1 X96.057 Y123.329 E.00972
G1 X122.713 Y96.672 E.69103
G1 X122.183 Y96.672 E.00972
G1 X95.527 Y123.329 E.69103
G1 X94.997 Y123.329 E.00972
G1 X121.653 Y96.672 E.69103
G1 X121.123 Y96.672 E.00972
G1 X94.466 Y123.329 E.69103
G1 X93.936 Y123.329 E.00972
G1 X120.593 Y96.672 E.69104
G1 X120.062 Y96.672 E.00972
G1 X93.406 Y123.329 E.69104
G1 X92.921 Y123.329 E.00889
G1 X92.921 Y123.284 E.00083
G1 X119.532 Y96.672 E.68986
G1 X119.002 Y96.672 E.00972
G1 X92.921 Y122.753 E.67612
G1 X92.921 Y122.223 E.00972
G1 X118.472 Y96.672 E.66237
G1 X117.942 Y96.672 E.00972
G1 X92.921 Y121.693 E.64863
G1 X92.921 Y121.163 E.00972
G1 X117.412 Y96.672 E.63488
G1 X116.881 Y96.672 E.00972
G1 X92.921 Y120.633 E.62114
G1 X92.921 Y120.102 E.00972
G1 X116.351 Y96.672 E.60739
G1 X115.821 Y96.672 E.00972
G1 X92.921 Y119.572 E.59365
G1 X92.921 Y119.042 E.00972
G1 X115.291 Y96.672 E.5799
G1 X114.761 Y96.672 E.00972
G1 X92.921 Y118.512 E.56616
G1 X92.921 Y117.981 E.00972
G1 X114.23 Y96.672 E.55242
G1 X113.7 Y96.672 E.00972
G1 X92.921 Y117.451 E.53867
G1 X92.921 Y116.921 E.00972
M73 P6 R52
G1 X113.17 Y96.672 E.52493
G1 X112.64 Y96.672 E.00972
G1 X92.921 Y116.391 E.51118
G1 X92.921 Y115.861 E.00972
G1 X112.11 Y96.672 E.49744
G1 X111.579 Y96.672 E.00972
G1 X92.921 Y115.33 E.48369
G1 X92.921 Y114.8 E.00972
G1 X111.049 Y96.672 E.46995
G1 X110.519 Y96.672 E.00972
M73 P7 R52
G1 X92.921 Y114.27 E.4562
G1 X92.921 Y113.74 E.00972
G1 X109.989 Y96.672 E.44246
G1 X109.459 Y96.672 E.00972
G1 X92.921 Y113.209 E.42871
G1 X92.921 Y112.679 E.00972
G1 X108.928 Y96.672 E.41497
G1 X108.398 Y96.672 E.00972
G1 X92.921 Y112.149 E.40123
G1 X92.921 Y111.619 E.00972
G1 X107.868 Y96.672 E.38748
G1 X107.338 Y96.672 E.00972
G1 X92.921 Y111.089 E.37374
G1 X92.921 Y110.558 E.00972
G1 X106.808 Y96.672 E.35999
G1 X106.277 Y96.672 E.00972
G1 X92.921 Y110.028 E.34625
G1 X92.921 Y109.498 E.00972
G1 X105.747 Y96.672 E.3325
G1 X105.217 Y96.672 E.00972
G1 X92.921 Y108.968 E.31876
G1 X92.921 Y108.437 E.00972
G1 X104.687 Y96.672 E.30501
G1 X104.157 Y96.672 E.00972
G1 X92.921 Y107.907 E.29127
G1 X92.921 Y107.377 E.00972
G1 X103.626 Y96.672 E.27752
G1 X103.096 Y96.672 E.00972
G1 X92.921 Y106.847 E.26378
G1 X92.921 Y106.317 E.00972
G1 X102.566 Y96.672 E.25004
G1 X102.036 Y96.672 E.00972
G1 X92.921 Y105.786 E.23629
G1 X92.921 Y105.256 E.00972
G1 X101.506 Y96.671 E.22255
G1 X100.976 Y96.671 E.00972
G1 X92.921 Y104.726 E.2088
G1 X92.921 Y104.196 E.00972
G1 X100.445 Y96.671 E.19506
G1 X99.915 Y96.671 E.00972
G1 X92.921 Y103.666 E.18131
G1 X92.921 Y103.135 E.00972
G1 X99.385 Y96.671 E.16757
G1 X98.855 Y96.671 E.00972
G1 X92.921 Y102.605 E.15382
G1 X92.921 Y102.075 E.00972
G1 X98.325 Y96.671 E.14008
G1 X97.794 Y96.671 E.00972
G1 X92.921 Y101.545 E.12633
G1 X92.921 Y101.014 E.00972
G1 X97.264 Y96.671 E.11259
G1 X96.734 Y96.671 E.00972
G1 X92.921 Y100.484 E.09885
G1 X92.921 Y99.954 E.00972
G1 X96.204 Y96.671 E.0851
G1 X95.674 Y96.671 E.00972
G1 X92.921 Y99.424 E.07136
G1 X92.921 Y98.894 E.00972
G1 X95.143 Y96.671 E.05761
G1 X94.613 Y96.671 E.00972
G1 X92.921 Y98.363 E.04387
G1 X92.921 Y97.833 E.00972
G1 X94.083 Y96.671 E.03012
