; HEADER_BLOCK_START
; generated by OrcaSlicer 2.3.2 on 2026-06-05 at 13:41:37
; total layer number: 83
; filament_density: 1.24
; filament_diameter: 1.75
; max_z_height: 10.04
; filament: 1
; HEADER_BLOCK_END

; THUMBNAIL_BLOCK_START

;
; THUMBNAIL_BLOCK_END

; THUMBNAIL_BLOCK_START

;
; THUMBNAIL_BLOCK_END

; external perimeters extrusion width = 0.40mm
; perimeters extrusion width = 0.45mm
; infill extrusion width = 0.45mm
; solid infill extrusion width = 0.40mm
; top infill extrusion width = 0.40mm
; first layer extrusion width = 0.50mm

; EXECUTABLE_BLOCK_START
M73 P0 R46
M201 X500 Y500 Z500 E5000
M203 X500 Y500 Z10 E60
M204 P500 R1000 T500
M205 X8.00 Y8.00 Z0.40 E5.00 ; sets the jerk limits, mm/sec
;TYPE:Custom
G90 ; use absolute coordinates
M83 ; extruder relative mode
M140 S60 ; set final bed temp
M104 S150 ; set temporary nozzle temp to prevent oozing during homing
G4 S10 ; allow partial nozzle warmup
G28 ; home all axis
G1 Z50 F240
G1 X2 Y10 F3000
M104 S220 ; set final nozzle temp
M190 S60 ; wait for bed temp to stabilize
M109 S220 ; wait for nozzle temp to stabilize
G1 Z0.28 F240
G92 E0
G1 Y140 E10 F1500 ; prime the nozzle
G1 X2.3 F5000
M73 P1 R45
G92 E0
G1 Y10 E10 F1200 ; prime the nozzle
G92 E0
G90
G21
M83 ; use relative distances for extrusion
; filament start gcode
M106 S0
;LAYER_CHANGE
;Z:0.2
;HEIGHT:0.2
;BEFORE_LAYER_CHANGE
;0.2
G92 E0

G1 E-5 F3600
;_SET_FAN_SPEED_CHANGING_LAYER
M204 S500
G1 Z.6 F9000
G1 X94.077 Y94.184
G1 Z.6
G1 Z.2
G1 E5 F2400
;TYPE:Skirt
;WIDTH:0.5
G1 F3000
G1 X94.497 Y93.817 E.02078
G1 X95.259 Y93.455 E.03143
G1 X96 Y93.336 E.02796
G1 X124.003 Y93.336 E1.04299
G1 X124.744 Y93.455 E.02798
G1 X125.503 Y93.817 E.03131
G1 X125.935 Y94.194 E.02135
G1 X126.476 Y95.074 E.03847
G1 X126.664 Y96 E.0352
G1 X126.664 Y124 E1.04289
G1 X126.584 Y124.608 E.02283
G1 X126.234 Y125.428 E.03322
G1 X125.26 Y126.332 E.0495
G1 X124.608 Y126.584 E.02605
G1 X124 Y126.664 E.02283
G1 X96 Y126.664 E1.04289
G1 X95.259 Y126.545 E.02796
G1 X94.497 Y126.183 E.03143
G1 X94.065 Y125.806 E.02135
G1 X93.524 Y124.926 E.03847
G1 X93.336 Y124 E.0352
G1 X93.336 Y96 E1.04289
G1 X93.524 Y95.074 E.0352
G1 X94.052 Y94.215 E.03754
; printing object BasePlate.stl id:720576387062527073 copy 0
G1 E-3.8 F3600
;WIPE_START
G1 F3000
G1 X94.497 Y93.817 E-.71635
G1 X94.861 Y93.644 E-.48365
;WIPE_END
G1 Z.6 F9000
G1 X96.75 Y96.75 Z.6
G1 Z.2
G1 E5 F2400
;TYPE:Inner wall
;WIDTH:0.499999
G1 F900
G1 X123.25 Y96.751 E.98701
G1 X123.25 Y123.25 E.98699
G1 X96.75 Y123.25 E.98701
G1 X96.75 Y96.79 E.98552
G1 X96.293 Y96.293 F9000
G1 F900
G1 X123.707 Y96.293 E1.02106
G1 X123.707 Y123.707 E1.02104
G1 X96.293 Y123.707 E1.02106
G1 X96.293 Y96.333 E1.01957
G1 X95.898 Y95.877 F9000
M73 P2 R45
;TYPE:Outer wall
G1 F900
G1 X96.032 Y95.815 E.00549
G1 X123.898 Y95.815 E1.03791
G1 X124.121 Y95.884 E.00868
G1 X124.185 Y96.082 E.00778
G1 X124.185 Y123.897 E1.03599
G1 X124.118 Y124.118 E.0086
G1 X123.954 Y124.185 E.00659
G1 X96.104 Y124.185 E1.03731
G1 X95.894 Y124.122 E.00819
G1 X95.815 Y123.959 E.00673
G1 X95.815 Y96.041 E1.03987
G1 X95.88 Y95.913 E.00536
G1 E-3.5 F3600
;WIPE_START
G1 F900
G1 X96.032 Y95.815 E-.27107
G1 X96.851 Y95.815 E-1.22893
;WIPE_END
G1 Z.6 F9000
G1 X123.113 Y97.815 Z.6
G1 Z.2
G1 E5 F2400
;TYPE:Bottom surface
;WIDTH:0.501594
G1 F1200
G1 X122.391 Y97.093 E.03815
G1 X121.742 Y97.093 E.02424
G1 X122.907 Y98.258 E.06156
G1 X122.907 Y98.907 E.02424
G1 X121.094 Y97.093 E.09585
G1 X120.445 Y97.093 E.02424
G1 X122.907 Y99.555 E.13014
G1 X122.907 Y100.204 E.02424
G1 X119.796 Y97.093 E.16442
G1 X119.148 Y97.093 E.02424
G1 X122.907 Y100.853 E.19871
G1 X122.907 Y101.501 E.02424
G1 X118.499 Y97.093 E.233
G1 X117.85 Y97.093 E.02424
G1 X122.907 Y102.15 E.26729
G1 X122.907 Y102.799 E.02424
G1 X117.202 Y97.093 E.30157
G1 X116.553 Y97.093 E.02424
G1 X122.907 Y103.447 E.33586
G1 X122.907 Y104.096 E.02424
G1 X115.904 Y97.093 E.37015
G1 X115.256 Y97.093 E.02424
G1 X122.907 Y104.745 E.40444
G1 X122.907 Y105.393 E.02424
G1 X114.607 Y97.093 E.43872
G1 X113.958 Y97.093 E.02424
G1 X122.907 Y106.042 E.47301
G1 X122.907 Y106.691 E.02424
G1 X113.31 Y97.093 E.5073
G1 X112.661 Y97.093 E.02424
G1 X122.907 Y107.339 E.54158
G1 X122.907 Y107.988 E.02424
G1 X112.012 Y97.093 E.57587
G1 X111.364 Y97.093 E.02424
G1 X122.907 Y108.637 E.61016
G1 X122.907 Y109.285 E.02424
G1 X110.715 Y97.093 E.64445
G1 X110.066 Y97.093 E.02424
G1 X122.907 Y109.934 E.67873
G1 X122.907 Y110.583 E.02424
G1 X109.418 Y97.093 E.71302
G1 X108.769 Y97.093 E.02424
G1 X122.907 Y111.231 E.74731
G1 X122.907 Y111.88 E.02424
G1 X108.12 Y97.093 E.7816
G1 X107.472 Y97.093 E.02424
G1 X122.907 Y112.529 E.81588
G1 X122.907 Y113.177 E.02424
G1 X106.823 Y97.093 E.85017
G1 X106.174 Y97.093 E.02424
G1 X122.907 Y113.826 E.88446
G1 X122.907 Y114.475 E.02424
G1 X105.526 Y97.093 E.91875
G1 X104.877 Y97.093 E.02424
G1 X122.907 Y115.123 E.95303
G1 X122.907 Y115.772 E.02424
M73 P3 R45
G1 X104.228 Y97.093 E.98732
G1 X103.58 Y97.093 E.02424
G1 X122.907 Y116.421 E1.02161
G1 X122.907 Y117.069 E.02424
G1 X102.931 Y97.093 E1.0559
G1 X102.282 Y97.093 E.02424
M73 P3 R44
G1 X122.907 Y117.718 E1.09018
G1 X122.907 Y118.367 E.02424
G1 X101.634 Y97.093 E1.12447
G1 X100.985 Y97.093 E.02424
G1 X122.907 Y119.015 E1.15876
G1 X122.907 Y119.664 E.02424
G1 X100.336 Y97.093 E1.19305
G1 X99.687 Y97.093 E.02424
G1 X122.907 Y120.313 E1.22733
G1 X122.907 Y120.961 E.02424
G1 X99.039 Y97.093 E1.26162
G1 X98.39 Y97.093 E.02424
G1 X122.907 Y121.61 E1.29591
G1 X122.907 Y122.259 E.02424
G1 X97.741 Y97.093 E1.33019
G1 X97.093 Y97.093 E.02424
G1 X122.907 Y122.907 E1.36447
G1 X122.258 Y122.907 E.02424
G1 X97.093 Y97.742 E1.33017
G1 X97.093 Y98.391 E.02424
G1 X121.609 Y122.907 E1.29589
G1 X120.961 Y122.907 E.02424
G1 X97.093 Y99.039 E1.2616
G1 X97.093 Y99.688 E.02424
G1 X120.312 Y122.907 E1.22731
G1 X119.663 Y122.907 E.02424
G1 X97.093 Y100.337 E1.19303
G1 X97.093 Y100.985 E.02424
M73 P4 R44
G1 X119.015 Y122.907 E1.15874
G1 X118.366 Y122.907 E.02424
G1 X97.093 Y101.634 E1.12445
G1 X97.093 Y102.283 E.02424
G1 X117.717 Y122.907 E1.09017
G1 X117.069 Y122.907 E.02424
G1 X97.093 Y102.931 E1.05588
G1 X97.093 Y103.58 E.02424
G1 X116.42 Y122.907 E1.02159
G1 X115.771 Y122.907 E.02424
G1 X97.093 Y104.229 E.9873
G1 X97.093 Y104.877 E.02424
G1 X115.123 Y122.907 E.95302
G1 X114.474 Y122.907 E.02424
G1 X97.093 Y105.526 E.91873
G1 X97.093 Y106.174 E.02424
G1 X113.826 Y122.907 E.88444
G1 X113.177 Y122.907 E.02424
G1 X97.093 Y106.823 E.85016
G1 X97.093 Y107.472 E.02424
G1 X112.528 Y122.907 E.81587
G1 X111.88 Y122.907 E.02424
G1 X97.093 Y108.12 E.78158
G1 X97.093 Y108.769 E.02424
G1 X111.231 Y122.907 E.7473
G1 X110.582 Y122.907 E.02424
G1 X97.093 Y109.418 E.71301
G1 X97.093 Y110.066 E.02424
G1 X109.934 Y122.907 E.67872
G1 X109.285 Y122.907 E.02424
G1 X97.093 Y110.715 E.64444
G1 X97.093 Y111.364 E.02424
G1 X108.636 Y122.907 E.61015
G1 X107.988 Y122.907 E.02424
G1 X97.093 Y112.012 E.57586
G1 X97.093 Y112.661 E.02424
G1 X107.339 Y122.907 E.54157
G1 X106.69 Y122.907 E.02424
G1 X97.093 Y113.31 E.50729
G1 X97.093 Y113.958 E.02424
G1 X106.042 Y122.907 E.473
G1 X105.393 Y122.907 E.02424
G1 X97.093 Y114.607 E.43871
G1 X97.093 Y115.256 E.02424
G1 X104.744 Y122.907 E.40443
G1 X104.096 Y122.907 E.02424
G1 X97.093 Y115.904 E.37014
G1 X97.093 Y116.553 E.02424
G1 X103.447 Y122.907 E.33585
G1 X102.798 Y122.907 E.02424
M73 P5 R44
G1 X97.093 Y117.202 E.30157
G1 X97.093 Y117.85 E.02424
G1 X102.15 Y122.907 E.26728
G1 X101.501 Y122.907 E.02424
G1 X97.093 Y118.499 E.23299
G1 X97.093 Y119.148 E.02424
G1 X100.852 Y122.907 E.19871
G1 X100.204 Y122.907 E.02424
G1 X97.093 Y119.796 E.16442
G1 X97.093 Y120.445 E.02424
G1 X99.555 Y122.907 E.13013
G1 X98.906 Y122.907 E.02424
G1 X97.093 Y121.094 E.09584
G1 X97.093 Y121.742 E.02424
G1 X98.258 Y122.907 E.06156
G1 X97.609 Y122.907 E.02424
G1 X96.887 Y122.185 E.03814
; stop printing object BasePlate.stl id:720576387062527073 copy 0
M106 S255
;LAYER_CHANGE
;Z:0.32
;HEIGHT:0.12
;BEFORE_LAYER_CHANGE
;0.32
G92 E0

G1 E-3.5 F3600
;WIPE_START
G1 F1200
G1 X97.594 Y122.892 E-1.5
;WIPE_END
;_SET_FAN_SPEED_CHANGING_LAYER
; printing object BasePlate.stl id:720576387062527073 copy 0
M204 S700
G1 Z.72 F9000
G1 X96.37 Y96.371 Z.72
G1 Z.32
G1 E5 F2400
M204 S500
;TYPE:Inner wall
;WIDTH:0.449999
G1 X123.63 Y96.371 E.56542
G1 X123.63 Y123.63 E.56542
G1 X96.37 Y123.629 E.56543
G1 X96.37 Y96.411 E.56457
M204 S700
G1 X95.946 Y96.001 F9000
M204 S500
G1 F2400
G1 X96.052 Y95.947 E.00247
G1 X123.995 Y95.947 E.5796
G1 X124.054 Y96.062 E.00268
G1 X124.054 Y123.982 E.57914
G1 X123.982 Y124.054 E.00211
G1 X96.009 Y124.053 E.58024
G1 X95.946 Y123.954 E.00244
M73 P5 R43
G1 X95.946 Y96.041 E.57897
G1 X95.589 Y95.794 F9000
;TYPE:Outer wall
;WIDTH:0.399999
G1 F1080
G1 X95.782 Y95.601 E.00499
G1 X96.017 Y95.535 E.00447
G1 X124.011 Y95.535 E.51223
G1 X124.239 Y95.628 E.00451
G1 X124.409 Y95.786 E.00425
G1 X124.466 Y96.062 E.00516
G1 X124.467 Y123.969 E.51064
G1 X124.416 Y124.205 E.00442
G1 X124.268 Y124.37 E.00406
G1 X124.046 Y124.467 E.00443
G1 X96.062 Y124.465 E.51205
G1 X95.847 Y124.436 E.00397
G1 X95.646 Y124.278 E.00468
G1 X95.534 Y124.011 E.0053
G1 X95.534 Y96.063 E.51139
G1 X95.581 Y95.833 E.0043
M204 S700
G1 E-3.5 F3600
;WIPE_START
G1 F1080
G1 X95.782 Y95.601 E-.46052
G1 X96.017 Y95.535 E-.36659
G1 X96.466 Y95.535 E-.67289
;WIPE_END
G1 Z.72 F9000
G1 X123.497 Y121.394 Z.72
G1 Z.32
G1 E5 F2400
M204 S500
;TYPE:Internal solid infill
;WIDTH:0.40077
M106 S255
G1 X121.563 Y123.328 E.05016
G1 X121.032 Y123.328 E.00972
G1 X123.328 Y121.032 E.05954
G1 X123.328 Y120.502 E.00972
G1 X120.502 Y123.328 E.07329
G1 X119.972 Y123.328 E.00972
G1 X123.328 Y119.971 E.08704
G1 X123.328 Y119.441 E.00972
G1 X119.441 Y123.328 E.1008
G1 X118.911 Y123.328 E.00972
G1 X123.328 Y118.911 E.11455
G1 X123.328 Y118.38 E.00972
G1 X118.381 Y123.328 E.1283
G1 X117.85 Y123.328 E.00972
G1 X123.328 Y117.85 E.14205
G1 X123.328 Y117.32 E.00972
G1 X117.32 Y123.328 E.1558
G1 X116.79 Y123.328 E.00972
G1 X123.328 Y116.789 E.16955
G1 X123.328 Y116.259 E.00972
G1 X116.259 Y123.328 E.1833
G1 X115.729 Y123.328 E.00972
G1 X123.328 Y115.729 E.19706
G1 X123.328 Y115.198 E.00972
G1 X115.199 Y123.328 E.21081
G1 X114.668 Y123.328 E.00972
G1 X123.328 Y114.668 E.22456
G1 X123.328 Y114.138 E.00972
G1 X114.138 Y123.328 E.23831
G1 X113.608 Y123.328 E.00972
G1 X123.328 Y113.607 E.25206
G1 X123.328 Y113.077 E.00972
G1 X113.077 Y123.328 E.26581
G1 X112.547 Y123.328 E.00972
G1 X123.328 Y112.547 E.27956
G1 X123.328 Y112.016 E.00972
G1 X112.017 Y123.328 E.29332
G1 X111.486 Y123.328 E.00972
G1 X123.328 Y111.486 E.30707
G1 X123.328 Y110.956 E.00972
G1 X110.956 Y123.328 E.32082
G1 X110.426 Y123.328 E.00972
G1 X123.328 Y110.425 E.33457
G1 X123.328 Y109.895 E.00972
G1 X109.895 Y123.328 E.34832
G1 X109.365 Y123.328 E.00972
G1 X123.328 Y109.365 E.36207
G1 X123.328 Y108.834 E.00972
G1 X108.835 Y123.328 E.37582
G1 X108.304 Y123.328 E.00972
G1 X123.328 Y108.304 E.38958
G1 X123.328 Y107.774 E.00972
G1 X107.774 Y123.328 E.40333
G1 X107.244 Y123.328 E.00972
G1 X123.328 Y107.243 E.41708
G1 X123.328 Y106.713 E.00972
M73 P6 R43
G1 X106.713 Y123.328 E.43083
G1 X106.183 Y123.328 E.00972
G1 X123.328 Y106.183 E.44458
G1 X123.328 Y105.652 E.00972
G1 X105.653 Y123.328 E.45833
G1 X105.122 Y123.328 E.00972
G1 X123.328 Y105.122 E.47208
G1 X123.328 Y104.591 E.00972
G1 X104.592 Y123.328 E.48584
G1 X104.062 Y123.328 E.00972
G1 X123.328 Y104.061 E.49959
G1 X123.328 Y103.531 E.00972
G1 X103.531 Y123.328 E.51334
G1 X103.001 Y123.328 E.00972
G1 X123.328 Y103 E.52709
G1 X123.328 Y102.47 E.00972
G1 X102.471 Y123.328 E.54084
G1 X101.94 Y123.328 E.00972
G1 X123.328 Y101.94 E.55459
G1 X123.328 Y101.409 E.00972
G1 X101.41 Y123.328 E.56834
G1 X100.88 Y123.327 E.00972
G1 X123.328 Y100.879 E.5821
G1 X123.328 Y100.349 E.00972
G1 X100.349 Y123.327 E.59585
G1 X99.819 Y123.327 E.00972
G1 X123.328 Y99.818 E.6096
G1 X123.328 Y99.288 E.00972
G1 X99.289 Y123.327 E.62335
G1 X98.758 Y123.327 E.00972
G1 X123.328 Y98.758 E.6371
G1 X123.328 Y98.227 E.00972
G1 X98.228 Y123.327 E.65085
G1 X97.698 Y123.327 E.00972
G1 X123.328 Y97.697 E.6646
G1 X123.328 Y97.167 E.00972
G1 X97.167 Y123.327 E.67836
G1 X96.672 Y123.327 E.00908
G1 X96.672 Y123.292 E.00065
G1 X123.291 Y96.673 E.69025
G1 X122.761 Y96.673 E.00972
G1 X96.672 Y122.762 E.6765
G1 X96.672 Y122.231 E.00972
G1 X122.231 Y96.673 E.66274
G1 X121.7 Y96.673 E.00972
G1 X96.672 Y121.701 E.64899
G1 X96.672 Y121.171 E.00972
G1 X121.17 Y96.673 E.63524
G1 X120.64 Y96.673 E.00972
G1 X96.672 Y120.64 E.62149
G1 X96.672 Y120.11 E.00972
G1 X120.109 Y96.673 E.60774
G1 X119.579 Y96.673 E.00972
G1 X96.672 Y119.58 E.59398
G1 X96.672 Y119.049 E.00972
G1 X119.049 Y96.673 E.58023
G1 X118.518 Y96.673 E.00972
G1 X96.672 Y118.519 E.56648
G1 X96.672 Y117.989 E.00972
G1 X117.988 Y96.673 E.55273
G1 X117.458 Y96.673 E.00972
G1 X96.672 Y117.458 E.53897
G1 X96.672 Y116.928 E.00972
G1 X116.927 Y96.673 E.52522
G1 X116.397 Y96.673 E.00972
G1 X96.672 Y116.397 E.51147
M73 P7 R43
G1 X96.672 Y115.867 E.00972
G1 X115.867 Y96.673 E.49772
G1 X115.336 Y96.673 E.00972
G1 X96.672 Y115.337 E.48396
G1 X96.672 Y114.806 E.00972
G1 X114.806 Y96.673 E.47021
G1 X114.275 Y96.673 E.00972
G1 X96.672 Y114.276 E.45646
G1 X96.672 Y113.746 E.00972
G1 X113.745 Y96.673 E.44271
G1 X113.215 Y96.673 E.00972
G1 X96.672 Y113.215 E.42896
G1 X96.672 Y112.685 E.00972
G1 X112.684 Y96.673 E.4152
G1 X112.154 Y96.673 E.00972
G1 X96.672 Y112.155 E.40145
G1 X96.672 Y111.624 E.00972
G1 X111.624 Y96.673 E.3877
G1 X111.093 Y96.673 E.00972
G1 X96.672 Y111.094 E.37395
G1 X96.672 Y110.564 E.00972
G1 X110.563 Y96.673 E.36019
G1 X110.033 Y96.673 E.00972
G1 X96.672 Y110.033 E.34644
G1 X96.672 Y109.503 E.00972
G1 X109.502 Y96.673 E.33269
G1 X108.972 Y96.673 E.00972
G1 X96.672 Y108.972 E.31894
G1 X96.672 Y108.442 E.00972
G1 X108.442 Y96.673 E.30518
G1 X107.911 Y96.673 E.00972
G1 X96.672 Y107.912 E.29143
G1 X96.672 Y107.381 E.00972
G1 X107.381 Y96.673 E.27768
G1 X106.85 Y96.673 E.00972
G1 X96.672 Y106.851 E.26393
G1 X96.672 Y106.321 E.00972
G1 X106.32 Y96.673 E.25018
G1 X105.79 Y96.673 E.00972
G1 X96.672 Y105.79 E.23642
G1 X96.672 Y105.26 E.00972
G1 X105.259 Y96.673 E.22267
G1 X104.729 Y96.673 E.00972
G1 X96.672 Y104.73 E.20892
G1 X96.672 Y104.199 E.00972
M73 P7 R42
G1 X104.199 Y96.673 E.19517
G1 X103.668 Y96.673 E.00972
G1 X96.672 Y103.669 E.18141
G1 X96.672 Y103.139 E.00972
G1 X103.138 Y96.673 E.16766
G1 X102.608 Y96.673 E.00972
G1 X96.672 Y102.608 E.15391
G1 X96.672 Y102.078 E.00972
G1 X102.077 Y96.673 E.14016
G1 X101.547 Y96.673 E.00972
G1 X96.672 Y101.547 E.1264
G1 X96.672 Y101.017 E.00972
G1 X101.017 Y96.673 E.11265
G1 X100.486 Y96.673 E.00972
G1 X96.672 Y100.487 E.0989
G1 X96.672 Y99.956 E.00972
G1 X99.956 Y96.673 E.08515
G1 X99.425 Y96.673 E.00972
G1 X96.672 Y99.426 E.0714
G1 X96.672 Y98.896 E.00972
G1 X98.895 Y96.673 E.05764
G1 X98.365 Y96.673 E.00972
G1 X96.672 Y98.365 E.04389
G1 X96.672 Y97.835 E.00972
G1 X97.834 Y96.673 E.03014
G1 X97.304 Y96.673 E.00972
G1 X96.504 Y97.473 E.02075
M204 S700
G1 X122.298 Y123.164 F9000
M204 S500
;WIDTH:0.533257
G1 F2400
G1 X123.164 Y123.164 E.0215
G1 X123.164 Y122.298 E.0215
G1 X122.326 Y123.136 E.02941
; stop printing object BasePlate.stl id:720576387062527073 copy 0
;LAYER_CHANGE
;Z:0.44
;HEIGHT:0.12
;BEFORE_LAYER_CHANGE
;0.44
G92 E0

G1 E-3.5 F3600
;WIPE_START
G1 F2400
G1 X123.033 Y122.429 E-1.5
;WIPE_END
;_SET_FAN_SPEED_CHANGING_LAYER
; printing object BasePlate.stl id:720576387062527073 copy 0
M204 S700
G1 Z.84 F9000
G1 X96.252 Y96.252 Z.84
G1 Z.44
G1 E5 F2400
M204 S500
;TYPE:Inner wall
;WIDTH:0.449999
G1 X123.748 Y96.253 E.57032
G1 X123.748 Y123.748 E.5703
G1 X96.252 Y123.748 E.57032
G1 X96.252 Y96.292 E.56949
M204 S700
G1 X95.887 Y95.908 F9000
M204 S500
G1 F2400
G1 X95.896 Y95.883 E.00056
G1 X96.052 Y95.828 E.00343
G1 X123.993 Y95.829 E.57955
G1 X124.115 Y95.915 E.00309
G1 X124.172 Y96.101 E.00405
G1 X124.172 Y123.887 E.57634
G1 X124.126 Y124.099 E.0045
G1 X123.923 Y124.172 E.00447
G1 X96.102 Y124.172 E.57709
G1 X95.923 Y124.134 E.00378
G1 X95.828 Y123.93 E.00466
G1 X95.828 Y96.07 E.57789
G1 X95.873 Y95.946 E.00274
G1 X95.478 Y95.76 F9000
;TYPE:Outer wall
